assets/core/filters/luts/01_Color LUTs_Vibrance.cube
TITLE "Generated by Resolve"
LUT_3D_SIZE 5
0 0 0
0.241779 0 0
0.45594 0 0
0.7411 0 0
0.975341 0 0
0 0.215808 0
0.229404 0.163409 0
0.455329 0.148791 0
0.762768 0.142306 0
1 0.220401 0.00260929
0 0.477333 0
0.225132 0.488579 0
0.462562 0.444266 0
0.782422 0.452522 0
1 0.538277 0.0309606
0 0.795529 0
0.25449 0.819852 0.00320439
0.488273 0.796628 0.0127718
0.800031 0.802991 0.00926223
1 0.833082 0.0177615
0.0658885 1 0.0658885
0.309514 1 0.0582284
0.532067 1 0.0515297
0.817777 1 0.0249027
1 1 0.01944
0 0 0.217823
0.243519 0 0.210315
0.452857 0 0.139361
0.730861 0 0.0751965
0.975906 0 0.188647
0 0.216007 0.216007
0.244221 0.211017 0.211017
0.468132 0.157961 0.11104
0.773419 0.14873 0.101808
1 0.198886 0.17615
0 0.483146 0.188083
0.184588 0.479103 0.156374
0.38883 0.43595 0.0546731
0.796704 0.465568 0.124941
1 0.505867 0.170794
0 0.805875 0.207309
0.264515 0.829877 0.231312
0.508385 0.846799 0.246647
0.804776 0.795544 0.133165
1 0.802563 0.143679
0.0661784 1 0.28426
0.308263 1 0.275059
0.53019 1 0.267735
0.80618 1 0.144152
1 1 0.171695
0 0 0.507439
0.237644 0 0.499519
0.463416 0 0.49604
0.735836 0 0.397482
0.971038 0 0.477852
0 0.210697 0.505776
0.240269 0.207065 0.502144
0.475013 0.212558 0.507637
0.77467 0.149966 0.385351
1 0.180926 0.426169
0 0.484245 0.484245
0.19379 0.50724 0.552102
0.487465 0.520088 0.520088
0.80589 0.473075 0.416587
1 0.507866 0.451377
0 0.811383 0.507881
0.267018 0.83238 0.528878
0.371695 0.82652 0.422568
0.712383 0.773098 0.300633
1 0.796033 0.41326
0.0603952 1 0.573556
0.301274 1 0.563149
0.522515 1 0.555123
0.806226 1 0.525948
1 1 0.412085
0 0 0.80444
0.231159 0 0.796536
0.457084 0 0.79321
0.750042 0 0.773724
0.966781 0 0.778088
0 0.20531 0.803876
0.236057 0.202853 0.801434
0.473365 0.21091 0.809476
0.78291 0.208026 0.806592
1 0.198947 0.78558
0 0.485374 0.788876
0.163272 0.517708 0.861952
0.489632 0.522255 0.825757
0.812268 0.532464 0.835966
1 0.508797 0.793149
0 0.815793 0.815793
0.267964 0.833341 0.833341
0.457191 0.851057 0.879484
0.798001 0.821698 0.821698
1 0.788571 0.749325
0.0534829 1 0.87013
0.293385 1 0.858763
0.513939 1 0.850065
0.713115 1 0.751095
1 1 0.678233
0 0 0.99675
0.232654 0 0.98854
0.459098 0 0.985748
0.75259 0 0.966796
0.97081 0 0.972656
0 0.208453 0.997543
0.240757 0.207553 0.996658
0.480491 0.218036 1
0.792157 0.217273 1
1 0.241367 1
0 0.495003 0.989029
0.249012 0.510872 1
0.501274 0.533883 1
0.824903 0.545098 1
1 0.571206 1
0.0108644 0.827527 1
0.274739 0.840116 1
0.424735 0.866987 1
0.799329 0.823026 1
1 0.819928 1
0.0542153 1 1
0.293477 1 1
0.513603 1 1
0.799008 1 1
1 1 1
