assets/core/filters/luts/01_Color LUTs_Vibrance.cube
TITLE "Generated by Resolve"
LUT_3D_SIZE 33
0 0 0
0.0296941 0 0
0.0603647 0 0
0.0913252 0 0
0.122072 0 0
0.152605 0 0
0.182727 0 0
0.212467 0 0
0.241779 0 0
0.270787 0 0
0.298634 0 0
0.3252 0 0
0.350927 0 0
0.376272 0 0
0.401785 0 0
0.428199 0 0
0.45594 0 0
0.486122 0 0
0.519265 0 0
0.555016 0 0
0.59266 0 0
0.630152 0 0
0.666041 0 0
0.7028 0 0
0.7411 0 0
0.77705 0 0
0.810956 0 0
0.842557 0 0
0.871839 0 0
0.898497 0 0
0.92401 0 0
0.949737 0 0
0.975341 0 0
0 0.0268406 0
0.029984 0.0260319 0
0.0607767 0.0251774 0
0.09131 0.0239109 0
0.121828 0.0224613 0
0.152148 0.0208591 0
0.182086 0.0191348 0
0.211887 0.0174868 0
0.241047 0.0154879 0
0.269734 0.0134127 0
0.29752 0.0113527 0
0.324086 0.00941482 0
0.349859 0.00749218 0
0.375509 0.00570687 0
0.401099 0.00347906 0
0.427527 0.000900282 0
0.455512 0 0
0.485985 0 0
0.519509 0 0
0.555825 0 0
0.593683 0 0
0.631632 0 0
0.66807 0 0
0.704906 0 0
0.742138 0 0
0.777173 0 0
0.810315 0 0
0.841733 0 0
0.871382 0 0
0.898985 0 0
0.92488 0 0
0.950683 0 0
0.976394 0 0
0.00015259 0.0540627 0.00015259
0.0302281 0.0532387 0
0.0605936 0.0512856 0
0.090959 0.0495766 0
0.121309 0.0476387 0
0.151446 0.0455177 0
0.181399 0.0434577 0
0.210864 0.0410773 0
0.239918 0.0385748 0
0.268528 0.0359808 0
0.296284 0.0334325 0
0.322835 0.0310216 0
0.348837 0.0288853 0
0.37435 0.0264744 0
0.400061 0.0239109 0
0.426657 0.0210422 0
0.454856 0.0176547 0
0.485573 0.0135805 0
0.519554 0.00888075 0
0.556054 0.00331121 0
0.594293 0 0
0.632654 0 0
0.669505 0 0
0.706752 0 0
0.743175 0 0
0.777478 0 0
0.810193 0.00476081 0
0.841428 0.0117952 0
0.871351 0.0180209 0
0.899809 0.0227207 0
0.926314 0.0247654 0
0.952163 0.0256352 0
0.978012 0.0265812 0
0.000320439 0.0808881 0.000320439
0.0303044 0.0799573 0
0.0603799 0.0761578 0
0.0905776 0.07393 0
0.120775 0.0714733 0
0.150988 0.0690623 0
0.180636 0.0663157 0
0.209979 0.0634318 0
0.238956 0.0604562 0
0.267536 0.057435 0
0.29546 0.0546731 0
0.322087 0.051957 0
0.347845 0.0492714 0
0.373098 0.0465248 0
0.398367 0.0436408 0
0.4262 0.0407721 0
0.454887 0.0375372 0
0.485863 0.0334173 0
0.519936 0.0285344 0
0.556756 0.0230259 0
0.595392 0.0171969 0
0.634211 0.0115206 0
0.671748 0.00666819 0
0.708934 0.00741588 0
0.744793 0.0125582 0
0.778622 0.0195926 0
0.811048 0.0276188 0
0.842206 0.0358129 0
0.872328 0.043473 0
0.901015 0.0495003 0
0.928328 0.053315 0
0.954574 0.0546883 0
0.980652 0.0558633 0
0.000244144 0.107515 0.000244144
0.0301976 0.106569 0
0.0607004 0.10547 0
0.0901656 0.0972305 0
0.120317 0.094377 0
0.15021 0.0912795 0
0.179767 0.0880903 0
0.209064 0.0848249 0
0.238025 0.0814984 0
0.266773 0.0783093 0
0.294499 0.0751049 0
0.320836 0.0720531 0
0.346258 0.0691081 0
0.371237 0.0661784 0
0.396246 0.0631266 0
0.425177 0.0606088 0
0.455024 0.0574502 0
0.486336 0.0534829 0
0.520775 0.0488441 0
0.557977 0.0436103 0
0.596979 0.0381018 0
0.636439 0.0330663 0
0.674266 0.0285344 0
0.711635 0.0299992 0
0.747066 0.0350958 0
0.780514 0.0423896 0
0.812924 0.0512551 0
0.843976 0.0603647 0
0.874022 0.0690471 0
0.902983 0.0764782 0
0.930846 0.0819104 0
0.957732 0.084535 0
0.984421 0.0863508 0
1.5259e-05 0.134157 1.5259e-05
0.0299687 0.133196 0
0.0605631 0.132219 0
0.0895247 0.119493 0
0.119493 0.116152 0
0.149325 0.112673 0
0.178836 0.109148 0
0.208118 0.105562 0
0.237232 0.10219 0
0.265568 0.0985885 0
0.292912 0.0951095 0
0.318914 0.0918593 0
0.34403 0.0887617 0
0.368902 0.085893 0
0.39382 0.082948 0
0.420508 0.0799268 0
0.455589 0.0781262 0
0.487205 0.074464 0
0.522026 0.0702068 0
0.559869 0.0656748 0
0.599374 0.0607919 0
0.639048 0.0561227 0
0.677348 0.0523537 0
0.714763 0.0540169 0
0.749996 0.0589914 0
0.78349 0.0666972 0
0.815442 0.0757 0
0.846403 0.0854963 0
0.876585 0.0952316 0
0.905913 0.104067 0
0.934279 0.11107 0
0.962081 0.115663 0
0.988876 0.117678 0
0 0.160952 0
0.0297856 0.16022 0
0.0603189 0.159167 0
0.0909285 0.158099 0
0.118471 0.137255 0
0.148272 0.133532 0
0.177829 0.129854 0
0.207019 0.126177 0
0.235554 0.122347 0
0.263554 0.118563 0
0.290593 0.115007 0
0.31635 0.111742 0
0.34136 0.108812 0
0.365972 0.105974 0
0.390661 0.103059 0
0.416251 0.100053 0
0.456535 0.100053 0
0.488563 0.0968948 0
0.523934 0.0933547 0
0.562066 0.0893416 0
0.602045 0.0851911 0
0.642283 0.0814069 0
0.681147 0.078706 0
0.718395 0.0797589 0
0.753765 0.0847181 0
0.786984 0.092256 0
0.818982 0.101671 0
0.849943 0.112032 0
0.880171 0.12256 0
0.910018 0.132769 0
0.938964 0.141344 0
0.967239 0.147494 0
0.994614 0.150591 0
0 0.188205 0
0.0290379 0.187335 0
0.0596475 0.186374 0
0.0903487 0.185397 0
0.11899 0.170687 0
0.146685 0.154238 0
0.175998 0.150423 0
0.204746 0.146502 0
0.233005 0.142626 0
0.2607 0.138827 0
0.287449 0.135302 0
0.313191 0.132387 0
0.337942 0.129564 0
0.362371 0.126925 0
0.386984 0.124331 0
0.412528 0.121691 0
0.456443 0.12343 0
0.490455 0.121523 0
0.526162 0.118639 0
0.564691 0.115373 0
0.605127 0.112108 0
0.645899 0.10927 0
0.685405 0.10721 0
0.72285 0.107927 0
0.757946 0.112306 0
0.791135 0.119738 0
0.823224 0.129397 0
0.854444 0.140352 0
0.885161 0.151919 0
0.915007 0.16286 0
0.944198 0.172534 0
0.972992 0.180163 0
1 0.184924 0
0 0.215808 0
0.0278325 0.215015 0
0.0584726 0.214069 0
0.0891127 0.213092 0
0.119921 0.212268 0
0.144183 0.175143 0
0.173007 0.171115 0
0.201419 0.167178 0
0.229404 0.163409 0
0.256931 0.159869 0
0.28368 0.156786 0
0.30901 0.153933 0
0.333608 0.151461 0
0.358007 0.149279 0
0.382712 0.14728 0
0.408469 0.145357 0
0.455329 0.148791 0
0.492302 0.148379 0
0.528588 0.146517 0
0.567742 0.144335 0
0.608667 0.141756 0
0.649912 0.139422 0
0.689754 0.137682 0
0.727382 0.138018 0
0.762768 0.142306 0
0.796124 0.149722 0
0.82826 0.159396 0
0.859846 0.170916 0
0.890547 0.182818 0
0.920653 0.194553 0
0.950134 0.205219 0
0.979217 0.213993 0
1 0.220401 0.00260929
0 0.244038 0
0.0259251 0.243259 0
0.0564431 0.242267 0
0.087068 0.241443 0
0.117403 0.240391 0
0.146105 0.231159 0
0.168887 0.192554 0
0.19704 0.188815 0
0.22475 0.185306 0
0.252232 0.182269 0
0.278691 0.179461 0
0.303975 0.177157 0
0.328527 0.17525 0
0.352926 0.173678 0
0.377997 0.172671 0
0.403952 0.171542 0
0.455253 0.177249 0
0.494484 0.178393 0
0.531182 0.177188 0
0.57084 0.175525 0
0.612543 0.173724 0
0.6542 0.171801 0
0.694331 0.170352 0
0.732158 0.170504 0
0.767727 0.174578 0
0.80148 0.182116 0
0.834012 0.19205 0
0.865385 0.203403 0
0.896147 0.215564 0
0.92639 0.227787 0
0.956146 0.239261 0.000854505
0.985733 0.249241 0.0053254
1 0.256718 0.00932326
0 0.272862 0
0.0229496 0.272221 0
0.0533608 0.271305 0
0.0835737 0.270314 0
0.113603 0.269276 0
0.143343 0.268269 0
0.167056 0.236088 0
0.191546 0.212177 0
0.219104 0.209155 0
0.246204 0.206409 0
0.272526 0.204181 0
0.297841 0.202609 0
0.322576 0.201602 0
0.347433 0.201205 0
0.372412 0.200824 0
0.398611 0.200595 0
0.458015 0.209583 0
0.496544 0.211002 0
0.533806 0.210346 0
0.574014 0.209232 0
0.615854 0.207568 0
0.657969 0.206088 0
0.698619 0.205173 0
0.736812 0.205447 0
0.772641 0.209415 0
0.806561 0.216815 0
0.839063 0.226551 0
0.870619 0.237995 0
0.901503 0.250324 0
0.931777 0.262806 0.00177005
0.961913 0.275029 0.00665293
0.991455 0.285496 0.0110475
1 0.293812 0.0151522
0 0.302693 0
0.0183108 0.301915 0
0.0484321 0.300984 0
0.0783856 0.300084 0
0.108217 0.299214 0
0.137682 0.298344 0
0.165988 0.292836 0
0.185672 0.245167 0
0.211719 0.235096 0
0.23888 0.233219 0
0.265248 0.23183 0
0.290578 0.231113 0
0.31574 0.231342 0
0.340673 0.2318 0
0.366033 0.232273 0
0.392462 0.232456 0
0.462699 0.245182 0
0.498161 0.246143 0
0.535866 0.24593 0
0.576333 0.245075 0
0.61857 0.243809 0
0.660975 0.242634 0
0.701961 0.242039 0
0.740795 0.242832 0
0.776776 0.246662 0
0.810636 0.253727 0
0.843168 0.263249 0
0.874739 0.274571 0
0.90576 0.286992 0.00158694
0.936355 0.29984 0.00637827
0.966171 0.311986 0.010956
0.995712 0.322835 0.0153201
1 0.331731 0.0194553
0 0.333349 0
0.012192 0.332662 0
0.0420233 0.331823 0
0.0716564 0.331014 0
0.101366 0.330495 0
0.130755 0.330007 0
0.159564 0.329549 0
0.18352 0.306203 0
0.203235 0.264881 0
0.230274 0.26305 0
0.257145 0.263081 0
0.282811 0.263584 0
0.307836 0.264256 0
0.332815 0.265034 0
0.358328 0.265858 0
0.397223 0.270268 0
0.463981 0.282597 0
0.498772 0.283375 0
0.536751 0.283452 0
0.577554 0.282948 0
0.620188 0.282078 0
0.662943 0.281239 0
0.704479 0.281193 0
0.743206 0.281834 0
0.779339 0.285634 0
0.813321 0.292592 0
0.84593 0.301946 0
0.877546 0.3131 0
0.908675 0.32549 0.00453193
0.938933 0.337972 0.00900282
0.968688 0.350103 0.013489
0.998184 0.361151 0.0178073
1 0.370428 0.021912
0 0.364828 0
0.00511177 0.364355 0
0.0347601 0.363836 0
0.0643168 0.363485 0
0.0936751 0.363104 0
0.122698 0.362783 0
0.151385 0.362692 0
0.179171 0.359777 0
0.199084 0.32076 0
0.221561 0.29659 0
0.24828 0.297169 0
0.273991 0.2981 0
0.299199 0.299245 0
0.324331 0.300435 0
0.349935 0.301518 0
0.425452 0.317784 0
0.4636 0.321309 0
0.498787 0.322484 0
0.537072 0.322866 0
0.578103 0.322576 0
0.621241 0.32221 0
0.664256 0.32163 0
0.705699 0.321508 0
0.744595 0.322316 0
0.780819 0.326116 0
0.814786 0.332906 0
0.847684 0.342321 0
0.879179 0.353109 0.00163272
0.909957 0.36495 0.00585946
0.940139 0.377203 0.0102235
0.969802 0.389227 0.0146181
0.999252 0.400305 0.0188907
1 0.410101 0.0232395
0 0.403723 0
0.00311284 0.403708 0
0.0276341 0.397192 0
0.0569009 0.397116 0
0.0860456 0.397101 0
0.114855 0.397131 0
0.143267 0.397314 0
0.171588 0.397833 0
0.196094 0.381888 0
0.214939 0.342565 0
0.239338 0.333135 0
0.264988 0.33434 0
0.290196 0.33579 0
0.315694 0.33756 0
0.385031 0.352667 0
0.430335 0.359472 0
0.463096 0.361456 0
0.498482 0.362844 0
0.537026 0.36347 0
0.578546 0.363684 0
0.621592 0.36321 0
0.664668 0.362707 0
0.706172 0.362631 0
0.745159 0.363592 0
0.78143 0.367468 0
0.815732 0.374472 0
0.848264 0.383322 0
0.879698 0.393805 0.00216678
0.910399 0.405295 0.00630198
0.94049 0.417273 0.010605
0.970214 0.429191 0.0150454
1 0.440879 0.0199283
1 0.451072 0.024567
0 0.439841 0
0 0.440986 0
0.0319066 0.44181 0
0.0645304 0.442756 0
0.0856336 0.436423 0
0.107485 0.432639 0
0.135851 0.433356 0
0.163958 0.434211 0
0.191196 0.433265 0
0.211521 0.402899 0
0.231037 0.372564 0
0.256229 0.372 0
0.298695 0.379385 0
0.364263 0.393759 0
0.398489 0.397803 0
0.42977 0.400412 0
0.46273 0.402594 0
0.498238 0.404105 0
0.537179 0.405127 0
0.5785 0.405127 0
0.621546 0.404669 0
0.664683 0.404211 0
0.706233 0.404196 0
0.745525 0.405631 0
0.781933 0.409751 0
0.815915 0.416358 0
0.848463 0.42504 0
0.880064 0.435431 0.002533
0.911177 0.447059 0.00709545
0.942229 0.459693 0.0123445
0.97258 0.472023 0.0174105
1 0.483604 0.0223545
1 0.494026 0.0272374
0 0.477333 0
0 0.47866 0
0.0292821 0.479942 0
0.0622416 0.481239 0
0.0953994 0.482567 0
0.128908 0.484337 0
0.162005 0.485985 0
0.194934 0.487724 0
0.225132 0.488579 0
0.253407 0.478035 0
0.279225 0.445991 0
0.307378 0.430411 0
0.337591 0.433326 0
0.367666 0.436286 0
0.398032 0.4392 0
0.429374 0.441871 0
0.462562 0.444266 0
0.498299 0.446006 0
0.536965 0.446769 0
0.578332 0.446799 0
0.621408 0.446387 0
0.664576 0.44596 0
0.706386 0.446189 0
0.745739 0.447959 0
0.782422 0.452522 0
0.817014 0.459724 0
0.850248 0.46894 0.000259403
0.882429 0.479637 0.00488289
0.914183 0.491585 0.0100862
0.945174 0.503838 0.0153048
0.975753 0.516091 0.0205997
1 0.527749 0.0258488
1 0.538277 0.0309606
0 0.516411 0
0 0.517968 0
0.0263523 0.519524 0
0.0596628 0.521157 0
0.093431 0.523095 0
0.126833 0.524773 0
0.160082 0.526558 0
0.19321 0.528481 0
0.226139 0.53051 0
0.258579 0.531701 0
0.284566 0.509667 0
0.307515 0.480735 0
0.335729 0.475395 0
0.365866 0.478431 0
0.396292 0.481392 0
0.427817 0.484245 0
0.461067 0.486732 0
0.496681 0.488319 0
0.535378 0.489113 0
0.576791 0.489204 0
0.62005 0.48896 0
0.663996 0.489311 0
0.706279 0.490105 0
0.746349 0.492988 0
0.783627 0.498314 0
0.818586 0.505867 0
0.852308 0.515419 0.00227359
0.884962 0.526329 0.00740063
0.916732 0.537957 0.0126345
0.947845 0.549935 0.0179599
0.978378 0.561776 0.0232242
1 0.572885 0.0282292
1 0.583093 0.0332799
0 0.557229 0
0 0.55906 0
0.0223392 0.560784 0
0.0561074 0.562875 0
0.0897383 0.564691 0
0.123339 0.566552 0
0.156725 0.568475 0
0.189914 0.570459 0
0.223194 0.572854 0
0.255833 0.57499 0
0.28542 0.568612 0
0.308415 0.541665 0
0.332372 0.520577 0
0.362036 0.521645 0
0.392782 0.524926 0
0.424216 0.527687 0
0.457359 0.530053 0
0.493233 0.531914 0
0.532464 0.533242 0
0.574701 0.534157 0
0.618906 0.534859 0
0.662974 0.535348 0
0.705669 0.536843 0
0.746166 0.54052 0
0.783886 0.546471 0
0.819379 0.554543 0
0.853254 0.56408 0.00315862
0.885664 0.574456 0.0080415
0.917159 0.585443 0.0130159
0.947921 0.596674 0.0180056
0.978149 0.607767 0.0229801
1 0.618402 0.0279088
1 0.627649 0.0323186
0 0.598795 0
0 0.601099 0
0.0189975 0.603037 0
0.0525521 0.604929 0
0.0862287 0.606775 0
0.119844 0.608652 0
0.153231 0.61059 0
0.18677 0.612924 0
0.21973 0.614969 0
0.252354 0.617105 0
0.284092 0.618891 0
0.309514 0.602457 0
0.331716 0.576745 0
0.358221 0.565515 0
0.389044 0.568872 0
0.421088 0.572259 0
0.454978 0.575372 0
0.491463 0.577844 0
0.531167 0.579644 0
0.573907 0.581064 0
0.618219 0.581857 0
0.662715 0.582895 0
0.705852 0.585336 0
0.746548 0.589532 0
0.784573 0.595911 0
0.819654 0.60354 0
0.853056 0.612406 0.00288396
0.885206 0.622217 0.0075227
0.91635 0.632456 0.0121767
0.946639 0.642771 0.0167239
0.976242 0.652766 0.0210575
1 0.66186 0.024918
1 0.669963 0.0285801
0 0.640391 0
0 0.642512 0
0.0173342 0.644419 0
0.0509041 0.646311 0
0.084596 0.648173 0
0.118212 0.65005 0
0.151919 0.652308 0
0.185107 0.654292 0
0.218036 0.656321 0
0.250675 0.658473 0
0.282719 0.66096 0
0.312367 0.658091 0
0.335958 0.637446 0
0.359686 0.617105 0
0.389075 0.614343 0
0.421454 0.618067 0
0.455665 0.621485 0
0.492897 0.62472 0
0.532906 0.62681 0
0.575586 0.628168 0
0.619944 0.629099 0
0.664424 0.630594 0
0.707469 0.633341 0
0.748318 0.637934 0
0.785809 0.643839 0
0.820523 0.651026 0
0.853284 0.659022 0.00302129
0.884581 0.667643 0.00682078
0.915053 0.676783 0.0108186
0.944854 0.686107 0.0148928
0.973571 0.694728 0.0183719
1 0.702373 0.0213016
1 0.708904 0.0238346
0 0.680461 0
0 0.682506 0
0.0191958 0.684428 0
0.0527504 0.686305 0
0.0866407 0.688365 0
0.120348 0.690333 0
0.15378 0.692317 0
0.187213 0.69453 0
0.220661 0.697093 0
0.253986 0.699916 0
0.286961 0.703334 0
0.318547 0.706554 0
0.3449 0.69575 0
0.36817 0.675273 0
0.394156 0.66154 0
0.426307 0.663737 0
0.461036 0.667689 0
0.497856 0.670497 0
0.537636 0.672374 0
0.580102 0.673655 0
0.624399 0.674983 0
0.668788 0.676799 0
0.711788 0.679774 0
0.751675 0.683528 0
0.788388 0.688655 0
0.822492 0.695064 0.00114443
0.854704 0.702251 0.0043183
0.885573 0.710079 0.00772107
0.9149 0.717617 0.010605
0.943374 0.725109 0.0133669
0.971267 0.732357 0.0160525
0.998749 0.738857 0.0183719
1 0.744274 0.0203098
0 0.718898 0
0 0.720928 0
0.0248722 0.722835 0
0.058732 0.725017 0
0.0928817 0.727352 0
0.127077 0.729809 0
0.161196 0.732479 0
0.195178 0.735241 0
0.228962 0.73814 0
0.262928 0.741604 0
0.295918 0.745037 0
0.327886 0.748821 0
0.357641 0.748379 0
0.38204 0.73315 0
0.406226 0.71545 0
0.434974 0.708156 0
0.469062 0.711437 0
0.505714 0.714199 0
0.545342 0.716182 0
0.587427 0.717494 0
0.631388 0.718822 0
0.675151 0.720256 0
0.717327 0.722545 0
0.75671 0.725826 0.000900282
0.79266 0.730083 0.00233463
0.825696 0.735241 0.00419623
0.857191 0.74139 0.00668345
0.887053 0.747799 0.00910964
0.915801 0.754253 0.0114137
0.943511 0.760464 0.0134585
0.970489 0.766232 0.0152438
0.997208 0.771405 0.0168307
1 0.775937 0.0184024
0 0.756466 0
0.000457771 0.759045 0
0.0348516 0.761852 0
0.0691691 0.764492 0
0.103639 0.767147 0
0.13814 0.769909 0
0.172534 0.772854 0
0.207034 0.77615 0
0.241337 0.779553 0
0.27512 0.782818 0
0.308064 0.786206 0
0.339803 0.789776 0.000289921
0.370733 0.793301 0.00390631
0.39765 0.786435 0.00491341
0.421378 0.770214 0.00335698
0.446906 0.756054 0.00210575
0.478599 0.753933 0.00354009
0.514565 0.756222 0.00543221
0.553613 0.7579 0.00650034
0.59556 0.759274 0.00703441
0.638743 0.759976 0.0065919
0.681651 0.760647 0.00576791
0.722805 0.761959 0.00520333
0.761364 0.76434 0.0053254
0.796735 0.767834 0.00619516
0.829435 0.772381 0.00775158
0.859861 0.777096 0.00918593
0.888823 0.782162 0.0107424
0.916869 0.787427 0.0124056
0.944137 0.792615 0.014023
0.970977 0.797681 0.0157015
0.997253 0.801831 0.016846
1 0.805203 0.0178073
0 0.795529 0
0.0129244 0.798672 0
0.0473487 0.801511 0
0.0819715 0.804456 0
0.116793 0.807462 0
0.151568 0.810498 0
0.186221 0.813703 0
0.220645 0.816907 0.000259403
0.25449 0.819852 0.00320439
0.287938 0.822812 0.00616464
0.320638 0.82594 0.00929274
0.352087 0.829221 0.0125582
0.382895 0.8327 0.0160372
0.411673 0.832715 0.0180667
0.436027 0.821302 0.0166018
0.460136 0.806348 0.0140688
0.488273 0.796628 0.0127718
0.523171 0.797024 0.0137636
0.561395 0.797955 0.0139925
0.602106 0.798154 0.0132753
0.644556 0.798169 0.0121004
0.686946 0.798306 0.0107729
0.72752 0.798917 0.00962844
0.765423 0.800488 0.0091249
0.800031 0.802991 0.00926223
0.831907 0.806394 0.0100099
0.861936 0.81033 0.0110933
0.890532 0.814542 0.0123293
0.91812 0.81883 0.0135653
0.945174 0.823255 0.0149996
0.971496 0.827207 0.0161898
0.997513 0.830549 0.0171054
1 0.833082 0.0177615
0 0.835492 0
0.0272068 0.838712 0
0.0618601 0.841764 0
0.0964981 0.844724 0.00233463
0.131197 0.847608 0.00520333
0.165972 0.85066 0.00825513
0.200183 0.853407 0.0110018
0.234134 0.856138 0.0137484
0.267613 0.858732 0.0163272
0.300465 0.861082 0.018677
0.332418 0.863478 0.021088
0.363317 0.866194 0.0237888
0.39321 0.868757 0.0263523
0.422568 0.871031 0.0286412
0.448661 0.865919 0.0281682
0.47248 0.853437 0.0250248
0.498451 0.841169 0.0218662
0.530205 0.83537 0.0203708
0.567727 0.835523 0.019913
0.607736 0.834989 0.0185245
0.649332 0.834073 0.0165103
0.69102 0.833387 0.0144961
0.731273 0.833524 0.0130465
0.76875 0.834424 0.0121309
0.802899 0.836194 0.0118715
0.834333 0.838773 0.0122225
0.863981 0.841917 0.0129702
0.892287 0.845365 0.0139467
0.919799 0.849058 0.0151522
0.946303 0.852369 0.0160678
0.972229 0.855375 0.0168765
0.99794 0.857862 0.0175174
1 0.859663 0.0179751
0.00834669 0.875425 0.00834669
0.0422217 0.878386 0.0113069
0.0765545 0.881132 0.0140536
0.110933 0.883848 0.0167697
0.145647 0.886732 0.0196536
0.179675 0.889021 0.0219577
0.213169 0.891066 0.0239872
0.246265 0.892958 0.0258793
0.279057 0.89485 0.0277714
0.311437 0.896727 0.0296483
0.342855 0.898589 0.0315099
0.372549 0.900099 0.0330358
0.401358 0.901579 0.0345006
0.429892 0.903044 0.0359655
0.45774 0.902708 0.0366064
0.482994 0.895018 0.0343786
0.508186 0.883665 0.0303197
0.53724 0.874144 0.0265354
0.572763 0.870741 0.0244602
0.61236 0.869688 0.0226749
0.653712 0.868391 0.0204471
0.695109 0.867247 0.0181735
0.734783 0.866575 0.0161746
0.771832 0.866789 0.0148928
0.805722 0.867964 0.0144045
0.836835 0.869856 0.0144808
0.866224 0.872297 0.0150149
0.89424 0.874998 0.0157473
0.921248 0.877668 0.016495
0.947494 0.880186 0.0171969
0.973144 0.882399 0.0177615
0.99855 0.884047 0.0181125
1 0.885252 0.0184482
0.0232242 0.914199 0.0232242
0.0567941 0.916869 0.0258793
0.0909133 0.919402 0.0284276
0.124498 0.921309 0.0303349
0.158053 0.923033 0.0320592
0.191455 0.924712 0.0337377
0.224384 0.926192 0.0352178
0.256733 0.927321 0.036347
0.288746 0.928435 0.0374609
