assets/core/filters/luts/01_Color LUTs_Vibrance.cube
TITLE "Generated by Resolve"
LUT_3D_SIZE 9
0 0 0
0.122072 0 0
0.241779 0 0
0.350927 0 0
0.45594 0 0
0.59266 0 0
0.7411 0 0
0.871839 0 0
0.975341 0 0
0.000244144 0.107515 0.000244144
0.120317 0.094377 0
0.238025 0.0814984 0
0.346258 0.0691081 0
0.455024 0.0574502 0
0.596979 0.0381018 0
0.747066 0.0350958 0
0.874022 0.0690471 0
0.984421 0.0863508 0
0 0.215808 0
0.119921 0.212268 0
0.229404 0.163409 0
0.333608 0.151461 0
0.455329 0.148791 0
0.608667 0.141756 0
0.762768 0.142306 0
0.890547 0.182818 0
1 0.220401 0.00260929
0 0.333349 0
0.101366 0.330495 0
0.203235 0.264881 0
0.307836 0.264256 0
0.463981 0.282597 0
0.620188 0.282078 0
0.779339 0.285634 0
0.908675 0.32549 0.00453193
1 0.370428 0.021912
0 0.477333 0
0.0953994 0.482567 0
0.225132 0.488579 0
0.337591 0.433326 0
0.462562 0.444266 0
0.621408 0.446387 0
0.782422 0.452522 0
0.914183 0.491585 0.0100862
1 0.538277 0.0309606
0 0.640391 0
0.084596 0.648173 0
0.218036 0.656321 0
0.335958 0.637446 0
0.455665 0.621485 0
0.619944 0.629099 0
0.785809 0.643839 0
0.915053 0.676783 0.0108186
1 0.708904 0.0238346
0 0.795529 0
0.116793 0.807462 0
0.25449 0.819852 0.00320439
0.382895 0.8327 0.0160372
0.488273 0.796628 0.0127718
0.644556 0.798169 0.0121004
0.800031 0.802991 0.00926223
0.91812 0.81883 0.0135653
1 0.833082 0.0177615
0.0364538 0.950912 0.0364538
0.168429 0.956909 0.0424506
0.295888 0.95906 0.0446021
0.412177 0.959792 0.0453346
0.522484 0.954543 0.0426642
0.661707 0.932799 0.0274357
0.811093 0.927642 0.0191653
0.923964 0.931426 0.0190127
1 0.9337 0.0192264
0.0658885 1 0.0658885
0.18854 1 0.062562
0.309514 1 0.0582284
0.421759 1 0.054902
0.532067 1 0.0515297
0.673915 1 0.0377203
0.817777 1 0.0249027
0.926207 1 0.0210727
1 1 0.01944
0 0 0.107042
0.122332 0 0.103624
0.241062 0 0.0890669
0.349828 0 0.0728771
0.454932 0 0.0529641
0.592081 0 0.0221714
0.734447 0 0.00349432
0.867063 0 0.0594034
0.975662 0 0.0775921
0.000213626 0.107485 0.107485
0.122011 0.103288 0.103288
0.238727 0.0798962 0.0664378
0.348653 0.068452 0.0495003
0.457374 0.0578622 0.0339818
0.600504 0.0402686 0.0127413
0.747372 0.0284581 9.15541e-05
0.870665 0.0553902 0.0412146
0.985534 0.0866865 0.0860914
0 0.215991 0.105165
0.119387 0.21207 0.100755
0.230777 0.163287 0.0396124
0.334981 0.153384 0.0260777
0.453346 0.151827 0.0247044
0.615106 0.148196 0.0236515
0.768658 0.143954 0.0194095
0.891997 0.165515 0.0441749
1 0.211978 0.0984512
0 0.333471 0.0871443
0.101076 0.331044 0.0830396
0.215167 0.330465 0.0802777
0.311421 0.271351 0.0100862
0.417792 0.274693 0.010544
0.625223 0.289525 0.0354009
0.787869 0.291966 0.0386358
0.913298 0.308431 0.0558175
1 0.353719 0.10547
0 0.480461 0.0745708
0.0738537 0.470939 0.0568093
0.184771 0.476112 0.0589609
0.278859 0.424292 0
0.386618 0.429328 0
0.630625 0.455604 0.0391852
0.791913 0.459098 0.0426795
0.921019 0.4766 0.0606088
1 0.519921 0.108431
0 0.644388 0.062089
0.0886702 0.652262 0.0699626
0.222156 0.660441 0.0781415
0.347356 0.67216 0.0891585
0.466606 0.632441 0.0319066
0.630655 0.639735 0.0392004
0.794141 0.645441 0.0449073
0.919722 0.659815 0.0602884
1 0.688869 0.0963455
0 0.800687 0.0912947
0.122469 0.813138 0.103746
0.259693 0.825071 0.115679
0.38677 0.836576 0.127184
0.501945 0.822797 0.0982376
0.64918 0.797742 0.0577401
0.801312 0.792142 0.0521706
0.9178 0.799924 0.0644694
1 0.816754 0.092546
0.0403143 0.954772 0.147585
0.170718 0.959182 0.151995
0.297017 0.960189 0.153002
0.412711 0.960327 0.153124
0.525704 0.959625 0.152438
0.657588 0.921889 0.0722972
0.806287 0.913924 0.0672007
0.920378 0.918318 0.0814984
1 0.925978 0.104067
0.0661936 1 0.173465
0.188464 1 0.169757
0.309163 1 0.165148
0.42118 1 0.161593
0.531273 1 0.158007
0.671763 1 0.134524
0.81062 1 0.0959793
0.922316 1 0.104967
1 1 0.118364
0 0 0.217823
0.122118 0 0.214221
0.243519 0 0.210315
0.347936 0 0.165988
0.452857 0 0.139361
0.590265 0 0.103029
0.730861 0 0.0751965
0.86215 0 0.146746
0.975906 0 0.188647
0 0.107195 0.218006
0.121691 0.102968 0.213794
0.243198 0.0991836 0.209995
0.348653 0.0662852 0.132433
0.457923 0.0566567 0.113146
0.602045 0.0407721 0.0908675
0.749401 0.0294347 0.0777905
0.868925 0.0454871 0.111833
0.985061 0.0813306 0.182773
0 0.216007 0.216007
0.120836 0.21294 0.21294
0.244221 0.211017 0.211017
0.353063 0.158343 0.112856
0.468132 0.157961 0.11104
0.619226 0.152331 0.105409
0.773419 0.14873 0.101808
0.895094 0.158206 0.112734
1 0.198886 0.17615
0 0.333074 0.194308
0.100496 0.331411 0.188357
0.213901 0.331731 0.183352
0.312093 0.2757 0.0794537
0.445991 0.287312 0.0969863
0.624292 0.293385 0.112322
0.794247 0.298344 0.122637
0.918959 0.30927 0.133562
1 0.337026 0.171038
0 0.483146 0.188083
0.0747387 0.473182 0.157351
0.184588 0.479103 0.156374
0.288472 0.487114 0.157076
0.38883 0.43595 0.0546731
0.562173 0.439307 0.0615702
0.796704 0.465568 0.124941
0.928908 0.482307 0.143511
1 0.505867 0.170794
0 0.648051 0.176562
0.0925002 0.656077 0.184588
0.148318 0.639612 0.122744
0.251606 0.65243 0.12752
0.356481 0.615641 0.0331426
0.517662 0.616892 0.0254826
0.801022 0.652323 0.129412
0.925292 0.662821 0.13991
1 0.674052 0.153185
0 0.805875 0.207309
0.127749 0.818418 0.219837
0.264515 0.829877 0.231312
0.390265 0.84007 0.241505
0.508385 0.846799 0.246647
0.653269 0.801831 0.139452
0.804776 0.795544 0.133165
0.920333 0.79733 0.134951
1 0.802563 0.143679
0.0435645 0.958022 0.261646
0.17258 0.961059 0.264668
0.297581 0.960754 0.264378
0.412772 0.960388 0.263996
0.525399 0.959319 0.262943
0.664607 0.935088 0.198947
0.807111 0.912123 0.1355
0.920409 0.911665 0.13518
1 0.91603 0.151354
0.0661784 1 0.28426
0.188022 1 0.280125
0.308263 1 0.275059
0.420233 1 0.271458
0.53019 1 0.267735
0.672892 1 0.254536
0.80618 1 0.144152
0.918914 1 0.149218
1 1 0.171695
0 0 0.350103
0.120073 0 0.346181
0.241566 0 0.342367
0.355261 0 0.340505
0.465202 0 0.328801
0.586099 0 0.216007
0.727916 0 0.19115
0.857755 0 0.263783
0.974426 0 0.320775
0 0.105226 0.350042
0.119722 0.100999 0.34583
0.241382 0.0973678 0.342184
0.355749 0.0961776 0.340993
0.459648 0.0654612 0.260731
0.60087 0.038941 0.208087
0.749081 0.0291142 0.197681
0.867018 0.0391852 0.22034
0.983291 0.074342 0.2972
0 0.214359 0.348363
0.119478 0.211582 0.345586
0.243137 0.209934 0.343938
0.360189 0.211429 0.345434
0.468589 0.158419 0.231708
0.620569 0.153674 0.226963
0.775464 0.150774 0.224063
0.897337 0.158862 0.232151
1 0.188006 0.278767
0 0.337224 0.337224
0.112352 0.33846 0.33846
0.241047 0.341863 0.341863
0.363714 0.348943 0.348943
0.480247 0.298863 0.243366
0.638086 0.299977 0.24448
0.797574 0.301671 0.246174
0.922377 0.312688 0.257191
1 0.328496 0.274708
0 0.484565 0.323507
0.0869306 0.481254 0.303624
0.194934 0.484474 0.29398
0.308507 0.494453 0.30013
0.433127 0.45069 0.202869
0.612634 0.457649 0.220279
0.79559 0.467781 0.242329
0.934157 0.487556 0.268971
1 0.506127 0.287526
0 0.650217 0.312734
0.0946212 0.658213 0.320729
0.147158 0.642054 0.244572
0.25069 0.655924 0.248569
0.364584 0.669841 0.253056
0.525719 0.623865 0.137377
0.745861 0.635782 0.181262
0.925643 0.663813 0.258686
1 0.673289 0.270604
0 0.809598 0.345022
0.131136 0.821805 0.357244
0.267155 0.832532 0.367971
0.258152 0.819409 0.259251
0.366171 0.826673 0.258106
0.514687 0.781704 0.130968
0.701442 0.771893 0.125704
0.920272 0.797269 0.2551
1 0.800427 0.258259
0.0444038 0.958862 0.39649
0.17232 0.9608 0.398428
0.296223 0.959411 0.39704
0.411093 0.958694 0.396323
0.523278 0.957198 0.394827
0.665446 0.945708 0.381201
0.806531 0.911543 0.255131
0.919707 0.910933 0.254536
1 0.912551 0.256153
0.0643626 1 0.416449
0.18587 1 0.411963
0.305745 1 0.406561
0.417533 1 0.402762
0.527337 1 0.398886
0.669917 1 0.385565
0.808621 1 0.312993
0.91722 1 0.252033
1 1 0.253986
0 0 0.507439
0.116243 0 0.50341
0.237644 0 0.499519
0.351339 0 0.497642
0.463416 0 0.49604
0.609171 0 0.485878
0.735836 0 0.397482
0.854078 0 0.422415
0.971038 0 0.477852
0 0.101106 0.506981
0.115862 0.0971542 0.503029
0.237659 0.0936446 0.499535
0.352224 0.0926375 0.498527
0.46566 0.0923934 0.498283
0.612177 0.0805982 0.480964
0.745937 0.0261234 0.357122
0.863798 0.0347906 0.375418
0.980591 0.0687419 0.447181
0 0.210697 0.505776
0.116289 0.208377 0.503441
0.240269 0.207065 0.502144
0.357687 0.208927 0.50399
0.475013 0.212558 0.507637
0.62208 0.172168 0.428458
0.77467 0.149966 0.385351
0.897047 0.158572 0.393957
1 0.180926 0.426169
0 0.334981 0.496056
0.110765 0.336858 0.497917
0.239994 0.340795 0.501869
0.362997 0.348241 0.5093
0.486183 0.357733 0.518791
0.638331 0.300206 0.406806
0.797803 0.3019 0.408499
0.922789 0.3131 0.419699
1 0.327535 0.434134
0 0.484245 0.484245
0.101732 0.491829 0.495308
0.19379 0.50724 0.552102
0.363165 0.509468 0.509468
0.487465 0.520088 0.520088
0.642435 0.467414 0.41091
0.80589 0.473075 0.416587
0.936294 0.489708 0.433204
1 0.507866 0.451377
0 0.650416 0.474006
0.0948806 0.658457 0.482048
0.206439 0.661311 0.467094
0.31223 0.671794 0.463767
0.434424 0.686229 0.474098
0.601419 0.643458 0.37145
0.782376 0.648524 0.387747
0.921141 0.660639 0.41265
1 0.671016 0.430411
0 0.811383 0.507881
0.132464 0.823133 0.519631
0.267018 0.83238 0.528878
0.296086 0.825391 0.452903
0.371695 0.82652 0.422568
0.541634 0.820066 0.422629
0.712383 0.773098 0.300633
0.882918 0.778607 0.34139
1 0.796033 0.41326
0.042771 0.957244 0.555932
0.169543 0.958022 0.55671
0.292866 0.956054 0.554742
0.40734 0.95494 0.553628
0.373358 0.94818 0.425864
0.518761 0.936828 0.401007
0.690761 0.901549 0.275349
0.859052 0.895964 0.285161
1 0.908751 0.414435
0.0603952 1 0.573556
0.181613 1 0.56878
0.301274 1 0.563149
0.412863 1 0.559152
0.522515 1 0.555123
0.664942 1 0.541665
0.806226 1 0.525948
0.913466 1 0.410391
1 1 0.412085
0 0 0.678798
0.111254 0 0.67483
0.232624 0 0.670909
0.346242 0 0.668971
0.458457 0 0.667491
0.604334 0 0.657465
0.751125 0 0.647745
0.860349 0 0.637415
0.967147 0 0.651225
0 0.0961013 0.678401
0.110933 0.0922255 0.674525
0.232853 0.088838 0.671138
0.347417 0.0878309 0.67013
0.461341 0.0880751 0.67039
0.6094 0.0802319 0.662531
0.759091 0.0733959 0.655695
0.865568 0.0485237 0.597742
0.97789 0.066331 0.626535
0 0.206149 0.677638
0.112016 0.204105 0.675593
0.236408 0.203204 0.674693
0.354147 0.205386 0.676875
0.472282 0.209827 0.681315
0.625574 0.207218 0.678706
0.780133 0.201602 0.669688
0.894957 0.15671 0.582055
1 0.177371 0.608652
0 0.331746 0.66923
0.108278 0.334386 0.67187
0.238132 0.338933 0.676417
0.361563 0.346792 0.684276
0.485054 0.356603 0.694087
0.642512 0.358175 0.695659
0.797482 0.320836 0.631601
0.921202 0.311528 0.607874
1 0.326848 0.623194
0 0.483009 0.659419
0.0922103 0.492363 0.680858
0.174914 0.510582 0.737377
0.346288 0.511788 0.700069
0.486595 0.519219 0.695644
0.646372 0.523095 0.699519
0.806027 0.473213 0.60647
0.936248 0.489662 0.622919
1 0.50721 0.640467
0 0.6495 0.6495
0.0943923 0.657969 0.657969
0.143633 0.685344 0.760678
0.310018 0.693492 0.733425
0.488838 0.697871 0.697871
0.64773 0.700877 0.700877
0.802243 0.653544 0.602701
0.922911 0.660426 0.609583
1 0.666636 0.615793
0 0.811902 0.684825
0.132464 0.823133 0.69604
0.265888 0.831266 0.704173
0.361501 0.833631 0.689677
0.458244 0.835019 0.677989
0.604974 0.825833 0.664912
0.764065 0.780713 0.560632
0.898787 0.782971 0.573526
1 0.788556 0.591226
0.0398871 0.954345 0.729458
0.16524 0.953719 0.728832
0.288182 0.95137 0.726482
0.402274 0.949874 0.724987
0.422065 0.944884 0.652567
0.538643 0.932403 0.609339
0.715358 0.917998 0.601297
0.860716 0.892042 0.4972
1 0.892683 0.532265
0.0552224 1 0.744793
0.175937 1 0.739513
0.295598 1 0.733883
0.407019 1 0.729732
0.516381 1 0.725414
0.53521 1 0.607462
0.697475 1 0.58024
0.850706 1 0.474281
1 1 0.485054
0 0 0.80444
0.109804 0 0.800473
0.231159 0 0.796536
0.344762 0 0.794568
0.457084 0 0.79321
0.603082 0 0.783307
0.750042 0 0.773724
0.862608 0 0.774121
0.966781 0 0.778088
0 0.0946975 0.804074
0.109636 0.0909133 0.800305
0.231678 0.0876631 0.797055
0.346395 0.0868086 0.796201
0.460639 0.0873579 0.79675
0.609094 0.0799268 0.789303
0.759106 0.0734112 0.782803
0.875944 0.0780652 0.787457
0.983917 0.0829938 0.789532
0 0.20531 0.803876
0.111421 0.203525 0.80209
0.236057 0.202853 0.801434
0.354467 0.205707 0.804273
0.473365 0.21091 0.809476
0.627253 0.208896 0.807477
0.78291 0.208026 0.806592
0.905196 0.218128 0.816709
1 0.198947 0.78558
0 0.332265 0.796841
0.109453 0.335546 0.800122
0.2392 0.340551 0.805341
0.363867 0.349111 0.813672
0.487617 0.359182 0.823743
0.645167 0.36083 0.825391
0.80293 0.362051 0.826612
0.925811 0.368597 0.831907
1 0.329488 0.777005
0 0.485374 0.788876
0.105943 0.493111 0.796613
0.163272 0.517708 0.861952
0.269352 0.532738 0.882856
0.489632 0.522255 0.825757
0.649805 0.526528 0.83003
0.812268 0.532464 0.835966
0.938994 0.511528 0.802579
1 0.508797 0.793149
0 0.652125 0.779217
0.0979171 0.661494 0.788586
0.207202 0.678737 0.821744
0.271031 0.708354 0.885008
0.477348 0.70486 0.840055
0.650004 0.703151 0.830228
0.804608 0.701213 0.828305
0.921706 0.65922 0.759472
1 0.66482 0.765057
0 0.815793 0.815793
0.1355 0.826169 0.826169
0.267964 0.833341 0.833341
0.297887 0.858228 0.911864
0.457191 0.851057 0.879484
0.651637 0.831861 0.831861
0.798001 0.821698 0.821698
0.9093 0.786297 0.747066
1 0.788571 0.749325
0.0401007 0.954559 0.856764
0.164508 0.952987 0.855177
0.286992 0.950179 0.852369
0.400656 0.948257 0.850462
0.485908 0.944793 0.833005
0.614572 0.932235 0.809613
0.763394 0.918456 0.792615
0.888716 0.894774 0.716655
1 0.895796 0.726482
0.0534829 1 0.87013
0.173953 1 0.864622
0.293385 1 0.858763
0.404669 1 0.854475
0.513939 1 0.850065
0.57821 1 0.788144
0.713115 1 0.751095
0.863157 1 0.747646
1 1 0.678233
0 0 0.902968
0.11046 0 0.898924
0.231815 0 0.894987
0.345373 0 0.892989
0.457893 0 0.891814
0.604013 0 0.882033
0.750973 0 0.872465
0.864012 0 0.87332
0.968582 0 0.877699
0 0.0953994 0.902602
0.110475 0.0917525 0.898955
0.23267 0.0886549 0.895857
0.347646 0.0880598 0.895262
0.46215 0.0888838 0.896071
0.610956 0.0817884 0.888991
0.761486 0.0757916 0.882979
0.879118 0.081239 0.888441
0.989105 0.0910353 0.898238
0 0.206668 0.903044
0.113146 0.205234 0.90161
0.238117 0.204913 0.901289
0.357092 0.208316 0.904692
0.476631 0.214176 0.910552
0.631083 0.212726 0.909102
0.78732 0.212436 0.908812
0.909865 0.222797 0.919173
1 0.236301 0.932677
0 0.335256 0.897627
0.112978 0.339071 0.901442
0.243671 0.344472 0.906844
0.368353 0.353582 0.915953
0.492378 0.363928 0.926299
0.649653 0.365316 0.927687
0.807691 0.366812 0.929183
0.931182 0.378119 0.94049
1 0.394369 0.956741
0 0.489937 0.891249
0.110521 0.497688 0.898985
0.24387 0.505745 0.907042
0.331136 0.525734 0.933761
0.495247 0.527871 0.929168
0.655924 0.532631 0.933944
0.818509 0.538705 0.940002
0.944991 0.553002 0.954299
1 0.562509 0.964874
0 0.656962 0.881849
0.10338 0.666957 0.891844
0.240848 0.679149 0.904036
0.281605 0.715969 0.959518
0.40766 0.729366 0.973358
0.654246 0.707393 0.93228
0.807431 0.704036 0.928923
0.922255 0.706691 0.931579
1 0.680049 0.90927
0.00503548 0.821683 0.919493
0.140047 0.830716 0.928512
0.271427 0.836805 0.9346
0.362661 0.84799 0.953262
0.418494 0.863554 0.984573
0.639811 0.835874 0.937484
0.798505 0.822202 0.919997
0.908598 0.820111 0.917922
1 0.787182 0.879271
0.0418708 0.956329 0.956329
0.165698 0.954177 0.954177
0.2878 0.950973 0.950973
0.401099 0.948714 0.948714
0.428031 0.96582 0.99411
0.615976 0.942687 0.957687
0.798947 0.920439 0.920439
0.907134 0.916442 0.916442
1 0.898131 0.875975
0.0537423 1 0.968215
0.174044 1 0.962524
0.293278 1 0.956451
0.404364 1 0.95198
0.513588 1 0.947509
0.633875 1 0.927443
0.769116 1 0.908293
0.888334 1 0.900908
1 1 0.858824
0 0 0.99675
0.111482 0 0.992676
0.232654 0 0.98854
0.346456 0 0.986786
0.459098 0 0.985748
0.605417 0 0.976165
0.75259 0 0.966796
0.865873 0 0.96791
0.97081 0 0.972656
0 0.0965286 0.996429
0.111711 0.0929885 0.992905
0.233921 0.0899062 0.989822
0.349386 0.0897993 0.989715
0.46421 0.0909438 0.99086
0.613428 0.0842603 0.984176
0.764446 0.0787366 0.978653
0.88275 0.0848707 0.984787
0.993408 0.0953384 0.995239
0 0.208453 0.997543
0.115312 0.207416 0.996506
0.240757 0.207553 0.996658
0.360418 0.211643 1
0.480491 0.218036 1
0.635248 0.216907 1
0.792157 0.217273 1
0.914992 0.227924 1
1 0.241367 1
0 0.338827 0.993912
0.117082 0.343175 0.998276
0.24828 0.349081 1
0.373281 0.358511 1
0.497505 0.369055 1
0.654765 0.370413 1
0.812802 0.371923 1
0.937133 0.38407 1
1 0.400748 1
0 0.495003 0.989029
0.115572 0.502739 0.996765
0.249012 0.510872 1
0.374838 0.521141 1
0.501274 0.533883 1
0.662608 0.53933 1
0.824903 0.545098 1
0.950683 0.558694 1
1 0.571206 1
0 0.662547 0.980148
0.109667 0.673243 0.99086
0.247562 0.685863 1
0.377127 0.69984 1
0.466407 0.72192 1
0.658137 0.711269 1
0.810208 0.706813 1
0.923934 0.70837 1
1 0.710887 1
0.0108644 0.827527 1
0.144945 0.835615 1
0.274739 0.840116 1
0.393332 0.843137 1
0.424735 0.866987 1
0.57847 0.855299 1
0.799329 0.823026 1
0.908919 0.820417 1
1 0.819928 1
0.043534 0.957992 1
0.167056 0.95552 1
0.288777 0.951949 1
0.401801 0.949401 1
0.486168 0.953475 1
0.593942 0.950805 1
0.790005 0.923079 1
0.907057 0.916365 1
1 0.914778 1
0.0542153 1 1
0.174395 1 1
0.293477 1 1
0.404303 1 1
0.513603 1 1
0.655863 1 1
0.799008 1 1
0.907073 1 1
1 1 1
