assets/core/filters/luts/01_Wedding LUTs_Sunrise.cube
LUT_3D_SIZE 16
0.000000 0.000000 0.000000
0.017561 0.000000 0.000000
0.064123 0.000000 0.000000
0.134412 0.000000 0.000000
0.205697 0.000000 0.000000
0.278258 0.000000 0.000000
0.350909 0.000000 0.000000
0.424862 0.000000 0.000000
0.500848 0.000000 0.000000
0.577665 0.000000 0.000000
0.655647 0.000000 0.000000
0.733703 0.000000 0.000000
0.812950 0.000000 0.000000
0.895570 0.000000 0.000000
0.964289 0.000000 0.000000
1.007591 0.000000 0.000000
0.000000 0.019776 0.000000
0.017561 0.019776 0.000000
0.064123 0.022819 0.000000
0.134412 0.024717 0.000000
0.205697 0.025579 0.000000
0.278258 0.026358 0.000000
0.350909 0.026230 0.000000
0.424862 0.026358 0.000000
0.500848 0.026499 0.000000
0.577665 0.026566 0.000000
0.655647 0.026499 0.000000
0.733703 0.026566 0.000000
0.812950 0.026430 0.000000
0.895570 0.026085 0.000000
0.964289 0.026430 0.000000
1.007591 0.026085 0.000000
0.000000 0.068014 0.000000
0.020990 0.068014 0.000000
0.065009 0.068014 0.000000
0.134588 0.072633 0.000000
0.205697 0.074391 0.000000
0.278258 0.075699 0.000000
0.350909 0.076286 0.000000
0.424862 0.076647 0.000000
0.500848 0.077063 0.000000
0.577665 0.077264 0.000000
0.655647 0.077063 0.000000
0.733703 0.077264 0.000000
0.812950 0.076870 0.000000
0.895570 0.076803 0.000000
0.964289 0.076870 0.000000
1.007591 0.075851 0.000000
0.000000 0.134354 0.000000
0.022545 0.134354 0.000000
0.068618 0.134354 0.000000
0.135295 0.134354 0.000000
0.205697 0.137102 0.000000
0.278258 0.139870 0.000000
0.350909 0.140257 0.000000
0.424862 0.140923 0.000000
0.500848 0.141566 0.000000
0.577665 0.141889 0.000000
0.655647 0.141566 0.000000
0.733703 0.141889 0.000000
0.812950 0.141241 0.000000
0.895570 0.141673 0.000000
0.964289 0.141241 0.000000
1.007591 0.139572 0.000000
0.000000 0.203037 0.000000
0.023231 0.203037 0.000000
0.071369 0.203037 0.000000
0.137583 0.203037 0.000000
0.205697 0.203079 0.000000
0.278258 0.204991 0.000000
0.350909 0.206251 0.000000
0.424862 0.207097 0.000000
0.500848 0.208045 0.000000
0.577665 0.208465 0.000000
0.655647 0.208045 0.000000
0.733703 0.208465 0.000000
0.812950 0.208632 0.000000
0.895570 0.207371 0.000000
0.964289 0.207567 0.000000
1.007591 0.205286 0.000000
0.000000 0.271750 0.000000
0.023537 0.271750 0.000000
0.072300 0.271750 0.000000
0.140246 0.271750 0.000000
0.207829 0.272076 0.000000
0.278258 0.272109 0.000000
0.350909 0.273138 0.000000
0.424862 0.274224 0.000000
0.500848 0.275396 0.000000
0.577665 0.275970 0.000000
0.655647 0.275396 0.000000
0.733703 0.275970 0.000000
0.812950 0.275868 0.000000
0.895570 0.275067 0.000000
0.964289 0.274798 0.000000
1.007591 0.271885 0.000000
0.000000 0.341012 0.000000
0.023700 0.341012 0.000000
0.073226 0.341012 0.000000
0.140531 0.341012 0.000000
0.209964 0.341012 0.000000
0.280394 0.341343 0.000000
0.350909 0.341012 0.000000
0.424862 0.342392 0.000000
0.500848 0.343800 0.000000
0.577665 0.344486 0.000000
0.655647 0.344866 0.000000
0.733703 0.344486 0.000000
0.812950 0.344148 0.000000
0.895570 0.343816 0.000000
0.964289 0.343086 0.000000
1.007591 0.339562 0.000000
0.000000 0.411748 0.000000
0.023824 0.411748 0.000000
0.073226 0.411748 0.000000
0.140750 0.411748 0.000000
0.210283 0.411748 0.000000
0.281454 0.411748 0.000000
0.352315 0.411748 0.000000
0.424862 0.411748 0.000000
0.500848 0.413419 0.000000
0.577665 0.414222 0.000000
0.655647 0.414498 0.000000
0.733703 0.414222 0.000000
0.812950 0.414707 0.000000
0.895570 0.414746 0.000000
0.964289 0.412612 0.000000
1.007591 0.408385 0.000000
0.000000 0.484531 0.000000
0.023961 0.484531 0.000000
0.073226 0.484531 0.000000
0.142052 0.484531 0.000000
0.210704 0.484531 0.000000
0.282175 0.484531 0.000000
0.353844 0.484531 0.000000
0.426644 0.484531 0.000000
0.500848 0.484531 0.000000
0.577665 0.485480 0.000000
0.655647 0.485618 0.000000
0.733703 0.485480 0.000000
0.812950 0.484626 0.000000
0.895570 0.486021 0.000000
0.964289 0.483547 0.000000
1.007591 0.478582 0.000000
0.000000 0.558272 0.000000
0.024025 0.558272 0.000000
0.074165 0.558272 0.000000
0.142165 0.558272 0.000000
0.212427 0.558272 0.000000
0.281924 0.558272 0.000000
0.354458 0.558272 0.000000
0.427474 0.558272 0.000000
0.501761 0.558272 0.000000
0.577665 0.558272 0.000000
0.655448 0.558272 0.000000
0.733703 0.558272 0.000000
0.812950 0.557088 0.000000
0.895570 0.557798 0.000000
0.964289 0.556056 0.000000
1.007591 0.550348 0.000000
0.000000 0.632869 0.000000
0.024031 0.632869 0.000000
0.074165 0.632869 0.000000
0.142175 0.632869 0.000000
0.212576 0.632869 0.000000
0.283092 0.632869 0.000000
0.354636 0.632869 0.000000
0.427593 0.632869 0.000000
0.501972 0.632869 0.000000
0.577787 0.632869 0.000000
0.655658 0.632869 0.000000
0.733834 0.632869 0.000000
0.812950 0.632251 0.000000
0.895570 0.632283 0.000000
0.964289 0.630135 0.000000
1.007591 0.623754 0.000000
0.000000 0.709101 0.000000
0.024016 0.709101 0.000000
0.074165 0.709101 0.000000
0.142151 0.709101 0.000000
0.212413 0.709101 0.000000
0.281840 0.709101 0.000000
0.354444 0.709101 0.000000
0.427385 0.709101 0.000000
0.501666 0.709101 0.000000
0.577536 0.709101 0.000000
0.654302 0.709101 0.000000
0.733493 0.709101 0.000000
0.812950 0.708633 0.000000
0.895570 0.708724 0.000000
0.964289 0.706478 0.000000
1.007591 0.699097 0.000000
0.000000 0.786593 0.000000
0.024004 0.786593 0.000000
0.074165 0.786593 0.000000
0.142127 0.786593 0.000000
0.212239 0.786593 0.000000
0.282725 0.786593 0.000000
0.354301 0.786593 0.000000
0.427217 0.786593 0.000000
0.501478 0.786593 0.000000
0.577285 0.786593 0.000000
0.655179 0.786593 0.000000
0.733323 0.786593 0.000000
0.812950 0.786123 0.000000
0.895570 0.786627 0.000000
0.964289 0.783963 0.000000
1.007591 0.775982 0.000000
0.000000 0.865513 0.000000
0.023982 0.865513 0.000000
0.074165 0.865513 0.000000
0.142083 0.865513 0.000000
0.212030 0.865513 0.000000
0.282428 0.865513 0.000000
0.354090 0.865513 0.000000
0.426889 0.865513 0.000000
0.501142 0.865513 0.000000
0.576886 0.865513 0.000000
0.653772 0.865513 0.000000
0.732888 0.865513 0.000000
0.812950 0.865330 0.000000
0.895570 0.866021 0.000000
0.964289 0.863225 0.000000
1.007591 0.854286 0.000000
0.000000 0.940507 0.000000
0.023895 0.940507 0.000000
0.073226 0.940507 0.000000
0.141930 0.940507 0.000000
0.211010 0.940507 0.000000
0.281292 0.940507 0.000000
0.353065 0.940507 0.000000
0.425767 0.940507 0.000000
0.499844 0.940507 0.000000
0.575373 0.940507 0.000000
0.652420 0.940507 0.000000
0.730277 0.940507 0.000000
0.810848 0.940507 0.000000
0.891266 0.940502 0.000000
0.964289 0.940507 0.000000
1.007591 0.931883 0.000000
0.000000 0.992446 0.000000
0.023558 0.992446 0.000000
0.072300 0.992446 0.000000
0.140281 0.992446 0.000000
0.209448 0.992446 0.000000
0.277977 0.992446 0.000000
0.349336 0.992446 0.000000
0.421361 0.992446 0.000000
0.494711 0.992446 0.000000
0.569446 0.992446 0.000000
0.645126 0.992446 0.000000
0.723269 0.992446 0.000000
0.802122 0.992446 0.000000
0.883642 0.992446 0.000000
0.956562 0.992446 0.000000
1.007591 0.992446 0.000000
0.000000 0.000000 0.004001
0.017561 0.000000 0.004001
0.064123 0.000000 0.005125
0.134412 0.000000 0.005748
0.205697 0.000000 0.005975
0.278258 0.000000 0.006243
0.350909 0.000000 0.006196
0.424862 0.000000 0.006243
0.500848 0.000000 0.006295
0.577665 0.000000 0.006320
0.655647 0.000000 0.006295
0.733703 0.000000 0.006320
0.812950 0.000000 0.006269
0.895570 0.000000 0.006368
0.964289 0.000000 0.006269
1.007591 0.000000 0.006143
0.000000 0.019776 0.004001
0.017561 0.019776 0.004001
0.064123 0.019776 0.004001
0.134412 0.019776 0.004001
0.205697 0.019776 0.004001
0.278258 0.019776 0.004001
0.350909 0.019776 0.004001
0.424862 0.019776 0.004001
0.500848 0.019776 0.004001
0.577665 0.019776 0.004001
0.655647 0.019776 0.004001
0.733703 0.019776 0.004001
0.812950 0.019776 0.004001
0.895570 0.019776 0.004001
0.964289 0.019776 0.004001
1.007591 0.019776 0.004001
0.000000 0.068014 0.005190
0.017561 0.068014 0.004001
0.065009 0.068014 0.003884
0.134412 0.070770 0.004001
0.205697 0.072189 0.004001
0.278258 0.072446 0.004001
0.350909 0.073122 0.004001
0.424862 0.073381 0.004001
0.500848 0.073683 0.004001
0.577665 0.073823 0.004001
0.655647 0.073683 0.004001
0.733703 0.073823 0.004001
0.812950 0.073444 0.004001
0.895570 0.073537 0.004001
0.964289 0.073444 0.004001
1.007591 0.072598 0.004001
0.000000 0.134354 0.005760
0.017561 0.134354 0.004001
0.066804 0.134354 0.004011
0.134412 0.134354 0.004001
0.205697 0.136430 0.004001
0.278258 0.137965 0.004001
0.350909 0.138534 0.004001
0.424862 0.139016 0.004001
0.500848 0.139598 0.004001
0.577665 0.139867 0.004001
0.655647 0.139598 0.004001
0.733703 0.139867 0.004001
0.812950 0.140163 0.004001
0.895570 0.139635 0.004001
0.964289 0.139111 0.004001
1.007591 0.137534 0.004001
0.000000 0.203037 0.006017
0.017561 0.203037 0.004001
0.068618 0.203037 0.004042
0.136538 0.203037 0.004001
0.205697 0.203235 0.004001
0.278258 0.203907 0.004001
0.350909 0.205347 0.004001
0.424862 0.206028 0.004001
0.500848 0.206830 0.004001
0.577665 0.207193 0.004001
0.655647 0.206830 0.004001
0.733703 0.207193 0.004001
0.812950 0.207232 0.004001
0.895570 0.207114 0.004001
0.964289 0.206176 0.004001
1.007591 0.203932 0.004001
0.000000 0.271750 0.006135
0.017561 0.271750 0.004001
0.068618 0.271750 0.003962
0.137598 0.271750 0.004001
0.207829 0.271729 0.004001
0.278258 0.271498 0.004001
0.350909 0.272775 0.004001
0.424862 0.273615 0.004001
0.500848 0.274639 0.004001
0.577665 0.275113 0.004001
0.655647 0.274639 0.004001
0.733703 0.275113 0.004001
0.812950 0.274878 0.004001
0.895570 0.274113 0.004001
0.964289 0.273830 0.004001
1.007591 0.270945 0.004001
0.000000 0.341012 0.006196
0.017561 0.341012 0.004001
0.069529 0.341012 0.004009
0.138659 0.341012 0.004001
0.208907 0.341012 0.004001
0.279328 0.341002 0.004001
0.350909 0.341012 0.004001
0.424862 0.342075 0.004001
0.500848 0.343388 0.004001
0.577665 0.343955 0.004001
0.655647 0.344419 0.004001
0.733703 0.342892 0.004001
0.812950 0.343419 0.004001
0.895570 0.344130 0.004001
0.964289 0.342367 0.004001
1.007591 0.338824 0.004001
0.000000 0.411748 0.006243
0.017561 0.411748 0.004001
0.069529 0.411748 0.004044
0.138659 0.411748 0.004001
0.208925 0.411748 0.004001
0.280394 0.411748 0.004001
0.352018 0.411748 0.004001
0.424862 0.411748 0.004001
0.500848 0.413266 0.004001
0.577665 0.413950 0.004001
0.655647 0.414320 0.004001
0.733703 0.413950 0.004001
0.812950 0.413079 0.004001
0.895570 0.413144 0.004001
0.964289 0.412000 0.004001
1.007591 0.407810 0.004001
0.000000 0.484531 0.006295
0.017561 0.484531 0.004001
0.069529 0.484531 0.003911
0.139722 0.484531 0.004001
0.210238 0.484531 0.004001
0.280931 0.484531 0.004001
0.353330 0.484531 0.004001
0.426478 0.484531 0.004001
0.500848 0.484531 0.004001
0.577665 0.485314 0.004001
0.655647 0.485618 0.004001
0.733703 0.485314 0.004001
0.812950 0.484158 0.004001
0.895570 0.484551 0.004001
0.964289 0.483077 0.004001
1.007591 0.478171 0.004001
0.000000 0.558272 0.006320
0.017561 0.558272 0.004001
0.070452 0.558272 0.003931
0.139722 0.558272 0.004001
0.210858 0.558272 0.004001
0.282655 0.558272 0.004001
0.353975 0.558272 0.004001
0.427138 0.558272 0.004001
0.501669 0.558272 0.004001
0.577665 0.558272 0.004001
0.655373 0.558272 0.004001
0.733703 0.558272 0.004001
0.812950 0.556754 0.004001
0.895570 0.557493 0.004001
0.964289 0.555721 0.004001
1.007591 0.550017 0.004001
0.000000 0.632869 0.006322
0.017561 0.632869 0.004001
0.070452 0.632869 0.003933
0.139722 0.632869 0.004001
0.210867 0.632869 0.004001
0.282661 0.632869 0.004001
0.353962 0.632869 0.004001
0.427143 0.632869 0.004001
0.501678 0.632869 0.004001
0.577669 0.632869 0.004001
0.655381 0.632869 0.004001
0.733711 0.632869 0.004001
0.812950 0.632049 0.004001
0.895570 0.632034 0.004001
0.964289 0.629962 0.004001
1.007591 0.623477 0.004001
0.000000 0.709101 0.006318
0.017561 0.709101 0.004001
0.070452 0.709101 0.003929
0.139722 0.709101 0.004001
0.209613 0.709101 0.004001
0.281345 0.709101 0.004001
0.353809 0.709101 0.004001
0.426888 0.709101 0.004001
0.501375 0.709101 0.004001
0.577310 0.709101 0.004001
0.655067 0.709101 0.004001
0.733370 0.709101 0.004001
0.812950 0.708397 0.004001
0.895570 0.708583 0.004001
0.964289 0.706264 0.004001
1.007591 0.698996 0.004001
0.000000 0.786593 0.006312
0.017561 0.786594 0.004001
0.070452 0.786593 0.003925
0.139722 0.786594 0.004001
0.210492 0.786594 0.004001
0.281142 0.786594 0.004001
0.353583 0.786594 0.004001
0.426675 0.786594 0.004001
0.501093 0.786594 0.004001
0.577025 0.786594 0.004001
0.653729 0.786594 0.004001
0.734087 0.786594 0.004001
0.812950 0.786080 0.004001
0.895570 0.786407 0.004001
0.964289 0.783920 0.004001
1.007591 0.775764 0.004001
0.000000 0.865513 0.006303
0.017561 0.865513 0.004001
0.069529 0.865513 0.003918
0.139722 0.865513 0.004001
0.210170 0.865513 0.004001
0.280783 0.865513 0.004001
0.353275 0.865513 0.004001
0.426323 0.865513 0.004001
0.500670 0.865513 0.004001
0.576587 0.865513 0.004001
0.653305 0.865513 0.004001
0.732631 0.865513 0.004001
0.812950 0.865274 0.004001
0.895570 0.865991 0.004001
0.964289 0.863109 0.004001
1.007591 0.854196 0.004001
0.000000 0.940507 0.006269
0.017561 0.940507 0.004001
0.069529 0.940507 0.003892
0.138659 0.940507 0.004001
0.210228 0.940507 0.004001
0.280709 0.940507 0.004001
0.352275 0.940507 0.004001
0.425172 0.940507 0.004001
0.499360 0.940507 0.004001
0.574998 0.940507 0.004001
0.653051 0.940507 0.004001
0.730994 0.940507 0.004001
0.810848 0.940507 0.004001
0.891266 0.940399 0.004001
0.964289 0.940507 0.004001
1.007591 0.931779 0.004001
0.000000 0.992446 0.006143
0.017561 0.992446 0.004001
0.068618 0.992446 0.003967
0.137598 0.992446 0.004001
0.207662 0.992446 0.004001
0.277389 0.992446 0.004001
0.348610 0.992446 0.004001
0.420755 0.992446 0.004001
0.494268 0.992446 0.004001
0.569097 0.992446 0.004001
0.645738 0.992446 0.004001
0.724037 0.992446 0.004001
0.802171 0.992446 0.004001
0.882625 0.992446 0.004001
0.956609 0.992446 0.004001
1.007591 0.992446 0.004001
0.000000 0.000000 0.027037
0.020990 0.000000 0.027037
0.065009 0.000000 0.027037
0.134588 0.000000 0.029745
0.205697 0.000000 0.031121
0.278258 0.000000 0.031942
0.350909 0.000000 0.032276
0.424862 0.000000 0.032526
0.500848 0.000000 0.032796
0.577665 0.000000 0.032924
0.655647 0.000000 0.032796
0.733703 0.000000 0.032924
0.812950 0.000000 0.032659
0.895570 0.000000 0.032569
0.964289 0.000000 0.032659
1.007591 0.000000 0.031985
0.000000 0.023396 0.027037
0.017561 0.019776 0.027037
0.065009 0.019729 0.027037
0.134412 0.019776 0.028645
0.205697 0.019776 0.029685
0.278258 0.019776 0.029842
0.350909 0.019776 0.030245
0.424862 0.019776 0.030404
0.500848 0.019776 0.030597
0.577665 0.019776 0.030683
0.655647 0.019776 0.030597
0.733703 0.019776 0.030683
0.812950 0.019776 0.030439
0.895570 0.019776 0.030460
0.964289 0.019776 0.030439
1.007591 0.019776 0.029900
0.000000 0.068014 0.027037
0.017561 0.068014 0.027037
0.064123 0.067106 0.026512
0.134412 0.068014 0.027037
0.205697 0.068014 0.027037
0.278258 0.068014 0.027037
0.350909 0.068014 0.027037
0.424862 0.068014 0.027037
0.500848 0.068014 0.027037
0.577665 0.068014 0.027037
0.655647 0.068014 0.027037
0.733703 0.068014 0.027037
0.812950 0.068014 0.027037
0.895570 0.068014 0.027037
0.964289 0.068014 0.027037
1.007590 0.068014 0.027037
0.000000 0.134354 0.030007
0.017561 0.134354 0.028850
0.064123 0.134354 0.026757
0.134412 0.134354 0.027234
0.205697 0.134725 0.027037
0.278258 0.135987 0.027037
0.350909 0.135775 0.027037
0.424862 0.135987 0.027037
0.500848 0.136312 0.027037
0.577665 0.136425 0.027037
0.655647 0.136312 0.027037
0.733703 0.136425 0.027037
0.812950 0.135824 0.027037
0.895570 0.135767 0.027037
0.964289 0.135824 0.027037
1.007590 0.134717 0.027037
0.000000 0.203037 0.031352
0.017561 0.203037 0.029678
0.064123 0.203037 0.026952
0.134412 0.203037 0.027500
0.205697 0.202891 0.027037
0.278258 0.203249 0.027037
0.350909 0.203929 0.027037
0.424862 0.204301 0.027037
0.500848 0.204869 0.027037
0.577665 0.205076 0.027037
0.655647 0.204869 0.027037
0.733703 0.205076 0.027037
0.812950 0.204046 0.027037
0.895570 0.203172 0.027037
0.964289 0.204046 0.027037
1.007590 0.202102 0.027037
0.000000 0.271750 0.031950
0.017561 0.271750 0.030047
0.064123 0.271750 0.026970
0.135478 0.271750 0.027320
0.206773 0.272140 0.027037
0.278258 0.271592 0.027037
0.350909 0.272140 0.027037
0.424862 0.272663 0.027037
0.500848 0.273413 0.027037
0.577665 0.273701 0.027037
0.655647 0.273413 0.027037
0.733703 0.273701 0.027037
0.812950 0.273332 0.027037
0.895570 0.272791 0.027037
0.964289 0.272281 0.027037
1.007590 0.269608 0.027037
0.000000 0.341012 0.032276
0.017561 0.341012 0.030245
0.064123 0.341012 0.026741
0.135478 0.341012 0.027509
0.206773 0.341012 0.027037
0.279328 0.341695 0.027037
0.350909 0.341012 0.027037
0.424862 0.341695 0.027037
0.500848 0.342705 0.027037
0.577665 0.343079 0.027037
0.655647 0.343774 0.027037
0.733703 0.342017 0.027037
0.812950 0.342314 0.027037
0.895570 0.342074 0.027037
0.964289 0.341255 0.027037
1.007590 0.337843 0.027037
0.000000 0.411748 0.032526
0.017561 0.411748 0.030404
0.064123 0.411748 0.026963
0.135478 0.411748 0.027127
0.207431 0.411748 0.027037
0.279328 0.411748 0.027037
0.351597 0.411748 0.027037
0.424862 0.411748 0.027037
0.500848 0.412934 0.027037
0.577665 0.413392 0.027037
0.655647 0.412934 0.027037
0.733703 0.413392 0.027037
0.812950 0.412303 0.027037
0.895570 0.412408 0.027037
0.964289 0.411210 0.027037
1.007590 0.407082 0.027037
0.000000 0.484531 0.032796
0.017561 0.484531 0.030597
0.064123 0.484531 0.026679
0.135478 0.484531 0.027308
0.207395 0.484531 0.027037
0.280573 0.484531 0.027037
0.352660 0.484531 0.027037
0.426128 0.484531 0.027037
0.500848 0.484531 0.027037
0.577665 0.485079 0.027037
0.655647 0.485618 0.027037
0.733703 0.484024 0.027037
0.812950 0.484555 0.027037
0.895570 0.485010 0.027037
0.964289 0.482429 0.027037
1.007590 0.477554 0.027037
0.000000 0.558272 0.032924
0.017561 0.558272 0.030683
0.064123 0.558272 0.026794
0.136538 0.558272 0.027388
0.207785 0.558272 0.027037
0.279973 0.558272 0.027037
0.353036 0.558272 0.027037
0.426574 0.558272 0.027037
0.501445 0.558272 0.027037
0.577665 0.558272 0.027037
0.656198 0.558272 0.027037
0.733703 0.558272 0.027037
0.812950 0.557319 0.027037
0.895570 0.557054 0.027037
0.964289 0.555195 0.027037
1.007590 0.549597 0.027037
0.000000 0.632869 0.032939
0.017561 0.632869 0.030684
0.064123 0.632869 0.026807
0.135478 0.632869 0.027389
0.207678 0.632869 0.027037
0.279865 0.632869 0.027037
0.352911 0.632869 0.027037
0.426487 0.632869 0.027037
0.501269 0.632869 0.027037
0.577472 0.632869 0.027037
0.656028 0.632869 0.027037
0.733468 0.632869 0.027037
0.812950 0.631654 0.027037
0.895570 0.631669 0.027037
0.964289 0.629508 0.027037
1.007590 0.623111 0.027037
0.000000 0.709101 0.032900
0.017561 0.709101 0.030651
0.064123 0.709101 0.026771
0.135478 0.709101 0.027359
0.208434 0.709101 0.027037
0.280545 0.709101 0.027037
0.352582 0.709101 0.027037
0.426102 0.709101 0.027037
0.500802 0.709101 0.027037
0.576990 0.709101 0.027037
0.654490 0.709101 0.027037
0.734025 0.709101 0.027037
0.812950 0.708009 0.027037
0.895570 0.708220 0.027037
0.964289 0.705881 0.027037
1.007590 0.698607 0.027037
0.000000 0.786593 0.032881
0.017561 0.786594 0.030628
0.064123 0.786593 0.026756
0.135478 0.786594 0.027338
0.208236 0.786594 0.027037
0.280249 0.786594 0.027037
0.352377 0.786594 0.027037
0.425779 0.786594 0.027037
0.500524 0.786594 0.027037
0.576603 0.786594 0.027037
0.655277 0.786594 0.027037
0.733728 0.786594 0.027037
0.812950 0.785962 0.027037
0.895570 0.786281 0.027037
0.964289 0.783802 0.027037
1.007590 0.775562 0.027037
0.000000 0.865513 0.032829
0.017561 0.865513 0.030578
0.064123 0.865513 0.026710
0.135478 0.865513 0.027293
0.207888 0.865513 0.027037
0.279901 0.865513 0.027037
0.352043 0.865513 0.027037
0.425419 0.865513 0.027037
0.499989 0.865513 0.027037
0.576034 0.865513 0.027037
0.652645 0.865513 0.027037
0.733105 0.865513 0.027037
0.811885 0.865210 0.027037
0.895570 0.865849 0.027037
0.964289 0.863045 0.027037
1.007590 0.854109 0.027037
0.000000 0.940507 0.032659
0.017561 0.940507 0.030439
0.064123 0.940507 0.026559
0.135478 0.940507 0.027164
0.206910 0.940507 0.027037
0.278722 0.940507 0.027037
0.351054 0.940507 0.027037
0.424266 0.940507 0.027037
0.498652 0.940507 0.027037
0.574467 0.940507 0.027037
0.652321 0.940507 0.027037
0.730422 0.940507 0.027037
0.810848 0.940507 0.027037
0.891266 0.940458 0.027037
0.964289 0.940507 0.027037
1.007590 0.931839 0.027037
0.000000 0.992446 0.031985
0.017561 0.992446 0.029900
0.064123 0.992446 0.026477
0.134412 0.992446 0.027182
0.205582 0.992446 0.027037
0.276601 0.992446 0.027037
0.347570 0.992446 0.027037
0.419995 0.992446 0.027037
0.493563 0.992446 0.027037
0.568603 0.992446 0.027037
0.645057 0.992446 0.027037
0.722326 0.992446 0.027037
0.801089 0.992446 0.027037
0.882625 0.992446 0.027037
0.956567 0.992446 0.027037
1.007590 0.992446 0.027037
0.000000 0.000000 0.078813
0.022545 0.000000 0.078813
0.068618 0.000000 0.078813
0.135295 0.000000 0.078813
0.205697 0.000000 0.081717
0.278258 0.000000 0.084361
0.350909 0.000000 0.084750
0.424862 0.000000 0.085387
0.500848 0.000000 0.086119
0.577665 0.000000 0.086459
0.655647 0.000000 0.087154
0.733703 0.000000 0.086459
0.812950 0.000000 0.085773
0.895570 0.000000 0.086062
0.964289 0.000000 0.085773
1.007591 0.000000 0.084019
0.000000 0.025024 0.078813
0.017561 0.019776 0.078813
0.066804 0.020062 0.078813
0.134412 0.019776 0.078813
0.205697 0.019776 0.080998
0.278258 0.019776 0.081482
0.350909 0.019776 0.083006
0.424862 0.019776 0.083497
0.500848 0.019776 0.084064
0.577665 0.019776 0.084346
0.655647 0.019776 0.084064
0.733703 0.019776 0.084346
0.812950 0.019776 0.083594
0.895570 0.019776 0.083978
0.964289 0.019776 0.083594
1.007591 0.019776 0.081956
0.000000 0.072771 0.078813
0.017561 0.070926 0.078813
0.064123 0.068149 0.078813
0.134412 0.068168 0.078813
0.205697 0.068014 0.080215
0.278258 0.068014 0.080432
0.350909 0.068014 0.080215
0.424862 0.068014 0.080432
0.500848 0.068014 0.080756
0.577665 0.068014 0.080872
0.655647 0.068014 0.080756
0.733703 0.068014 0.080872
0.812950 0.068014 0.081254
0.895570 0.068014 0.081131
0.964289 0.068014 0.080261
1.007590 0.068014 0.079154
0.000000 0.134354 0.078813
0.017561 0.134354 0.078813
0.064123 0.134354 0.078813
0.133353 0.134354 0.078813
0.205697 0.134354 0.078813
0.278258 0.134354 0.078813
0.350909 0.134354 0.078813
0.424862 0.134354 0.078813
0.500848 0.134354 0.078813
0.577665 0.134354 0.078813
0.655647 0.134354 0.078813
0.733703 0.134354 0.078813
0.812950 0.134354 0.078813
0.895570 0.134354 0.078813
0.964289 0.134354 0.078813
1.007590 0.134354 0.078813
0.000000 0.203037 0.082320
0.017561 0.203037 0.081321
0.064123 0.203037 0.078359
0.133353 0.203037 0.078356
0.205697 0.203231 0.078813
0.278258 0.203390 0.078813
0.350909 0.203231 0.078813
0.424862 0.203390 0.078813
0.500848 0.203702 0.078813
0.577665 0.203809 0.078813
0.655647 0.203702 0.078813
0.733703 0.203809 0.078813
0.812950 0.203060 0.078813
0.895570 0.202918 0.078813
0.964289 0.203060 0.078813
1.007590 0.201869 0.078813
0.000000 0.271750 0.083924
0.017561 0.271750 0.082407
0.064123 0.271750 0.079915
0.133353 0.271750 0.079427
0.205697 0.271864 0.078813
0.278258 0.272148 0.078813
0.350909 0.271864 0.078813
0.424862 0.272148 0.078813
0.500848 0.272694 0.078813
0.577665 0.272911 0.078813
0.655647 0.272694 0.078813
0.733703 0.272911 0.078813
0.812950 0.272655 0.078813
0.895570 0.272640 0.078813
0.964289 0.271585 0.078813
1.007590 0.269463 0.078813
0.000000 0.341012 0.084750
0.017561 0.341012 0.083006
0.064123 0.341012 0.079729
0.133353 0.341012 0.079021
0.205697 0.341012 0.078813
0.278258 0.341451 0.078813
0.350909 0.341012 0.078813
0.424862 0.341451 0.078813
0.500848 0.342275 0.078813
0.577665 0.342505 0.078813
0.655647 0.342275 0.078813
0.733703 0.342505 0.078813
0.812950 0.341794 0.078813
0.895570 0.341960 0.078813
0.964289 0.340735 0.078813
1.007590 0.337709 0.078813
0.000000 0.411748 0.085387
0.017561 0.411748 0.083497
0.064123 0.411748 0.080340
0.133353 0.411748 0.078516
0.207182 0.411748 0.078813
0.279328 0.411748 0.078813
0.351368 0.411748 0.078813
0.424862 0.411748 0.078813
