assets/core/filters/luts/01_Wedding LUTs_Sunrise.cube
LUT_3D_SIZE 6
0.000000 0.000000 0.000000
0.134412 0.000000 0.000000
0.350909 0.000000 0.000000
0.577665 0.000000 0.000000
0.812950 0.000000 0.000000
1.007591 0.000000 0.000000
0.000000 0.134354 0.000000
0.135295 0.134354 0.000000
0.350909 0.140257 0.000000
0.577665 0.141889 0.000000
0.812950 0.141241 0.000000
1.007591 0.139572 0.000000
0.000000 0.341012 0.000000
0.140531 0.341012 0.000000
0.350909 0.341012 0.000000
0.577665 0.344486 0.000000
0.812950 0.344148 0.000000
1.007591 0.339562 0.000000
0.000000 0.558272 0.000000
0.142165 0.558272 0.000000
0.354458 0.558272 0.000000
0.577665 0.558272 0.000000
0.812950 0.557088 0.000000
1.007591 0.550348 0.000000
0.000000 0.786593 0.000000
0.142127 0.786593 0.000000
0.354301 0.786593 0.000000
0.577285 0.786593 0.000000
0.812950 0.786123 0.000000
1.007591 0.775982 0.000000
0.000000 0.992446 0.000000
0.140281 0.992446 0.000000
0.349336 0.992446 0.000000
0.569446 0.992446 0.000000
0.802122 0.992446 0.000000
1.007591 0.992446 0.000000
0.000000 0.000000 0.078813
0.135295 0.000000 0.078813
0.350909 0.000000 0.084750
0.577665 0.000000 0.086459
0.812950 0.000000 0.085773
1.007591 0.000000 0.084019
0.000000 0.134354 0.078813
0.133353 0.134354 0.078813
0.350909 0.134354 0.078813
0.577665 0.134354 0.078813
0.812950 0.134354 0.078813
1.007590 0.134354 0.078813
0.000000 0.341012 0.084750
0.133353 0.341012 0.079021
0.350909 0.341012 0.078813
0.577665 0.342505 0.078813
0.812950 0.341794 0.078813
1.007590 0.337709 0.078813
0.000000 0.558272 0.086459
0.133353 0.558272 0.078361
0.352454 0.558272 0.078813
0.577665 0.558272 0.078813
0.812950 0.557103 0.078813
1.007590 0.549462 0.078813
0.000000 0.786593 0.086333
0.133353 0.786594 0.079166
0.351732 0.786594 0.078813
0.576351 0.786594 0.078813
0.812950 0.785850 0.078813
1.007590 0.775527 0.078813
0.000000 0.992446 0.084019
0.133353 0.992446 0.078980
0.347418 0.992446 0.078813
0.568523 0.992446 0.078813
0.801070 0.992446 0.078813
1.007590 0.992446 0.078813
0.000000 0.000000 0.308688
0.140531 0.000000 0.308688
0.350909 0.000000 0.308688
0.577665 0.000000 0.312467
0.812950 0.000000 0.312093
1.007591 0.000000 0.307018
0.000000 0.140257 0.308688
0.133353 0.135379 0.308688
0.350909 0.134354 0.308688
0.577665 0.134354 0.310306
0.812950 0.134354 0.309421
1.007590 0.134354 0.304993
0.000000 0.341012 0.308688
0.134412 0.341012 0.308688
0.350909 0.341012 0.308688
0.577665 0.341012 0.308688
0.812950 0.341012 0.308688
1.007591 0.341012 0.308688
0.000000 0.558272 0.312467
0.134412 0.558272 0.309547
0.350909 0.558272 0.308688
0.577665 0.558272 0.308688
0.812950 0.556203 0.308688
1.007591 0.551022 0.308688
0.000000 0.786593 0.312222
0.134412 0.786594 0.310297
0.350909 0.786594 0.308688
0.576044 0.786594 0.308688
0.812950 0.785941 0.308688
1.007591 0.776199 0.308688
0.000000 0.992446 0.307018
0.134412 0.992446 0.305079
0.350909 0.992446 0.308688
0.570228 0.992446 0.308688
0.803433 0.992446 0.308688
1.007591 0.992446 0.308688
0.000000 0.000000 0.540691
0.142165 0.000000 0.540691
0.354458 0.000000 0.540691
0.577665 0.000000 0.540691
0.812950 0.000000 0.540712
1.007591 0.000000 0.532562
0.000000 0.141889 0.540691
0.133353 0.134608 0.540691
0.352454 0.134354 0.540691
0.577665 0.134354 0.540691
0.812950 0.134354 0.539645
1.007590 0.134354 0.531665
0.000000 0.344486 0.540691
0.134412 0.341809 0.540691
0.350909 0.341012 0.540691
0.577665 0.341012 0.540691
0.812950 0.341012 0.539801
1.007591 0.341012 0.533343
0.000000 0.558272 0.540691
0.134412 0.558272 0.540691
0.350909 0.558272 0.540691
0.577665 0.558272 0.540691
0.812950 0.558272 0.540691
1.007591 0.558272 0.540691
0.000000 0.786593 0.540376
0.134412 0.786594 0.538918
0.350909 0.786594 0.539121
0.577665 0.786594 0.540691
0.812950 0.785864 0.540691
1.007591 0.779270 0.540691
0.000000 0.992446 0.532562
0.134412 0.992446 0.531098
0.350909 0.992446 0.533343
0.577665 0.992446 0.540691
0.806581 0.992446 0.540691
1.007591 0.992446 0.540691
0.000000 0.000000 0.769299
0.142127 0.000000 0.769299
0.354301 0.000000 0.769299
0.577285 0.000000 0.769299
0.812950 0.000000 0.770263
1.007591 0.000000 0.758882
0.000000 0.141792 0.769299
0.133353 0.135477 0.769299
0.351732 0.134354 0.769299
0.576351 0.134354 0.769299
0.812950 0.134354 0.769858
1.007590 0.134354 0.758607
0.000000 0.344220 0.769299
0.134412 0.342512 0.769299
0.350909 0.341012 0.769299
0.576044 0.341012 0.769299
0.812950 0.341012 0.769804
1.007591 0.341012 0.759191
0.000000 0.557860 0.769299
0.134412 0.557628 0.769299
0.350909 0.556690 0.769299
0.577665 0.558272 0.769299
0.812950 0.558272 0.769748
1.007591 0.558272 0.762112
0.000000 0.786593 0.769299
0.134412 0.786594 0.769299
0.350909 0.786594 0.769299
0.577665 0.786594 0.769299
0.812950 0.786594 0.768182
1.007591 0.786594 0.769299
0.000000 0.992446 0.758882
0.134412 0.992446 0.757704
0.350909 0.992446 0.759191
0.577665 0.992446 0.762112
0.813037 0.992446 0.768182
1.007591 0.992446 0.769299
0.000000 0.000000 0.975112
0.140281 0.000000 0.975112
0.349336 0.000000 0.975112
0.569446 0.000000 0.975112
0.802122 0.000000 0.975112
1.007591 0.000000 0.975112
0.000000 0.139572 0.975112
0.133353 0.135427 0.975112
0.347418 0.134354 0.975112
0.568523 0.134354 0.975112
0.801070 0.134354 0.975112
1.007590 0.134354 0.975112
0.000000 0.339562 0.975112
0.134412 0.337765 0.975112
0.350909 0.341012 0.975112
0.570228 0.341012 0.975112
0.803433 0.341012 0.975112
1.007591 0.341012 0.975112
0.000000 0.550348 0.975112
0.134412 0.550017 0.975112
0.350909 0.551022 0.975112
0.577665 0.558272 0.975112
0.806581 0.558272 0.975112
1.007591 0.558272 0.975112
0.000000 0.775982 0.975112
0.134412 0.775764 0.975112
0.350909 0.776199 0.975112
0.577665 0.779270 0.975112
0.813037 0.786594 0.975112
1.007591 0.786594 0.975112
0.000000 0.992446 0.975112
0.134412 0.992446 0.975112
0.350909 0.992446 0.975112
0.577665 0.992446 0.975112
0.812950 0.992446 0.975112
1.007591 0.992446 0.975112
