assets/core/filters/luts/02_Davinci Resolve LUTs_Retro.cube
LUT_3D_SIZE 6
0.008312 0.006848 0.000325
0.129708 -0.025419 -0.025419
0.343514 -0.074275 -0.074275
0.601247 -0.124981 -0.124981
0.871702 -0.176051 -0.176051
1.098857 -0.220103 -0.220103
0.031659 0.128918 0.002924
0.126016 0.129852 0.004927
0.335918 0.146000 -0.073046
0.597468 0.138123 -0.132180
0.869579 0.100211 -0.181766
1.097278 -0.045911 -0.223962
0.090226 0.362248 0.020077
0.166733 0.362260 0.023152
0.332781 0.364323 0.035708
0.571761 0.393053 0.024866
0.856945 0.382480 -0.182980
1.089089 0.356371 -0.230206
0.162649 0.636935 0.062929
0.220151 0.636939 0.065929
0.377556 0.637627 0.079041
0.580174 0.641141 0.105165
0.822207 0.657237 0.115136
1.064145 0.636930 -0.098268
0.233306 0.913451 0.117725
0.276268 0.913454 0.119553
0.414412 0.913824 0.130901
0.611314 0.915090 0.154481
0.838535 0.919099 0.189961
1.040287 0.908613 0.211866
0.295850 1.052195 0.172302
0.328308 1.052194 0.174278
0.444627 1.052250 0.183945
0.624766 1.052751 0.205106
0.841126 1.054656 0.239516
1.057972 1.059310 0.273113
0.005306 0.005010 0.053113
0.128949 -0.028875 0.055241
0.344255 -0.079678 0.063877
0.602341 -0.129555 0.058235
0.872746 -0.179097 0.033587
1.099497 -0.222462 -0.017242
0.017317 0.130427 0.050639
0.124297 0.130634 0.050781
0.342605 0.119890 0.043537
0.600940 0.091228 0.026586
0.870667 0.011815 0.000820
1.098590 -0.154020 -0.154020
0.084473 0.363051 0.076290
0.149279 0.364338 0.063747
0.334772 0.366632 0.076691
0.577257 0.382968 0.054642
0.859017 0.369168 -0.069875
1.090751 0.339250 -0.170101
0.159290 0.637458 0.115700
0.200775 0.638732 0.099764
0.370737 0.638818 0.111207
0.581225 0.642309 0.135103
0.823242 0.652139 0.137352
1.067030 0.628946 0.016441
0.231037 0.913852 0.162166
0.258372 0.913869 0.145682
0.404722 0.914143 0.156260
0.607425 0.915466 0.178370
0.838469 0.919645 0.211800
1.040358 0.906511 0.231743
0.293910 1.052445 0.208474
0.315121 1.052499 0.196765
0.435441 1.052579 0.204816
0.619559 1.052986 0.225002
0.838566 1.054856 0.258190
1.058210 1.059518 0.291108
-0.033362 -0.031137 0.251091
0.140980 -0.042528 0.252183
0.340238 -0.080928 0.255487
0.601776 -0.136185 0.274431
0.873762 -0.187028 0.265621
1.101210 -0.230502 0.239333
-0.049145 0.148629 0.248258
0.115733 0.123442 0.252545
0.340193 0.115428 0.255726
0.601651 0.082336 0.263823
0.872746 -0.071873 0.251123
1.100727 -0.168520 0.222979
0.044455 0.366191 0.242729
0.129086 0.369641 0.245857
0.331154 0.366932 0.243359
0.595234 0.356094 0.233582
0.867497 0.331464 0.211635
1.096424 0.303032 0.186765
0.141885 0.639709 0.276723
0.187377 0.640968 0.270903
0.346604 0.643658 0.253089
0.584875 0.646343 0.271158
0.834888 0.641593 0.248317
1.077476 0.611385 0.191153
0.220375 0.915219 0.309976
0.249711 0.915239 0.300532
0.376511 0.916384 0.279289
0.597567 0.917191 0.296343
0.840722 0.921926 0.323538
1.041124 0.903012 0.337505
0.285065 1.053439 0.337160
0.306272 1.053579 0.327574
0.412015 1.054223 0.312526
0.607400 1.054458 0.329083
0.835243 1.056045 0.357428
1.059403 1.060717 0.386067
-0.057938 -0.056972 0.528013
0.147867 -0.063000 0.529330
0.356886 -0.088300 0.532382
0.596610 -0.136217 0.536873
0.871702 -0.192769 0.540970
1.100594 -0.236182 0.513998
-0.070333 0.156439 0.525883
0.110033 0.116840 0.528499
0.347468 0.110924 0.531948
0.596584 0.080655 0.536851
0.870667 -0.092059 0.533904
1.100371 -0.178424 0.505598
-0.081702 0.391140 0.518257
0.102451 0.382463 0.520789
0.316612 0.353533 0.526903
0.593986 0.344886 0.534031
0.868490 0.323639 0.516641
1.098513 0.293328 0.484865
0.082108 0.643677 0.511817
0.146661 0.644873 0.513062
0.327747 0.648332 0.516605
0.579733 0.645043 0.513272
0.856945 0.634713 0.502678
1.089280 0.617527 0.485177
0.192807 0.917902 0.531820
0.226166 0.917929 0.527609
0.362554 0.919222 0.518190
0.587570 0.920638 0.518947
0.842297 0.923112 0.540419
1.046493 0.908972 0.545630
0.263995 1.055462 0.539338
0.288219 1.055551 0.533876
0.398815 1.056372 0.524256
0.603732 1.057715 0.536525
0.836662 1.058441 0.558515
1.061535 1.062804 0.582226
-0.079791 -0.079199 0.836363
0.142546 -0.083427 0.837755
0.358515 -0.100773 0.839890
0.598959 -0.137310 0.845315
0.867497 -0.192968 0.849250
1.097747 -0.239757 0.820794
-0.089019 0.154360 0.834605
0.099607 0.108780 0.836160
0.345304 0.101932 0.839043
0.593671 0.076036 0.844585
0.866407 -0.095507 0.850235
1.097566 -0.184209 0.816982
-0.109881 0.395251 0.828027
0.084566 0.381751 0.828060
0.307212 0.343323 0.834173
0.577744 0.336511 0.840818
0.864283 0.316688 0.847256
1.096148 0.286730 0.806448
-0.098310 0.654263 0.817792
0.090187 0.650187 0.817803
0.304003 0.637505 0.821562
0.562640 0.629150 0.827957
0.856945 0.619913 0.837228
1.090627 0.606142 0.798977
0.122332 0.921613 0.811567
0.169690 0.921651 0.811531
0.332471 0.923176 0.813588
0.571908 0.924837 0.815795
0.840063 0.923369 0.813898
1.076840 0.916892 0.805470
0.219482 1.058528 0.796507
0.248747 1.058625 0.793541
0.372421 1.059580 0.789577
0.588501 1.061124 0.794777
0.848537 1.061173 0.824228
1.062634 1.063909 0.845749
-0.098457 -0.098028 1.082452
0.132938 -0.101086 1.082906
0.346812 -0.114419 1.084672
0.581140 -0.143356 1.088296
0.841147 -0.190026 1.093155
1.093257 -0.241239 1.094526
-0.105182 0.144099 1.081571
0.086432 0.099835 1.082257
0.333215 0.091082 1.084128
0.574284 0.065986 1.087895
0.836932 -0.092561 1.092939
1.093074 -0.186585 1.094305
-0.123992 0.383379 1.077735
0.067478 0.368755 1.078418
0.299051 0.334685 1.081398
0.556975 0.328384 1.085543
0.829583 0.312151 1.091168
1.091690 0.282028 1.092956
-0.132149 0.638403 1.070970
0.053970 0.631880 1.071485
0.292963 0.617203 1.073802
0.552382 0.618114 1.078638
0.823242 0.609851 1.085974
1.087221 0.596189 1.088451
0.003563 0.904519 1.063433
0.110256 0.901866 1.063694
0.304417 0.897481 1.065103
0.553094 0.899635 1.067790
0.830672 0.915579 1.072261
1.076802 0.910131 1.078086
0.158091 1.061235 1.061235
0.195385 1.061449 1.061449
0.341407 1.062452 1.062452
0.570763 1.064144 1.064144
0.837215 1.064636 1.064636
1.062068 1.063401 1.063401
