assets/core/filters/luts/02_Davinci Resolve LUTs_Retro.cube
LUT_3D_SIZE 16
0.008312 0.006848 0.000325
0.026116 0.006446 0.000293
0.070123 0.003714 0.000115
0.129708 -0.025419 -0.025419
0.195619 -0.042555 -0.042555
0.265951 -0.058326 -0.058326
0.343514 -0.074275 -0.074275
0.425815 -0.090806 -0.090806
0.512538 -0.107837 -0.107837
0.601247 -0.124981 -0.124981
0.692473 -0.142345 -0.142345
0.780370 -0.159220 -0.159220
0.871702 -0.176051 -0.176051
0.959366 -0.192513 -0.192513
1.029436 -0.206145 -0.206145
1.098857 -0.220103 -0.220103
0.010506 0.022884 0.000448
0.025498 0.022996 0.000537
0.067840 0.024063 0.000143
0.128822 0.023583 -0.028405
0.195146 0.021128 -0.044600
0.266599 0.013236 -0.059898
0.343083 -0.033025 -0.075547
0.425458 -0.064644 -0.091841
0.512243 -0.088103 -0.108701
0.600991 -0.109204 -0.125704
0.692167 -0.129459 -0.143094
0.781151 -0.148225 -0.159995
0.871702 -0.166657 -0.176565
0.959366 -0.184049 -0.192970
1.029318 -0.198897 -0.206506
1.098776 -0.213563 -0.220397
0.018685 0.066962 0.001150
0.032532 0.066990 0.001262
0.068319 0.066962 0.001769
0.122381 0.073882 0.002009
0.190233 0.076193 -0.040301
0.263045 0.075356 -0.062518
0.341002 0.073553 -0.079012
0.423857 0.068414 -0.095248
0.510976 0.059293 -0.111799
0.599896 0.044533 -0.128451
0.690899 0.020458 -0.145278
0.779994 -0.075413 -0.161763
0.870667 -0.112820 -0.178292
0.959366 -0.141580 -0.194762
1.028815 -0.162655 -0.208003
1.098292 -0.181699 -0.221653
0.031659 0.128918 0.002924
0.043475 0.128896 0.003060
0.079721 0.128918 0.003697
0.126016 0.129852 0.004927
0.183327 0.139242 0.006812
0.254331 0.144180 0.001565
0.335918 0.146000 -0.073046
0.420000 0.146116 -0.096274
0.507871 0.143677 -0.114923
0.597468 0.138123 -0.132180
0.688747 0.129288 -0.149278
0.778654 0.117219 -0.165498
0.869579 0.100211 -0.181766
0.957219 0.076448 -0.197565
1.027779 0.046470 -0.210755
1.097278 -0.045911 -0.223962
0.048268 0.199985 0.006312
0.058326 0.199999 0.006469
0.091983 0.199985 0.007110
0.138952 0.199999 0.008605
0.189460 0.201683 0.011032
0.252371 0.210554 0.014293
0.324158 0.220057 0.011862
0.411918 0.223880 -0.058573
0.502288 0.224638 -0.108559
0.593048 0.222670 -0.132184
0.685178 0.217442 -0.152024
0.775208 0.211402 -0.169134
0.866407 0.202680 -0.185840
0.955093 0.190236 -0.201450
1.026027 0.173564 -0.214436
1.095540 0.159430 -0.226963
0.067915 0.278161 0.011854
0.076613 0.278169 0.012033
0.106717 0.278161 0.013021
0.152479 0.278169 0.014456
0.204225 0.279160 0.017188
0.258022 0.279207 0.020706
0.326237 0.290870 0.026621
0.400453 0.301657 0.029669
0.490763 0.307111 0.006128
0.585620 0.307103 -0.111284
0.679754 0.304962 -0.145867
0.770820 0.300650 -0.168305
0.863249 0.293487 -0.187797
0.951958 0.284972 -0.204920
1.023391 0.271140 -0.218017
1.092855 0.261670 -0.229700
0.090226 0.362248 0.020077
0.097756 0.362260 0.020274
0.124354 0.362248 0.020871
0.166733 0.362260 0.023152
0.218437 0.362085 0.025589
0.274687 0.363279 0.030144
0.332781 0.364323 0.035708
0.405299 0.376543 0.044372
0.482422 0.387387 0.051997
0.571761 0.393053 0.024866
0.669174 0.394087 -0.086924
0.764102 0.388610 -0.155866
0.856945 0.382480 -0.182980
0.946637 0.377351 -0.202547
1.019592 0.363704 -0.219453
1.089089 0.356371 -0.230206
0.114131 0.451582 0.031504
0.120515 0.451589 0.031724
0.144769 0.451582 0.032548
0.184221 0.452724 0.034933
0.233354 0.451821 0.038195
0.289286 0.451953 0.042580
0.348998 0.452946 0.048730
0.412033 0.454265 0.056149
0.488379 0.465996 0.066355
0.566980 0.475200 0.074834
0.654423 0.480874 0.053406
0.751834 0.479787 0.005276
0.848537 0.474650 -0.155450
0.940331 0.468682 -0.191328
1.014385 0.455218 -0.214871
1.083774 0.449291 -0.224756
0.138484 0.543996 0.046325
0.143972 0.544004 0.046543
0.165503 0.543996 0.047602
0.201273 0.544004 0.049108
0.250091 0.544930 0.052568
0.303858 0.544686 0.057061
0.364069 0.544930 0.063378
0.427927 0.545849 0.070939
0.495261 0.547358 0.079671
0.573159 0.556977 0.090510
0.653132 0.564937 0.099441
0.738277 0.567532 0.085200
0.833802 0.568132 0.027758
0.929707 0.562069 -0.129164
1.007427 0.547053 -0.195264
1.076505 0.542181 -0.204980
0.162649 0.636935 0.062929
0.167401 0.636939 0.063149
0.186929 0.636935 0.064314
0.220151 0.636939 0.065929
0.265352 0.636458 0.068930
0.318179 0.638392 0.073151
0.377556 0.637627 0.079041
0.441425 0.638392 0.086424
0.509247 0.639451 0.095267
0.580174 0.641141 0.105165
0.659004 0.649018 0.115962
0.738043 0.654337 0.125547
0.822207 0.657237 0.115136
0.915953 0.654928 0.055489
0.996457 0.640451 -0.071166
1.064145 0.636930 -0.098268
0.186584 0.730342 0.080557
0.190773 0.730351 0.080743
0.208088 0.730342 0.082044
0.238905 0.730351 0.083719
0.280880 0.730877 0.086487
0.332111 0.731368 0.090273
0.390327 0.730877 0.095655
0.453556 0.731368 0.102696
0.521349 0.732168 0.111343
0.592460 0.733399 0.121396
0.667035 0.735717 0.132029
0.745319 0.740636 0.143405
0.824297 0.744604 0.152990
0.904362 0.745187 0.148953
0.981520 0.733514 0.094175
1.048255 0.731750 0.092174
0.210183 0.823242 0.098903
0.213906 0.823246 0.099080
0.228853 0.823242 0.099691
0.257312 0.823246 0.101439
0.296883 0.822505 0.104195
0.347102 0.824082 0.108292
0.402551 0.823784 0.113016
0.464700 0.824082 0.119672
0.531800 0.824804 0.127957
0.602652 0.825691 0.137775
0.676595 0.827294 0.149391
0.752476 0.829431 0.160519
0.829974 0.831931 0.171782
0.908593 0.832965 0.180047
0.973485 0.823172 0.177269
1.037598 0.822995 0.180973
0.233306 0.913451 0.117725
0.236620 0.913454 0.117903
0.250112 0.913451 0.118548
0.276268 0.913454 0.119553
0.313597 0.913824 0.122531
0.360330 0.912942 0.126186
0.414412 0.913824 0.130901
0.475104 0.914034 0.137177
0.541118 0.914409 0.145030
0.611314 0.915090 0.154481
0.685005 0.915520 0.165370
0.761191 0.917311 0.176978
0.838535 0.919099 0.189961
0.914970 0.919649 0.200401
0.977837 0.909278 0.205093
1.040287 0.908613 0.211866
0.255382 0.974631 0.136421
0.258358 0.974633 0.136558
0.271254 0.974631 0.137277
0.294150 0.974633 0.138271
0.329185 0.974738 0.140857
0.373073 0.974270 0.144027
0.425150 0.974738 0.148677
0.483900 0.974904 0.154529
0.548385 0.975084 0.161910
0.617402 0.975354 0.170836
0.690288 0.975752 0.180999
0.765291 0.976606 0.193018
0.842797 0.976761 0.205955
0.922359 0.978538 0.218980
0.984333 0.972286 0.225303
1.045748 0.971633 0.231694
0.274409 0.998885 0.153044
0.277069 0.998885 0.153179
0.288340 0.998885 0.153913
0.309976 0.998885 0.154950
0.340995 0.998925 0.157165
0.382283 0.998742 0.159804
0.432019 0.998925 0.164303
0.488094 0.998973 0.169684
0.550215 0.998912 0.176528
0.617035 0.998993 0.184856
0.687938 0.999127 0.195117
0.760694 0.999202 0.206524
0.837143 0.999362 0.218877
0.913909 0.999593 0.231635
0.991326 0.999696 0.244524
1.051774 0.999593 0.250589
0.295850 1.052195 0.172302
0.298267 1.052195 0.172462
0.307831 1.052182 0.172302
0.328308 1.052194 0.174278
0.358514 1.052183 0.176579
0.398002 1.052210 0.180221
0.444627 1.052250 0.183945
0.498898 1.052335 0.189495
0.559329 1.052516 0.196574
0.624766 1.052751 0.205106
0.694113 1.053155 0.214719
0.766467 1.053772 0.226383
0.841126 1.054656 0.239516
0.918105 1.055870 0.252694
0.994299 1.057474 0.265776
1.057972 1.059310 0.273113
0.008090 0.006772 0.002681
0.025822 0.006355 0.002742
0.070588 0.003053 0.002913
0.130249 -0.027468 0.002742
0.196682 -0.043764 0.002303
0.266029 -0.059074 0.001122
0.343628 -0.074877 -0.030513
0.425904 -0.091237 -0.063583
0.512567 -0.108132 -0.087321
0.601239 -0.125168 -0.108530
0.691521 -0.142659 -0.128952
0.780360 -0.159396 -0.147562
0.871702 -0.176108 -0.166159
0.959366 -0.192589 -0.183639
1.029433 -0.206206 -0.198592
1.098854 -0.220149 -0.213284
0.008966 0.023143 0.002570
0.025231 0.023180 0.002577
0.069538 0.021983 0.002355
0.129394 0.018661 0.001783
0.195615 0.012283 0.000876
0.265977 -0.028070 -0.028070
0.343511 -0.057180 -0.057180
0.425842 -0.078940 -0.078940
0.512527 -0.098910 -0.098910
0.601244 -0.117930 -0.117930
0.692463 -0.136666 -0.136666
0.780367 -0.154209 -0.154209
0.871702 -0.172094 -0.172094
0.959366 -0.189024 -0.189024
1.029409 -0.202992 -0.202992
1.098841 -0.217221 -0.217221
0.017777 0.067140 0.003593
0.030298 0.067219 0.003292
0.067872 0.067140 0.003871
0.122205 0.071508 0.003555
0.191688 0.073717 0.000820
0.264424 0.071697 -0.037987
0.341511 0.068531 -0.063105
0.424259 0.062380 -0.083526
0.511203 0.052000 -0.102640
0.600168 0.035110 -0.121056
0.691185 -0.025557 -0.139009
0.780306 -0.089375 -0.156569
0.870667 -0.122274 -0.174401
0.959366 -0.147975 -0.190935
1.028907 -0.167979 -0.204531
1.098400 -0.186249 -0.218508
0.030999 0.129030 0.005789
0.040277 0.129189 0.005126
0.077955 0.129973 0.005789
0.125818 0.130136 0.007198
0.183894 0.137744 0.009014
0.255768 0.143159 0.002975
0.336483 0.143525 -0.057668
0.420459 0.143159 -0.085817
0.508260 0.140248 -0.106680
0.597753 0.134266 -0.125381
0.689152 0.125912 -0.143977
0.778897 0.111593 -0.160531
0.869579 0.094444 -0.177570
0.958346 0.072063 -0.193948
1.027875 0.036913 -0.207388
1.097390 -0.068909 -0.220902
0.047746 0.200058 0.009596
0.054746 0.200246 0.008560
0.089479 0.201083 0.009350
0.138643 0.200246 0.010540
0.189067 0.201535 0.012925
0.252001 0.210901 0.016626
0.324768 0.218872 0.013226
0.412579 0.222148 -0.042241
0.502665 0.222577 -0.100695
0.593358 0.220332 -0.125950
0.685565 0.215385 -0.146370
0.775482 0.208071 -0.164665
0.866407 0.198229 -0.181737
0.956152 0.186517 -0.198693
1.026129 0.170207 -0.211226
1.095660 0.155812 -0.224012
0.067477 0.278254 0.015538
0.073011 0.278394 0.014173
0.106234 0.279297 0.015206
0.150521 0.278394 0.016492
0.203325 0.278760 0.019321
0.259249 0.280553 0.022915
0.326348 0.290479 0.028904
0.400719 0.300852 0.031371
0.491259 0.305903 0.007373
0.585994 0.305564 -0.105008
0.679186 0.303750 -0.139820
0.771156 0.298062 -0.164048
0.863249 0.292350 -0.184193
0.951958 0.282731 -0.200530
1.023501 0.268976 -0.214954
1.093028 0.259468 -0.226885
0.089849 0.362355 0.024146
0.094364 0.362420 0.022476
0.122068 0.362355 0.023277
0.166148 0.362420 0.025085
0.217638 0.362317 0.028036
0.274772 0.364100 0.032540
0.332960 0.364493 0.038121
0.405400 0.376258 0.046684
0.482517 0.386781 0.053977
0.572103 0.392112 0.026092
0.670263 0.391266 -0.089142
0.764406 0.387680 -0.149452
0.856945 0.380945 -0.179345
0.947710 0.374684 -0.200892
1.019708 0.362140 -0.216579
1.089188 0.354828 -0.227554
0.113813 0.451612 0.035945
0.117411 0.451729 0.033973
0.142523 0.451612 0.034833
0.182975 0.451729 0.036750
0.232148 0.451929 0.039662
0.289404 0.452096 0.044643
0.348789 0.453076 0.050995
0.412215 0.454368 0.058371
0.488392 0.465748 0.068367
0.567005 0.474726 0.076690
0.655497 0.479501 0.052654
0.751865 0.479304 0.006479
0.848537 0.472379 -0.151493
0.941377 0.466326 -0.190614
1.014503 0.454128 -0.212102
1.083870 0.448097 -0.222183
0.138220 0.544030 0.050851
0.141147 0.544085 0.048734
0.163305 0.544030 0.050196
0.199369 0.544085 0.051987
0.248659 0.545035 0.055170
0.303691 0.544790 0.058938
0.363590 0.545035 0.065410
0.427751 0.545976 0.072931
0.495334 0.547418 0.081622
0.573195 0.556790 0.092282
0.653230 0.563843 0.100732
0.738354 0.568538 0.086201
0.833802 0.567232 0.029214
0.930756 0.559961 -0.134311
1.007566 0.546152 -0.192504
1.076662 0.541191 -0.202393
0.162404 0.637009 0.067167
0.164871 0.637058 0.065118
0.184749 0.637009 0.065765
0.218570 0.637058 0.067926
0.264711 0.636584 0.070704
0.316769 0.638425 0.075586
0.376922 0.637786 0.080883
0.441050 0.638425 0.088217
0.509092 0.639525 0.097021
0.580210 0.641252 0.106880
0.659851 0.649093 0.117819
0.738044 0.654377 0.127338
0.821360 0.656532 0.118406
0.914970 0.654176 0.061583
0.996671 0.639785 -0.062784
1.064353 0.636255 -0.093263
0.186380 0.730283 0.084493
0.188502 0.730446 0.082530
0.204941 0.730283 0.083743
0.236598 0.730446 0.084771
0.280124 0.730952 0.088117
0.331611 0.730123 0.091864
0.389568 0.730952 0.097325
0.453073 0.731351 0.104350
0.520999 0.732220 0.112958
0.592307 0.733536 0.122953
0.665693 0.735848 0.133717
0.745190 0.740860 0.145033
0.823431 0.742713 0.153873
0.904362 0.744617 0.149137
0.981745 0.732924 0.094949
1.048383 0.731243 0.093103
0.210006 0.823287 0.102564
0.211819 0.823318 0.100690
0.226711 0.823287 0.100995
0.255215 0.823318 0.103054
0.296061 0.822569 0.105689
0.345458 0.824143 0.109754
0.401707 0.823848 0.114548
0.464052 0.824143 0.121176
0.531351 0.824825 0.129437
0.602460 0.825750 0.139204
0.676137 0.827352 0.150063
0.752259 0.829417 0.161997
0.830022 0.831685 0.172766
0.908593 0.832466 0.181742
0.973541 0.823041 0.178254
1.037654 0.822492 0.181742
0.233163 0.913492 0.121149
0.234749 0.913509 0.119356
0.248964 0.913492 0.120325
0.275365 0.913509 0.120997
0.312696 0.913871 0.123921
0.358609 0.912986 0.128360
0.413496 0.913871 0.132304
0.474386 0.914078 0.138545
0.540575 0.914451 0.146381
0.610891 0.915129 0.155783
0.684462 0.916649 0.166772
0.760776 0.917349 0.179275
0.838530 0.920091 0.191089
0.914970 0.918335 0.201441
0.977831 0.909126 0.206228
1.040285 0.908460 0.212920
0.255229 0.974655 0.139595
0.256666 0.974654 0.137903
0.269126 0.975272 0.138742
0.293445 0.974654 0.139619
0.328302 0.974756 0.142136
0.372353 0.974287 0.146143
0.424256 0.974756 0.149968
0.483186 0.974920 0.155795
0.547798 0.975034 0.163178
0.616886 0.975366 0.172095
0.689703 0.975702 0.182295
0.764820 0.976619 0.194300
0.842787 0.977902 0.207011
0.922359 0.979064 0.220011
0.984321 0.972171 0.226374
1.045747 0.971586 0.232766
0.274292 0.998890 0.155951
0.275554 0.998888 0.154447
0.286237 0.998890 0.155062
0.308496 0.998888 0.156219
0.340143 0.998927 0.158365
0.381608 0.998744 0.161893
0.431167 0.998927 0.165525
0.487429 0.998974 0.170909
0.549557 0.998913 0.177723
0.616525 0.998994 0.185999
0.686270 0.999128 0.195381
0.761246 0.999337 0.206734
0.836080 0.999363 0.218938
0.913909 0.999445 0.232698
0.991335 0.999697 0.245599
1.051790 0.999601 0.251672
0.295704 1.052192 0.175026
0.296907 1.052192 0.173646
0.307687 1.052202 0.174113
0.326943 1.052190 0.175466
0.357633 1.052200 0.177722
0.396315 1.052225 0.180437
0.443779 1.052266 0.185104
0.498187 1.052377 0.190636
0.558758 1.052530 0.197668
0.624311 1.052764 0.206202
0.693426 1.053164 0.215826
0.767030 1.053776 0.227514
0.840040 1.054664 0.240494
0.918105 1.055894 0.253672
0.994297 1.057488 0.266790
1.057985 1.059324 0.274123
0.007329 0.006273 0.016780
0.027306 0.005899 0.016888
0.070058 0.002961 0.017132
0.130453 -0.030179 0.019465
0.196274 -0.046339 0.020675
0.267569 -0.061834 0.019563
0.344215 -0.077377 0.019115
0.426479 -0.093458 0.016977
0.513050 -0.110061 0.013472
0.601693 -0.126836 0.008560
0.691979 -0.143989 0.002668
0.781839 -0.160580 -0.071286
0.871702 -0.177184 -0.110426
0.960427 -0.193659 -0.139697
1.029560 -0.206842 -0.160943
1.099012 -0.220786 -0.180467
0.006355 0.025193 0.016502
0.024502 0.022859 0.016658
0.069054 0.022241 0.017206
0.129285 0.017290 0.018092
0.196200 0.010453 0.019065
0.267478 -0.035587 0.018250
0.344141 -0.060905 0.016871
0.426377 -0.081593 0.014461
0.512964 -0.100943 0.010771
0.601610 -0.119546 0.005808
0.691829 -0.137864 0.000094
0.781778 -0.155187 -0.086036
0.871702 -0.173064 -0.119922
0.959366 -0.189541 -0.145927
1.029494 -0.203497 -0.166564
1.098935 -0.217705 -0.185200
0.011894 0.067825 0.015964
0.026613 0.067931 0.016005
0.066667 0.067825 0.015964
0.127550 0.066235 0.015333
0.195488 0.063202 0.014160
0.265916 0.057559 0.012079
0.343410 0.049648 0.009396
0.425768 0.038032 0.005975
0.512444 0.018291 0.001723
0.601224 -0.063037 -0.063037
0.691339 -0.098196 -0.098196
0.780324 -0.125688 -0.125688
0.871702 -0.147782 -0.147782
0.959366 -0.168793 -0.168793
1.029268 -0.185397 -0.185397
1.098799 -0.201395 -0.201395
0.027637 0.129525 0.019321
0.037560 0.129697 0.018838
0.073564 0.130471 0.017107
0.127104 0.131597 0.018838
0.184255 0.135791 0.020493
0.259548 0.136125 0.012472
0.338877 0.134835 0.008631
0.422299 0.132300 0.004657
0.509644 0.127480 0.000284
0.598908 0.119617 -0.075433
0.688507 0.108685 -0.106087
0.780059 0.093691 -0.130988
0.869579 0.071200 -0.152080
0.958346 0.041090 -0.172552
1.028255 -0.062769 -0.188847
1.097807 -0.112237 -0.204235
0.045287 0.200454 0.024615
0.052538 0.200647 0.023688
0.081913 0.201467 0.020813
0.135086 0.201659 0.022407
0.190683 0.203582 0.025353
0.252537 0.209824 0.028561
0.327397 0.214807 0.021481
0.415105 0.215960 0.007793
0.504258 0.215219 0.000585
0.594623 0.211926 -0.081069
0.686192 0.206030 -0.112091
0.776748 0.198722 -0.137641
0.867497 0.187473 -0.157729
0.956152 0.174590 -0.177543
1.026530 0.157718 -0.193484
1.096114 0.142267 -0.207987
0.065500 0.278534 0.032069
0.071162 0.278684 0.030763
0.096519 0.279597 0.026633
0.145620 0.278684 0.027800
0.200915 0.278758 0.031040
0.259409 0.279990 0.035504
0.326882 0.289415 0.041125
0.401880 0.298154 0.040729
0.493490 0.301345 0.015352
0.587559 0.300079 -0.046730
0.679419 0.297046 -0.107103
0.771707 0.292584 -0.138035
0.863249 0.283439 -0.161358
0.953026 0.274538 -0.182463
1.023926 0.261210 -0.198155
1.093474 0.251366 -0.211574
0.088170 0.362535 0.042164
0.092765 0.362739 0.040516
0.113688 0.363651 0.035137
0.160626 0.363798 0.037566
0.214290 0.364112 0.040350
0.273166 0.364380 0.044508
0.333532 0.365228 0.050444
0.405778 0.375455 0.058229
0.482931 0.384791 0.063919
0.573718 0.388782 0.033767
0.669708 0.387025 0.001217
0.764975 0.383244 -0.122530
0.857983 0.376492 -0.157316
0.947710 0.368867 -0.182609
1.020165 0.356614 -0.200609
1.089704 0.349086 -0.212899
0.112447 0.451828 0.054757
0.116079 0.451924 0.052969
0.133454 0.452967 0.046935
0.176750 0.453071 0.048416
0.228561 0.452528 0.051556
0.285938 0.453840 0.056265
0.348123 0.453660 0.062311
0.412701 0.454980 0.069385
0.488679 0.465102 0.078568
0.567158 0.473203 0.086230
0.655806 0.477682 0.060816
0.752060 0.476639 0.013110
0.849591 0.470454 -0.126561
0.941377 0.461995 -0.172180
1.014996 0.449925 -0.196586
1.084445 0.443784 -0.207912
0.137042 0.544191 0.069007
0.140011 0.544199 0.067147
0.154380 0.545383 0.060647
0.193340 0.545392 0.062275
0.244035 0.544275 0.065707
0.300159 0.543994 0.069844
0.361897 0.545437 0.075695
0.427209 0.546351 0.082960
0.495718 0.547902 0.091376
0.573457 0.556268 0.101357
0.652566 0.563111 0.110228
0.738621 0.566829 0.091263
0.834888 0.564055 0.037784
0.931875 0.557762 -0.108809
1.008108 0.542961 -0.176327
1.077258 0.537878 -0.187496
0.161396 0.637157 0.084315
0.163899 0.637165 0.082489
0.175967 0.637157 0.076195
0.211678 0.637165 0.077326
0.258453 0.638106 0.080513
0.314497 0.637566 0.085146
0.374605 0.638106 0.090286
0.439746 0.638788 0.097379
0.508633 0.639829 0.105976
0.580593 0.641620 0.115597
0.658347 0.648226 0.126390
0.738574 0.653592 0.134770
0.823189 0.653996 0.119481
0.917078 0.652675 0.063657
0.997362 0.637245 0.003262
1.065235 0.633539 -0.049556
0.185505 0.730414 0.100628
0.187629 0.730425 0.098830
0.198207 0.730414 0.092859
0.230784 0.730425 0.094164
0.274449 0.731184 0.097273
0.327750 0.730481 0.100003
0.386826 0.731184 0.105940
0.451184 0.731752 0.112761
0.519891 0.732442 0.121155
0.591880 0.733873 0.130962
0.665642 0.736070 0.141434
0.743609 0.739897 0.151656
0.823989 0.743420 0.160869
0.905460 0.743853 0.154774
0.982344 0.731131 0.100314
1.049153 0.729286 0.098073
0.209237 0.823480 0.117692
0.211062 0.823464 0.115949
0.220047 0.823480 0.109579
0.249502 0.823464 0.110268
0.291045 0.823947 0.114230
0.341247 0.824391 0.118107
0.398670 0.823947 0.122445
0.461811 0.824391 0.128909
0.529822 0.824950 0.136980
0.601517 0.825938 0.146600
0.676647 0.827403 0.157019
0.752366 0.829604 0.168809
0.830142 0.831751 0.178723
0.908593 0.831274 0.187446
0.973680 0.821827 0.183333
1.037925 0.821340 0.186513
0.232445 0.913585 0.135300
0.234058 0.913600 0.133624
0.241335 0.913585 0.127694
0.269702 0.913600 0.128552
0.307571 0.913923 0.131046
0.355182 0.912931 0.134513
0.410336 0.913923 0.139571
0.471896 0.914117 0.145696
0.538738 0.914565 0.153356
0.609682 0.915233 0.162605
0.683611 0.916698 0.173082
0.759529 0.917388 0.184500
0.838519 0.919441 0.197615
0.914970 0.918768 0.206991
0.977866 0.908537 0.211936
1.040298 0.907793 0.218560
0.254636 0.974660 0.152784
0.256070 0.974660 0.151190
0.263554 0.975277 0.145784
0.286889 0.974660 0.146814
0.323114 0.974787 0.148774
0.368761 0.974311 0.151772
0.421030 0.974787 0.156699
0.480516 0.974935 0.162420
0.545701 0.975117 0.169647
0.615342 0.975346 0.178448
0.687621 0.975784 0.188033
0.764229 0.976596 0.200860
0.841703 0.977776 0.212458
0.921267 0.978288 0.225350
0.984320 0.972132 0.231977
1.045775 0.971326 0.238174
0.273696 0.998915 0.168134
0.275007 0.998912 0.166681
0.281655 0.998915 0.161832
0.302928 0.998912 0.163082
0.336004 0.998938 0.164596
0.378981 0.998753 0.168014
0.427982 0.998938 0.171815
0.484762 0.998983 0.177119
0.547394 0.999022 0.183797
0.614840 0.999000 0.191976
0.686208 0.999124 0.202570
0.759525 0.999209 0.212897
0.836118 0.999368 0.224193
0.913909 0.999566 0.238807
0.991380 0.999701 0.251023
1.051830 0.999566 0.256898
0.295134 1.052266 0.186413
0.296305 1.052267 0.185052
0.302126 1.052301 0.179922
0.322312 1.052288 0.181346
0.353602 1.052288 0.183583
0.392675 1.052309 0.186187
0.440704 1.052377 0.191043
0.495545 1.052458 0.196494
0.556531 1.052579 0.203354
0.622496 1.052834 0.211826
0.692264 1.053234 0.221669
0.766254 1.053845 0.233305
0.840889 1.054747 0.245494
0.918105 1.055959 0.258669
0.994017 1.057525 0.271916
1.058053 1.059360 0.279226
0.005306 0.005010 0.053113
0.028274 0.004554 0.053254
0.073102 0.001313 0.053770
0.128949 -0.028875 0.055241
0.195335 -0.048014 0.059750
0.266961 -0.063823 0.062535
0.344255 -0.079678 0.063877
0.426870 -0.096176 0.063919
0.513669 -0.112893 0.062146
0.602341 -0.129555 0.058235
0.692641 -0.146342 0.052708
0.781425 -0.162761 0.043886
0.872746 -0.179097 0.033587
0.960427 -0.195240 0.021962
1.029986 -0.208509 0.010385
1.099497 -0.222462 -0.017242
0.003273 0.026422 0.052784
0.023439 0.022006 0.053086
0.071242 0.021106 0.054770
0.128677 0.018105 0.054413
0.195349 0.009148 0.058558
0.266965 -0.040063 0.060988
0.344266 -0.064439 0.061974
0.426857 -0.085140 0.061676
0.513624 -0.104292 0.059581
0.602288 -0.122586 0.055401
0.692486 -0.140747 0.049613
0.781390 -0.157529 0.040668
0.871702 -0.175063 0.030325
0.960427 -0.191671 0.019563
1.029912 -0.205233 0.007481
1.099429 -0.219461 -0.058704
-0.008881 0.073157 0.051602
0.022245 0.071712 0.051815
0.064881 0.065446 0.052916
0.127843 0.064890 0.053791
0.195314 0.062101 0.055819
0.266777 0.055813 0.056050
0.344239 0.047129 0.055150
0.426671 0.034485 0.053388
0.513300 0.011811 0.050053
0.601942 -0.070532 0.044830
0.691204 -0.102467 0.038219
0.782112 -0.128743 0.029503
0.871702 -0.150511 0.018427
0.960427 -0.170933 0.007865
1.029573 -0.186991 -0.051990
1.099115 -0.202953 -0.108842
0.017317 0.130427 0.050639
0.029740 0.130634 0.050781
0.068070 0.131383 0.051287
0.124297 0.130634 0.050781
0.192767 0.129369 0.049910
0.264481 0.125144 0.047048
0.342605 0.119890 0.043537
0.425345 0.112914 0.039001
0.512124 0.103603 0.033362
0.600940 0.091228 0.026586
0.691023 0.074737 0.018823
0.781103 0.049601 0.009382
0.870667 0.011815 0.000820
0.959366 -0.095117 -0.095117
1.028934 -0.129144 -0.129144
1.098590 -0.154020 -0.154020
0.039138 0.201196 0.057286
0.047066 0.201391 0.056780
0.078191 0.202213 0.055273
0.128515 0.202408 0.052127
0.192956 0.204236 0.055243
0.253464 0.207669 0.059174
0.333773 0.207286 0.046126
0.419114 0.205618 0.038055
0.507314 0.202388 0.031141
0.597069 0.197074 0.023731
0.688249 0.189270 0.015879
0.778192 0.179998 0.006069
0.868490 0.167814 -0.053236
0.957219 0.151392 -0.107712
1.027278 0.134723 -0.137784
1.096965 0.116953 -0.160285
0.060947 0.279168 0.065940
0.066875 0.279332 0.065010
0.092426 0.280227 0.061778
0.137068 0.281432 0.057466
0.199678 0.282416 0.059426
0.261730 0.282726 0.063097
0.327627 0.287751 0.069161
0.405275 0.293396 0.062406
0.498106 0.293412 0.039491
0.590281 0.290837 0.025667
0.683023 0.285945 0.014585
0.773440 0.280188 0.004269
0.864283 0.271905 -0.075060
0.954069 0.260375 -0.119694
1.024739 0.247737 -0.146504
1.094458 0.237385 -0.166567
0.084473 0.363051 0.076290
0.089223 0.363189 0.075102
0.110880 0.364158 0.071239
0.149279 0.364338 0.063747
0.209604 0.364389 0.067369
0.270950 0.365341 0.070921
0.334772 0.366632 0.076691
0.406537 0.374148 0.083341
0.484325 0.381501 0.085060
0.577257 0.382968 0.054642
0.674187 0.379309 0.024813
