assets/core/filters/luts/02_Fujifilm LUTs_Purple Skyline.cube
TITLE "Generated by Resolve"
LUT_3D_SIZE 33
0 0 0
0.0216373 0.000411994 0
0.0435492 0.00117494 0
0.065507 0.00189212 0
0.087953 0.00242618 0
0.111437 0.00262455 0
0.137057 0.00210575 0
0.165484 0.000640879 0
0.19678 0 0
0.230823 0 0
0.267063 0 0
0.304372 0 0
0.341421 0 0
0.377966 0 0
0.414084 0 0
0.450263 0 0
0.486854 0 0
0.523537 0 0
0.55993 0 0
0.595682 0 0
0.630472 0 0
0.663905 0 0
0.695766 0 0
0.726085 0 0
0.75494 0 0
0.782376 0 0
0.808606 0 0
0.833951 0 0
0.858717 0 0
0.883146 0 0
0.907515 0 0
0.932082 0 0
0.956847 0 0
0 0.0236362 0.0144045
0.0119173 0.0267185 0
0.0353094 0.0273442 0
0.0584573 0.0276646 0
0.0815595 0.0279393 0
0.105364 0.0280156 0
0.131136 0.027451 0
0.160113 0.025803 0
0.192264 0.0231022 0
0.22739 0.0194705 0
0.264866 0.0151522 0
0.303456 0.0105898 0
0.341802 0.00630198 0
0.378714 0.00271611 0
0.415 0 0
0.451347 0 0
0.488151 0 0
0.525032 0 0
0.561654 0 0
0.597681 0 0
0.632715 0 0
0.666438 0 0
0.698619 0 0
0.729274 0 0
0.75848 0 0
0.786297 0 0
0.812924 0 0
0.838697 0 0
0.863859 0 0
0.888701 0 0
0.913497 0 0
0.938491 0 0
0.963699 0 0
0 0.0473182 0.0289311
0.00511177 0.0507362 0.0112001
0.0237736 0.0533608 0
0.0468605 0.0542153 0
0.0711833 0.0543832 0
0.0960403 0.0542611 0
0.122438 0.0536507 0
0.152331 0.0518654 0
0.185718 0.0489052 0
0.222293 0.0449226 0
0.261341 0.0402075 0
0.301595 0.0352178 0
0.341543 0.0305028 0
0.379568 0.026688 0
0.416037 0.0235447 0
0.452598 0.0204776 0
0.489616 0.0173648 0
0.526741 0.0143282 0
0.563622 0.0114595 0
0.599924 0.00886549 0
0.635264 0.00665293 0
0.669322 0.00494392 0
0.701854 0.00378424 0
0.732876 0.00315862 0
0.762478 0.00306706 0
0.790661 0.00350958 0
0.81767 0.00440986 0
0.843824 0.00569162 0
0.869383 0.00727855 0
0.894621 0.00910964 0
0.919814 0.0110933 0
0.945205 0.0131838 0
0.97081 0.0153658 0
0 0.0709087 0.0432746
0 0.0744793 0.0242924
0.0160983 0.0776532 0.00991836
0.0356298 0.0800336 0
0.0590066 0.0809949 0
0.0844434 0.081117 0
0.111666 0.0805676 0
0.142748 0.078706 0
0.177676 0.0755474 0
0.216037 0.0712596 0
0.256992 0.0661631 0
0.299199 0.0607767 0
0.341054 0.0556497 0
0.380865 0.0514534 0
0.417762 0.0484932 0
0.454582 0.0456855 0
0.49189 0.0428626 0
0.529335 0.0401465 0
0.566567 0.0376135 0
0.60322 0.0353857 0
0.638941 0.0335546 0
0.673381 0.0322118 0
0.706279 0.0314336 0
0.737697 0.0312047 0
0.767666 0.0315099 0
0.796262 0.0323186 0
0.823667 0.0336156 0
0.850217 0.0353094 0
0.876173 0.0372931 0
0.901823 0.0395209 0
0.927428 0.0419318 0
0.953231 0.044419 0
0.979248 0.0470283 0
0 0.0947738 0.0572213
0 0.0985428 0.037644
0.00968948 0.101823 0.0219577
0.0272526 0.105043 0.00863661
0.0480354 0.10724 0
0.0723278 0.108217 0
0.0999313 0.108049 0
0.132143 0.106294 0
0.168658 0.103075 0
0.208911 0.0986038 0
0.251957 0.0932326 0
0.2963 0.0875105 0
0.340261 0.082063 0
0.38204 0.0775464 0
0.419989 0.0746166 0
0.45716 0.0721752 0
0.494835 0.0697185 0
0.532662 0.0673686 0
0.57026 0.0652323 0
0.607309 0.063386 0
0.643427 0.0619211 0
0.678233 0.0609751 0
0.711528 0.0605936 0
0.743343 0.0607462 0
0.773724 0.0614481 0
0.802716 0.0626841 0
0.830518 0.0643778 0
0.857481 0.0664683 0
0.883848 0.0688792 0
0.909926 0.071519 0
0.935927 0.0743267 0
0.962112 0.0772106 0
0.988495 0.0801709 0
0 0.11931 0.0698405
0 0.123278 0.050721
0.00254826 0.126818 0.0341344
0.0204166 0.130236 0.0201419
0.0391241 0.133379 0.00720226
0.0616159 0.135409 0
0.0890822 0.135836 0
0.121981 0.134463 0
0.159777 0.131411 0
0.201724 0.12697 0
0.246754 0.121508 0
0.293202 0.115633 0
0.3393 0.110002 0
0.383154 0.105303 0
0.424018 0.10193 0
0.460105 0.100267 0
0.498177 0.0982071 0
0.53637 0.0962387 0
0.57438 0.0944839 0
0.611811 0.0930343 0
0.648325 0.0919814 0
0.683543 0.0914321 0
0.71725 0.0914473 0
0.749462 0.0920119 0
0.780255 0.0931258 0
0.809644 0.0947738 0
0.837873 0.0968948 0
0.865232 0.099382 0
0.891997 0.102159 0
0.918395 0.10515 0
0.944732 0.108278 0
0.971222 0.111467 0
0.997864 0.114702 0
0 0.144793 0.0755016
0 0.148867 0.0601816
0 0.152743 0.0449531
0.0137789 0.15642 0.0308843
0.0323796 0.15996 0.0178988
0.0541543 0.162646 0.00527962
0.081178 0.16376 0
0.114015 0.163012 0
0.152483 0.160494 0
0.19559 0.156344 0
0.237888 0.149447 0
0.290501 0.145266 0
0.339834 0.139223 0
0.388418 0.133639 0
0.432074 0.129885 0
0.463035 0.130205 0
0.501488 0.128527 0
0.540093 0.12697 0
0.578485 0.125612 0
0.616327 0.124575 0
0.653254 0.123919 0
0.688884 0.123781 0
0.723003 0.124224 0
0.755627 0.1252 0
0.786816 0.126696 0
0.816587 0.12871 0
0.845151 0.131167 0
0.872816 0.133974 0
0.899855 0.137041 0
0.926528 0.140291 0
0.953094 0.143664 0.000701915
0.979797 0.147066 0.00421149
1 0.150484 0.00773632
0 0.171572 0.0723125
0 0.175509 0.0618753
0 0.179507 0.0499886
0.0101472 0.183398 0.0377966
0.0295109 0.187076 0.0258183
0.0509651 0.190219 0.0140688
0.0773175 0.191852 0.00265507
0.109911 0.192065 0
0.148211 0.190249 0
0.189456 0.185702 0
0.21294 0.170153 0
0.251423 0.158801 0
0.333043 0.163333 0
0.398474 0.162448 0
0.437217 0.160586 0
0.465568 0.162173 0
0.504417 0.160906 0
0.543435 0.159747 0
0.582254 0.158816 0
0.620493 0.15819 0
0.657832 0.157946 0
0.693843 0.15819 0
0.728313 0.158984 0
0.761273 0.160281 0
0.792767 0.162097 0
0.822797 0.164385 0
0.851621 0.167102 0
0.87953 0.170123 0
0.906767 0.173404 0.000656138
0.933623 0.176837 0.00422675
0.960357 0.180362 0.0078584
0.987182 0.183886 0.01149
1 0.187427 0.0151217
0 0.195117 0.0595407
0 0.203601 0.0554971
0 0.207523 0.0479133
0.0102541 0.211505 0.0389715
0.0302586 0.215274 0.0293126
0.0524453 0.218585 0.0193484
0.0784466 0.220935 0.00929274
0.110323 0.221637 0
0.147799 0.220493 0
0.179477 0.212436 0
0.194919 0.194568 0
0.195148 0.168765 0
0.237583 0.150103 0
0.344015 0.166003 0
0.430976 0.191043 0
0.467628 0.196262 0
0.506905 0.195407 0
0.546319 0.194644 0
0.585504 0.19408 0
0.624094 0.193805 0
0.661753 0.193881 0
0.698054 0.194415 0
0.732799 0.195483 0
0.766003 0.197024 0
0.797711 0.199054 0
0.827955 0.201541 0
0.856947 0.204425 0
0.884993 0.207614 0.00263981
0.912352 0.211002 0.00613413
0.9393 0.214542 0.00978103
0.966094 0.218143 0.013489
0.992996 0.221714 0.0171817
1 0.225269 0.0208438
0 0.191638 0.0318608
0 0.215198 0.0371252
0 0.230579 0.037171
0.0119936 0.239506 0.0333562
0.0341497 0.244663 0.0272221
0.0573892 0.248157 0.0198672
0.0833448 0.250568 0.0119783
0.112108 0.250431 0.0037995
0.139971 0.245472 0
0.161379 0.233814 0
0.172442 0.215045 0
0.173388 0.191058 0
0.170657 0.166217 0
0.199527 0.150652 0
0.30837 0.1794 0
0.423972 0.21387 0
0.506355 0.23093 0
0.548424 0.231449 0
0.5879 0.231174 0
0.626764 0.231159 0
0.664637 0.231479 0
0.701167 0.232227 0
0.736095 0.233478 0
0.769467 0.235187 0
0.801312 0.237354 0
0.831662 0.239948 0
0.860731 0.242924 0.00302129
0.888853 0.246159 0.00639353
0.916259 0.249592 0.00993362
0.943221 0.253147 0.0135958
0.970001 0.256733 0.0172732
0.996857 0.260273 0.0209354
1 0.263767 0.0245365
0 0.175174 0
0 0.203922 0.00679026
0 0.22797 0.0135958
0 0.24593 0.0164187
0.0201267 0.258106 0.0158236
0.0461128 0.26537 0.0126802
0.0712291 0.268406 0.00779736
0.0950942 0.267109 0.00189212
0.116487 0.260716 0
0.133089 0.248692 0
0.143282 0.231403 0
0.148348 0.210834 0
0.154269 0.190982 0
0.172351 0.178058 0
0.209613 0.176211 0
0.297002 0.196872 0
0.417426 0.230625 0
0.52253 0.258091 0
0.58909 0.269673 0
0.628351 0.269917 0
0.666377 0.27039 0
0.703029 0.271275 0
0.738064 0.272618 0
0.771511 0.274403 0
0.803418 0.276631 0
0.833814 0.279255 0.00198367
0.862882 0.282231 0.00505074
0.890974 0.285451 0.00839246
0.918334 0.288838 0.0118868
0.94522 0.292317 0.0154726
0.971908 0.295811 0.0190738
0.998642 0.299229 0.0226139
1 0.302571 0.0260777
0 0.171313 0
0 0.192264 0
0 0.215488 0
0 0.236606 0
0 0.253346 0
0.0116579 0.264912 0
0.0368658 0.271168 0
0.059968 0.272145 0
0.0800946 0.267857 0
0.0968032 0.258564 0
0.110231 0.245274 0
0.122484 0.230304 0
0.139452 0.217533 0
0.170901 0.212482 0
0.208042 0.212222 0
0.245991 0.211917 0
0.305653 0.219959 0
0.413718 0.248814 0
0.525551 0.28014 0
0.614008 0.302525 0
0.667216 0.310124 0
0.703914 0.311055 0
0.738964 0.312413 0
0.772412 0.314214 0
0.804273 0.316396 0
0.834607 0.318975 0.00268559
0.863615 0.321874 0.00567636
0.8916 0.324987 0.00891127
0.918837 0.328237 0.0122835
0.945586 0.331594 0.0157321
0.972198 0.334997 0.0192721
0.998947 0.33843 0.022797
1 0.341878 0.0263523
0 0.198993 0
0 0.207019 0
0 0.217319 0
0 0.232456 0
0 0.247822 0
0 0.260624 0
0 0.269368 0
0.0177462 0.273472 0
0.0395056 0.272999 0
0.0598306 0.268437 0
0.079881 0.261143 0
0.102419 0.253605 0
0.133104 0.249668 0
0.170199 0.249699 0
0.207019 0.249928 0
0.245228 0.249882 0
0.285176 0.249439 0
0.330083 0.250309 0
0.418799 0.270726 0
0.526635 0.301106 0
0.624277 0.328984 0
0.696498 0.347173 0
0.739071 0.352392 0
0.772412 0.354086 0
0.804166 0.356161 0
0.834363 0.358602 0.00231937
0.863249 0.361364 0.00520333
0.891203 0.364446 0.00839246
0.918471 0.367742 0.0118105
0.945342 0.371206 0.0153811
0.972045 0.374731 0.0189975
0.998901 0.378256 0.0226444
1 0.381781 0.026276
0 0.232731 0
0 0.241276 0
0 0.249119 0
0 0.256321 0
0 0.263066 0
0 0.270893 0
0 0.278355 0
0 0.283772 0
0.00917067 0.286564 0
0.0347448 0.287053 0
0.063508 0.286519 0
0.0974746 0.286931 0
0.132921 0.287633 0
0.169131 0.288228 0
0.206149 0.288655 0
0.244526 0.288777 0
0.284627 0.288487 0
0.326055 0.287861 0
0.368414 0.287022 0
0.434714 0.297139 0
0.531777 0.323171 0
0.629587 0.352438 0
0.712917 0.377935 0
0.770108 0.392569 0
0.803632 0.395682 0
0.833906 0.398199 0.00175479
0.862898 0.401083 0.00474556
0.890959 0.404257 0.0080415
0.918318 0.407645 0.0115511
0.945251 0.411185 0.0151827
0.972045 0.414771 0.0188907
0.998932 0.418341 0.0225528
1 0.421897 0.0262303
0 0.268223 0
0 0.277241 0
0 0.285542 0
0 0.293172 0
0 0.300099 0
0 0.306279 0
0 0.31162 0
0 0.316106 0
0.00366217 0.319707 0
0.031754 0.322469 0
0.0628977 0.324453 0
0.0964675 0.325811 0
0.131853 0.326741 0
0.16846 0.327382 0
0.205707 0.327901 0
0.244175 0.328099 0
0.284337 0.327871 0
0.32578 0.327291 0
0.368154 0.326452 0
0.411093 0.32546 0
0.461433 0.328008 0
0.543984 0.347753 0
0.646281 0.381048 0
0.745251 0.417594 0
0.801923 0.434165 0
0.83418 0.437964 0.00192264
0.863249 0.440925 0.0049897
0.891356 0.44416 0.00833143
0.918761 0.447593 0.0118715
0.945739 0.451148 0.0155489
0.972519 0.454749 0.0192569
0.999405 0.458305 0.0229343
1 0.461845 0.0265812
0 0.305333 0
0 0.314733 0
0 0.3234 0
0 0.331365 0
0 0.338628 0
0 0.345098 0
0 0.350713 0
0 0.355398 0
0.000869764 0.359167 0
0.0293126 0.362051 0
0.0608072 0.364111 0
0.0947433 0.36553 0
0.13048 0.366445 0
0.167391 0.367071 0
0.204883 0.367529 0
0.243458 0.367712 0
0.283635 0.367498 0
0.325185 0.36701 0
0.367742 0.366354 0
0.410925 0.365621 0
0.454353 0.364889 0
0.498054 0.364492 0
0.591394 0.391394 0
0.715679 0.440284 0
0.797818 0.47129 0
0.834638 0.477928 0.00225834
0.863722 0.480903 0.00534066
0.891829 0.484154 0.00869764
0.919219 0.487572 0.0122225
0.946166 0.491096 0.0158694
0.972915 0.494667 0.0195468
0.999756 0.498177 0.0231632
1 0.50164 0.0267491
0 0.343893 0
0 0.353582 0
0 0.362509 0
0 0.370733 0
0 0.378225 0
0 0.384909 0
0 0.390677 0
0 0.395499 0
0 0.399374 0
0.0262913 0.402289 0
0.0580453 0.404364 0
0.0922103 0.405737 0
0.128191 0.406592 0
0.165393 0.407202 0
0.203265 0.407721 0
0.242283 0.408042 0
0.282795 0.408042 0
0.324575 0.407797 0
0.367361 0.407355 0
0.410742 0.406821 0
0.454353 0.406287 0
0.500328 0.407111 0
0.589426 0.43151 0
0.706813 0.475761 0
0.797711 0.51133 0
0.834714 0.518044 0.00222782
0.863783 0.520989 0.00529488
0.891844 0.524193 0.00860609
0.919188 0.52755 0.0120851
0.946059 0.531014 0.0156405
0.972732 0.534478 0.0192416
0.999451 0.537896 0.0227512
1 0.541253 0.026215
0 0.383444 0
0 0.393317 0
0 0.402426 0
0 0.410834 0
0 0.418463 0
0 0.425254 0
0 0.431113 0
0 0.435981 0
0 0.439857 0
0.0228122 0.442786 0
0.0548104 0.444892 0
0.0893416 0.446387 0
0.12578 0.44744 0
0.16347 0.448234 0
0.201785 0.44892 0
0.241245 0.449378 0
0.282155 0.449531 0
0.324208 0.449424 0
0.367163 0.449149 0
0.410697 0.448768 0
0.454444 0.448356 0
0.514595 0.45626 0
0.615717 0.486915 0
0.724681 0.526543 0
0.802182 0.554162 0
0.834638 0.558007 0.00202945
0.863615 0.560876 0.00502022
0.891585 0.563989 0.00823987
0.918822 0.567239 0.0115969
0.945571 0.570581 0.0150607
0.972107 0.573907 0.0185092
0.998672 0.577173 0.0218662
1 0.580362 0.0251621
0 0.424765 0
0 0.433539 0
0 0.442741 0
0 0.451225 0
0 0.4589 0
0 0.465721 0
0 0.471641 0
0 0.476631 0
0 0.480705 0
0.0197299 0.483879 0
0.0521248 0.486213 0
0.0870527 0.487907 0
0.123903 0.489113 0
0.16199 0.490043 0
0.200702 0.490852 0
0.240528 0.491417 0
0.281804 0.491646 0
0.324178 0.491615 0
0.367315 0.491417 0
0.410956 0.491142 0
0.459358 0.492927 0
0.54345 0.512322 0
0.649348 0.545434 0
0.747295 0.579232 0
0.804318 0.595087 0
0.834516 0.597528 0.00181582
0.863371 0.600275 0.004654
0.891203 0.603235 0.00773632
0.918273 0.606348 0.010956
0.944854 0.609506 0.0142214
0.971206 0.61265 0.0174868
0.997574 0.615717 0.0206455
1 0.618677 0.0237278
0 0.521859 0
0 0.493339 0
0 0.484123 0
0 0.491569 0
0 0.499428 0
0 0.506493 0
0 0.512688 0
0 0.517937 0
0 0.52224 0
0.0175937 0.525612 0
0.0502937 0.528115 0
0.0855573 0.529961 0
0.122713 0.531304 0
0.161151 0.532326 0
0.200183 0.533211 0
0.24033 0.533822 0
0.281895 0.534081 0
0.324559 0.534066 0
0.367941 0.533883 0
0.414267 0.534737 0
0.488457 0.548058 0
0.586023 0.573739 0
0.687037 0.604517 0
0.766201 0.62858 0
0.804501 0.634043 0
0.834531 0.636332 0.00170901
0.863218 0.638895 0.0043946
0.890852 0.641657 0.00727855
0.917723 0.644556 0.0102846
0.944076 0.647501 0.0133364
0.970184 0.650416 0.0163577
0.996307 0.653223 0.0192721
1 0.655924 0.0220951
0 0.634073 0.0138857
0 0.606073 0
0 0.575998 0
0 0.554055 0
0 0.544656 0
0 0.547799 0
0 0.554208 0
0 0.559655 0
0 0.564141 0
0.0165713 0.567666 0
0.0495003 0.570321 0
0.0850233 0.572259 0
0.122438 0.573663 0
0.16112 0.574746 0
0.200427 0.575662 0
0.240803 0.576288 0
0.282612 0.576516 0
0.325475 0.576471 0
0.376013 0.57908 0
0.449088 0.590967 0
0.539925 0.611399 0
0.636683 0.636713 0
0.721736 0.659937 0
0.773617 0.670298 0
0.805005 0.672023 0
0.834852 0.674083 0.00190738
0.863294 0.676417 0.00436408
0.8907 0.67895 0.00700389
0.917311 0.68159 0.00975052
0.943389 0.68426 0.0125277
0.969207 0.686885 0.0152743
0.995026 0.689387 0.0178836
1 0.691783 0.0203708
0 0.68545 0.0253605
0 0.689372 0.0204776
0 0.681498 0.0110628
0 0.660883 0
0 0.638743 0
0 0.621088 0
0 0.610224 0
0 0.60592 0
0 0.606577 0
0.0168612 0.609735 0
0.049958 0.612467 0
0.0856336 0.614466 0
0.123232 0.6159 0
0.162097 0.616999 0
0.201602 0.617884 0
0.242725 0.618677 0
0.291844 0.621592 0
0.353109 0.628489 0
0.42771 0.640314 0
0.513191 0.656947 0
0.602579 0.676539 0
0.684031 0.69514 0
0.741665 0.705898 0
0.774884 0.70724 0
0.806058 0.708705 0.000656138
0.835615 0.710521 0.00256352
0.863783 0.712581 0.00474556
0.890883 0.714809 0.00709545
0.917189 0.717144 0.00953689
0.942946 0.719493 0.0119936
0.96846 0.721798 0.0144045
0.993942 0.72398 0.0166934
1 0.72604 0.0188907
0 0.723903 0.0325322
0 0.727886 0.0276799
0 0.731716 0.0235294
0.0247044 0.735363 0.0200809
0.0468757 0.73286 0.0146944
0.0540322 0.720607 0.00627146
0.0537881 0.705791 0
0.0533455 0.692409 0
0.0577707 0.682139 0
0.0699474 0.675212 0
0.0906844 0.671153 0
0.119234 0.669337 0
0.154528 0.669261 0
0.195743 0.670771 0
0.24271 0.674052 0
0.296849 0.679255 0
0.359472 0.686687 0
0.430335 0.696651 0
0.507332 0.708965 0
0.585626 0.722469 0
0.657023 0.734676 0
0.709804 0.741253 0
0.744259 0.741833 0
0.776761 0.742687 0.000823987
0.807614 0.743862 0.002121
0.836866 0.745357 0.0037232
0.864713 0.747097 0.00556954
0.891508 0.749004 0.00759899
0.917479 0.751019 0.00972
0.942931 0.753048 0.0118563
0.968124 0.755047 0.0139773
0.993301 0.756909 0.0159457
1 0.758679 0.0178225
0 0.761868 0.0412451
0 0.765835 0.0363775
6.10361e-05 0.76965 0.0321508
0.0290379 0.773281 0.0285801
0.0587625 0.776623 0.0255436
0.0896315 0.779538 0.0229496
0.121386 0.781521 0.0204623
0.144884 0.777676 0.0161746
0.162219 0.770245 0.0111543
0.179126 0.76228 0.0065919
0.199557 0.755398 0.00291447
0.225666 0.750408 0.000259403
0.258381 0.74757 0
0.297871 0.747021 0
0.343816 0.748745 0
0.396445 0.752453 0
0.455238 0.757733 0
0.517769 0.764111 0.000244144
0.579904 0.770626 0.00123598
0.63534 0.775448 0.00195315
0.676707 0.77615 0.00196841
0.712718 0.775876 0.00198367
0.746807 0.775998 0.00233463
0.779049 0.776501 0.00300603
0.809583 0.777371 0.00396735
0.838514 0.778531 0.0052491
0.866041 0.779965 0.00679026
0.892515 0.781567 0.00849927
0.918196 0.783261 0.0103151
0.943328 0.784985 0.0121462
0.9682 0.786679 0.0139467
0.993088 0.788235 0.0156252
1 0.7897 0.0171817
0 0.799176 0.0513008
0 0.803098 0.0463569
0.00569162 0.806851 0.0420233
0.0345464 0.810407 0.0382849
0.0641489 0.813657 0.03505
0.0948653 0.81648 0.0321965
0.127123 0.818753 0.0295872
0.161349 0.820371 0.0270695
0.197559 0.821317 0.0246281
0.235798 0.821561 0.0221561
0.274922 0.820844 0.0195468
0.312184 0.818586 0.0167086
0.349844 0.816114 0.0141299
0.389364 0.814298 0.0121157
0.431083 0.813504 0.0107576
0.475135 0.813474 0.00978103
0.520394 0.813565 0.00889601
0.563516 0.813001 0.00790417
0.603372 0.811643 0.0068513
0.642237 0.810422 0.0059968
0.679774 0.809445 0.00537118
0.715618 0.808804 0.005066
0.749554 0.80856 0.00512703
0.781613 0.808713 0.00549325
0.811887 0.809247 0.0061799
0.840528 0.810101 0.00715648
0.86775 0.811231 0.0083772
0.893919 0.812512 0.00978103
0.919295 0.813916 0.0112917
0.944121 0.815335 0.0128176
0.968704 0.816724 0.0143282
0.993286 0.81799 0.0157015
1 0.81915 0.0169833
0 0.835691 0.0624704
0 0.839506 0.0574044
0.0123293 0.843153 0.052903
0.0410315 0.846586 0.0489662
0.0704509 0.849714 0.0454871
0.100969 0.852384 0.0423438
0.133043 0.85449 0.0393988
0.167041 0.85594 0.0365301
0.203037 0.856703 0.0336767
0.241077 0.856748 0.0307774
0.280919 0.856153 0.0278477
0.321965 0.855085 0.024979
0.363546 0.853727 0.0223087
0.405051 0.852232 0.0199283
0.445823 0.850782 0.0179294
0.48632 0.849241 0.016144
0.526909 0.847547 0.0144198
0.567254 0.845792 0.0127871
0.606943 0.844083 0.0113222
0.64564 0.842512 0.0100862
0.683024 0.841169 0.00910964
0.7187 0.840177 0.00846876
0.752483 0.839582 0.00820935
0.784375 0.839384 0.00830091
0.814496 0.839567 0.00869764
0.842863 0.840101 0.0093843
0.869795 0.840909 0.0103151
0.895659 0.841917 0.0114137
0.920729 0.843015 0.0126345
0.945266 0.844144 0.0138705
0.969558 0.845243 0.0150607
0.993851 0.84622 0.0161593
1 0.847089 0.0171511
0 0.871321 0.074403
0 0.874983 0.0691691
0.0196384 0.878462 0.0644694
0.0481422 0.881727 0.0602884
0.0773327 0.884657 0.0565042
0.107607 0.887144 0.0530404
0.139422 0.889052 0.0497292
0.173159 0.890272 0.0464485
0.208896 0.890791 0.0431525
0.246647 0.890578 0.0397955
0.286229 0.889708 0.0363622
0.327001 0.88835 0.03299
0.368353 0.886671 0.0298009
0.409598 0.88484 0.0268864
0.450141 0.88307 0.0243992
0.490455 0.881193 0.0221256
0.530846 0.879164 0.0199283
0.570993 0.877073 0.0178683
0.610513 0.875013 0.0159915
0.649073 0.873106 0.0143587
0.68629 0.871412 0.0130159
0.721813 0.870085 0.0120394
0.755444 0.869139 0.0114595
0.787182 0.868605 0.0112459
0.817121 0.868437 0.0113527
0.845335 0.868635 0.01178
0.872023 0.869154 0.0124361
0.897597 0.869856 0.0132448
0.922377 0.870665 0.0141604
0.946624 0.871504 0.0151217
0.970626 0.872312 0.0160372
0.994644 0.873014 0.016846
1 0.873625 0.0175784
0 0.90602 0.0866255
0 0.909468 0.0811933
0.0271611 0.912749 0.0762341
0.0553902 0.915785 0.0717632
0.0843214 0.918486 0.0676585
0.114305 0.920729 0.0638132
0.145815 0.922362 0.06009
0.179232 0.923308 0.0563668
0.214649 0.923537 0.0525978
