assets/core/filters/luts/02_Fujifilm LUTs_Purple Skyline.cube
TITLE "Generated by Resolve"
LUT_3D_SIZE 9
0 0 0
0.087953 0.00242618 0
0.19678 0 0
0.341421 0 0
0.486854 0 0
0.630472 0 0
0.75494 0 0
0.858717 0 0
0.956847 0 0
0 0.0947738 0.0572213
0.0480354 0.10724 0
0.168658 0.103075 0
0.340261 0.082063 0
0.494835 0.0697185 0
0.643427 0.0619211 0
0.773724 0.0614481 0
0.883848 0.0688792 0
0.988495 0.0801709 0
0 0.195117 0.0595407
0.0302586 0.215274 0.0293126
0.147799 0.220493 0
0.237583 0.150103 0
0.506905 0.195407 0
0.661753 0.193881 0
0.797711 0.199054 0
0.912352 0.211002 0.00613413
1 0.225269 0.0208438
0 0.198993 0
0 0.247822 0
0.0395056 0.272999 0
0.133104 0.249668 0
0.285176 0.249439 0
0.624277 0.328984 0
0.804166 0.356161 0
0.918471 0.367742 0.0118105
1 0.381781 0.026276
0 0.343893 0
0 0.378225 0
0 0.399374 0
0.128191 0.406592 0
0.282795 0.408042 0
0.454353 0.406287 0
0.797711 0.51133 0
0.919188 0.52755 0.0120851
1 0.541253 0.026215
0 0.634073 0.0138857
0 0.544656 0
0 0.564141 0
0.122438 0.573663 0
0.282612 0.576516 0
0.539925 0.611399 0
0.805005 0.672023 0
0.917311 0.68159 0.00975052
1 0.691783 0.0203708
0 0.799176 0.0513008
0.0641489 0.813657 0.03505
0.197559 0.821317 0.0246281
0.349844 0.816114 0.0141299
0.520394 0.813565 0.00889601
0.679774 0.809445 0.00537118
0.811887 0.809247 0.0061799
0.919295 0.813916 0.0112917
1 0.81915 0.0169833
0 0.939696 0.0987564
0.0909895 0.951095 0.0785077
0.219959 0.95494 0.0616465
0.377066 0.948394 0.0442664
0.537789 0.938384 0.0305486
0.691875 0.928008 0.0203555
0.821515 0.922408 0.0161288
0.925414 0.922316 0.0169833
1 0.923629 0.0187381
0.00238041 1 0.139055
0.10901 1 0.113283
0.232807 1 0.0898299
0.385367 1 0.065156
0.542733 1 0.0444648
0.694728 1 0.0285344
0.823407 1 0.0203098
0.927077 1 0.0188602
1 1 0.0193027
0.063035 0 0.100084
0.0933089 0 0.0937514
0.202792 0 0.0895857
0.34139 0 0.0773632
0.487251 0 0.0643473
0.631312 0 0.0524758
0.756344 0 0.0471809
0.860838 0 0.0494087
0.959731 0 0.0554055
0.0574044 0.0663157 0.188479
0.0936751 0.0936751 0.0936751
0.199069 0.0933547 0.0819104
0.339879 0.0841535 0.071519
0.49662 0.0712749 0.07393
0.64596 0.0640421 0.0675822
0.77705 0.0641337 0.0685588
0.886305 0.0730907 0.0730907
0.993317 0.0839094 0.0901045
0.00399786 0.181582 0.214984
0.0641337 0.204608 0.147082
0.157641 0.216846 0.0868849
0.347875 0.209247 0.042771
0.546014 0.192599 0.0487831
0.665751 0.198322 0.0860304
0.802029 0.203815 0.0919661
0.916838 0.21593 0.104524
1 0.230198 0.119234
0 0.328557 0.14284
0.0410925 0.342123 0.14583
0.14435 0.366384 0.123232
0.298451 0.371176 0.0855421
0.396597 0.301778 0.015259
0.67187 0.355077 0.0917067
0.808408 0.36083 0.0979019
0.922835 0.372564 0.110079
1 0.386709 0.124651
0 0.486778 0.137865
0 0.388113 0
0.0278172 0.429908 0.0126497
0.174304 0.445228 0.0178988
0.292821 0.420111 0
0.465888 0.418265 0
0.77409 0.499504 0.0759899
0.923552 0.532357 0.110338
1 0.545846 0.124269
0 0.641871 0.143633
0 0.550759 0
0 0.576425 0
0.132219 0.586297 0
0.294591 0.58912 0
0.502541 0.601663 0.00903334
0.720729 0.629602 0.0424201
0.916396 0.681651 0.102663
1 0.694987 0.117037
0 0.799542 0.179339
0.0546883 0.807706 0.141054
0.0102541 0.745052 0.0187839
0.174594 0.763134 0.0264134
0.406195 0.78323 0.0532998
0.639078 0.798993 0.0810254
0.811704 0.810834 0.10074
0.920867 0.815946 0.106767
1 0.820706 0.111986
0 0.93933 0.22504
0.0933394 0.952529 0.19585
0.219303 0.957458 0.170031
0.375753 0.951141 0.145632
0.533303 0.940002 0.125948
0.691905 0.929641 0.115511
0.821836 0.92343 0.110536
0.925597 0.922957 0.11107
1 0.923995 0.112566
0.00807202 1 0.263081
0.109926 1 0.229511
0.230808 1 0.198138
0.382376 1 0.166873
0.540108 1 0.141649
0.692988 1 0.123278
0.822446 1 0.114046
0.926543 1 0.112352
1 1 0.112779
0.108721 0 0.21796
0.114794 0 0.196735
0.200931 0 0.201816
0.339727 0 0.189975
0.48571 0 0.176883
0.630121 0 0.165347
0.755627 0 0.160525
0.860716 0 0.163348
0.96025 0 0.169986
0.12842 0.0441596 0.293873
0.155856 0.0730907 0.213062
0.203708 0.0900893 0.20415
0.345815 0.081117 0.19559
0.496208 0.0721294 0.186709
0.646143 0.0655375 0.180941
0.777752 0.0663615 0.182208
0.889204 0.0751049 0.191394
0.994858 0.0874342 0.20415
0.0782483 0.158114 0.343389
0.147387 0.176013 0.298192
0.20296 0.20296 0.20296
0.33991 0.197848 0.187427
0.506218 0.20502 0.192401
0.668833 0.201205 0.203861
0.805524 0.206882 0.210437
0.920592 0.219028 0.223453
1 0.234104 0.234104
0.00579843 0.314748 0.301244
0.0952926 0.330068 0.326452
0.164797 0.34049 0.247745
0.287648 0.346853 0.181765
0.524071 0.362768 0.139376
0.706279 0.353918 0.160922
0.8112 0.364065 0.214755
0.925811 0.375967 0.227115
1 0.390188 0.241764
0 0.478157 0.297612
0.0712902 0.501488 0.270298
0.164263 0.513741 0.269551
0.299962 0.530434 0.241825
0.46099 0.53373 0.202564
0.564431 0.467567 0.098497
0.811826 0.523781 0.214939
0.926406 0.535653 0.227253
1 0.548898 0.24094
0 0.639963 0.30695
0.0639506 0.662409 0.271199
0.00103761 0.583185 0.0757763
0.163745 0.61033 0.0972457
0.337453 0.620157 0.101747
0.529824 0.617823 0.101381
0.746654 0.645747 0.153262
0.910918 0.677577 0.205493
1 0.696559 0.232242
0 0.794339 0.335439
0.0712139 0.811551 0.294133
0.0161135 0.751171 0.107149
0.200641 0.777401 0.126009
0.436576 0.796262 0.163912
0.660136 0.807431 0.20032
0.81442 0.812665 0.216663
0.920851 0.816358 0.220813
1 0.820661 0.225559
0.00144961 0.934005 0.378347
0.0995956 0.949767 0.340917
0.202396 0.952056 0.289876
0.346609 0.9467 0.251225
0.534096 0.941405 0.24506
0.689937 0.929747 0.229572
0.820508 0.922896 0.22356
0.924239 0.922026 0.223774
1 0.92285 0.225025
0.0189364 1 0.413275
0.113939 1 0.372213
0.229435 1 0.33193
0.378149 1 0.291859
0.535424 1 0.259831
0.689219 1 0.237476
0.819745 1 0.226627
0.924483 1 0.224537
1 1 0.224979
0.121355 0 0.367864
0.150683 0 0.341375
0.206149 0 0.342657
0.335348 0 0.33669
0.481605 0 0.323857
0.626398 0 0.312703
0.752438 0 0.308415
0.858137 0 0.311849
0.958297 0 0.319112
0.131807 0.040589 0.415351
0.199252 0.0549172 0.365682
0.223529 0.0810101 0.342489
0.34284 0.078584 0.343725
0.49395 0.070161 0.335744
0.644434 0.064271 0.330312
0.776715 0.0657664 0.33225
0.888762 0.0751049 0.342031
0.994858 0.0878614 0.35523
0.105058 0.150439 0.457969
0.218936 0.154864 0.441596
0.26569 0.18294 0.35938
0.342 0.192874 0.342443
0.512383 0.202228 0.353704
0.668421 0.202045 0.353643
0.80528 0.207965 0.360372
0.920272 0.220233 0.373083
1 0.234333 0.387625
0.0542916 0.298421 0.46743
0.169711 0.306767 0.492042
0.259022 0.324514 0.446693
0.347234 0.347234 0.347234
0.476097 0.324331 0.313909
0.668544 0.362066 0.349432
0.81181 0.364462 0.367132
0.926696 0.37644 0.37998
1 0.390616 0.395041
0.0256504 0.461769 0.486229
0.111513 0.486091 0.464149
0.218662 0.498894 0.486839
0.304524 0.490669 0.387457
0.418189 0.477409 0.300938
0.676081 0.525231 0.288869
0.836011 0.522438 0.316472
0.926513 0.536202 0.378439
1 0.549172 0.391852
0.00447089 0.625483 0.500511
0.0905013 0.651133 0.465309
0.197665 0.670176 0.433692
0.318654 0.675471 0.424369
0.462074 0.689387 0.395499
0.619242 0.691981 0.355474
0.766537 0.659464 0.289815
0.921035 0.686656 0.372534
1 0.695308 0.381613
0.0065919 0.781674 0.530098
0.095613 0.805234 0.4925
0.206332 0.8215 0.450599
0.226307 0.785962 0.297948
0.451484 0.805814 0.338628
0.656443 0.814588 0.364416
0.810819 0.811093 0.36527
0.917983 0.813947 0.369039
1 0.817777 0.373312
0.0249332 0.921782 0.571237
0.113466 0.940108 0.529549
0.216571 0.948669 0.477852
0.35903 0.946365 0.428946
0.527733 0.93904 0.400687
0.684474 0.927123 0.378744
0.81622 0.919615 0.370855
0.920119 0.918349 0.370733
1 0.918959 0.371786
0.0367742 1 0.603372
0.12343 1 0.557534
0.230777 1 0.509117
0.373358 1 0.458778
0.527947 1 0.416831
0.682033 1 0.387717
0.813931 1 0.373861
0.919661 1 0.371084
1 1 0.371542
0.15819 0 0.527413
0.187671 0 0.497246
0.229725 0 0.48957
0.336568 0 0.486839
0.477012 0 0.478782
0.622217 0 0.468071
0.748852 0 0.464347
0.855161 0 0.468391
0.955978 0 0.476326
0.160037 0.0265507 0.568566
0.211872 0.0454871 0.524025
0.259983 0.0656596 0.496132
0.349203 0.0733349 0.494163
0.491203 0.0678569 0.492531
0.642344 0.062623 0.487739
0.77528 0.0647898 0.490349
0.887877 0.0746624 0.500664
0.994339 0.0878004 0.514244
0.139712 0.137041 0.608942
0.224109 0.153063 0.573281
0.31519 0.170855 0.527092
0.377142 0.19762 0.50454
0.51165 0.201938 0.512551
0.668101 0.202014 0.513069
0.805035 0.208164 0.519646
0.920012 0.220417 0.532357
1 0.234363 0.546746
0.106416 0.280751 0.638834
0.198657 0.301244 0.617212
0.335882 0.308827 0.603998
0.417258 0.334493 0.519921
0.489067 0.329961 0.489509
0.674464 0.35903 0.518959
0.810925 0.364843 0.524895
0.925887 0.376944 0.537789
1 0.391211 0.552499
0.0784619 0.443824 0.669169
0.16025 0.470008 0.639017
0.292699 0.475227 0.660502
0.410971 0.485542 0.607675
0.507164 0.507164 0.507164
0.620951 0.467872 0.456413
0.805966 0.527199 0.516487
0.92549 0.536294 0.536294
1 0.549035 0.549035
0.0532235 0.607721 0.692988
0.135531 0.634134 0.661738
0.237293 0.654169 0.635386
0.373739 0.659251 0.650355
0.468254 0.651347 0.542321
0.582574 0.6336 0.45713
0.801068 0.686595 0.454093
0.932662 0.685756 0.48365
1 0.693248 0.538659
0.0491493 0.764828 0.728435
0.131746 0.789639 0.693416
0.231342 0.808682 0.651606
0.364004 0.816205 0.608469
0.486686 0.815946 0.59263
0.635248 0.820401 0.549874
0.760571 0.822736 0.51812
0.909178 0.814817 0.499931
1 0.81413 0.528756
0.0601511 0.905074 0.771328
0.141009 0.924926 0.730175
0.239796 0.938079 0.682155
0.373037 0.939834 0.625742
0.522271 0.934447 0.57351
0.668803 0.925414 0.547265
0.795514 0.919768 0.531182
0.914076 0.914351 0.525353
1 0.914412 0.526314
0.0650645 1 0.80293
0.143999 1 0.755932
0.241871 1 0.703426
0.374578 1 0.644404
0.521859 1 0.590188
0.67364 1 0.549752
0.806821 1 0.529824
0.914061 1 0.525521
1 1 0.525963
0.195773 0 0.684047
0.227207 0 0.651286
0.264744 0 0.636118
0.351934 0 0.63061
0.477211 0 0.627237
0.618448 0 0.620676
0.745678 0 0.617563
0.852628 0 0.622232
0.954086 0 0.630808
0.200137 0.00883497 0.724788
0.249729 0.0288701 0.681437
0.298573 0.0498665 0.650446
0.374929 0.0630808 0.64007
0.495033 0.0646372 0.64213
0.640696 0.0614176 0.642466
0.774289 0.0642252 0.645716
0.887358 0.0745861 0.656535
0.994156 0.0880446 0.670436
0.185611 0.11986 0.767285
0.255085 0.141772 0.726101
0.330877 0.164492 0.685328
0.41677 0.185428 0.658213
0.521019 0.19968 0.662806
0.667994 0.202335 0.669322
0.80502 0.208591 0.67602
0.919951 0.220798 0.68867
1 0.234531 0.702831
0.156954 0.264591 0.802045
0.23621 0.29073 0.767926
0.343511 0.309483 0.734997
0.469123 0.324788 0.686305
0.541009 0.353033 0.665248
0.67422 0.359197 0.675105
0.810941 0.365148 0.681483
0.925872 0.377371 0.694148
1 0.391623 0.708843
0.131823 0.426947 0.839368
0.213184 0.453147 0.808087
0.322072 0.470115 0.782925
0.488716 0.4701 0.762127
0.576806 0.494041 0.676738
0.64889 0.490242 0.649332
0.811521 0.524819 0.68159
0.925383 0.53611 0.693004
1 0.548379 0.706065
0.106584 0.590005 0.871687
0.188571 0.616403 0.841749
0.286275 0.638346 0.807355
0.447959 0.635782 0.821042
0.566659 0.64622 0.757534
0.664317 0.664317 0.664317
0.762737 0.630961 0.619516
0.910689 0.68661 0.673991
1 0.691508 0.691508
0.0996109 0.746715 0.914794
0.180087 0.771466 0.882353
0.275517 0.790829 0.844022
0.402319 0.798886 0.805692
0.539025 0.798047 0.805524
0.634714 0.788342 0.687694
0.741253 0.76965 0.62063
0.900496 0.816251 0.622705
1 0.81416 0.64239
0.104982 0.886198 0.962371
0.181796 0.906294 0.923552
0.273945 0.920501 0.877928
0.395956 0.92491 0.8215
0.528435 0.923827 0.769757
0.658503 0.919783 0.737057
0.788357 0.915953 0.68954
0.895293 0.914458 0.67602
0.995651 0.914672 0.657191
0.103426 1 0.996155
0.177172 1 0.950835
0.267536 1 0.899001
0.38967 1 0.837308
0.524498 1 0.77406
0.667124 1 0.718379
0.791669 1 0.693248
0.904646 1 0.678431
1 1 0.67747
0.235203 0 0.816922
0.267887 0 0.782635
0.305669 0 0.761807
0.380835 0 0.751354
0.489738 0 0.748272
0.620203 0 0.746624
0.744579 0 0.74725
0.852171 0 0.752544
0.954284 0 0.761776
0.24152 0 0.857588
0.29015 0.0140841 0.815305
0.341543 0.0353399 0.78233
0.413901 0.0513161 0.764981
0.514748 0.0597238 0.764675
0.645579 0.0613565 0.770016
0.775326 0.0657054 0.777539
0.888823 0.0764935 0.788769
0.99588 0.0902266 0.80293
0.232685 0.105028 0.901808
0.299687 0.128542 0.861219
0.373495 0.152636 0.821912
0.460121 0.174395 0.791699
0.551263 0.193942 0.78764
0.675898 0.203204 0.797421
0.806867 0.21088 0.808637
0.921675 0.222965 0.821164
1 0.236561 0.835203
0.20798 0.251072 0.939696
0.286488 0.277913 0.905074
0.378378 0.302083 0.866102
0.488029 0.32163 0.822171
0.583078 0.343297 0.795773
0.685603 0.358984 0.801816
0.812741 0.367391 0.814069
0.927718 0.379644 0.82678
1 0.393851 0.841428
0.185489 0.412848 0.980743
0.265919 0.439185 0.947906
0.361608 0.461585 0.910033
0.498222 0.472648 0.869413
0.630518 0.486168 0.818952
0.699931 0.515114 0.798581
0.813092 0.526818 0.813977
0.926757 0.537789 0.825376
1 0.549737 0.837766
0.161944 0.574914 1
0.243778 0.601389 0.98822
0.341115 0.623377 0.952728
0.478996 0.632319 0.919554
0.650874 0.629099 0.895537
0.734142 0.651392 0.80885
0.786648 0.651286 0.787091
0.916869 0.683833 0.815015
1 0.69102 0.822324
0.154543 0.730434 1
0.234501 0.754803 1
0.329152 0.773693 0.999054
0.451469 0.78323 0.952255
0.614221 0.773297 0.958556
0.714 0.783825 0.873365
0.796735 0.796735 0.796735
0.877867 0.769863 0.759441
0.999039 0.811383 0.800687
0.156695 0.868254 1
0.232029 0.887938 1
0.321874 0.9019 1
0.439643 0.906584 0.987854
0.566323 0.906081 0.940963
0.689372 0.904433 0.900374
0.775143 0.896162 0.805692
0.873533 0.881178 0.762173
1 0.910628 0.776547
0.150408 0.987289 1
0.221637 1 1
0.308125 1 1
0.42385 1 1
0.547753 1 0.944564
0.673976 1 0.889708
0.791379 1 0.833555
0.90248 1 0.806806
1 1 0.805341
0.276661 0 0.923735
0.310384 0 0.888457
0.349767 0 0.863584
0.419074 0 0.848081
0.514488 0 0.842802
0.632273 0 0.843
0.748562 0 0.848386
0.853941 0 0.857053
0.956725 0 0.866941
0.284657 0 0.964599
0.332799 0.00149538 0.923308
0.386007 0.0231632 0.889387
0.459098 0.0403296 0.866865
0.548302 0.0535592 0.862013
0.663035 0.060853 0.867903
0.78201 0.0686503 0.880354
0.892409 0.0805371 0.895079
0.999695 0.0944839 0.909453
0.28069 0.0928664 1
0.345846 0.117739 0.970718
0.418891 0.142809 0.932677
0.507958 0.164752 0.900374
0.594797 0.18674 0.889036
0.699702 0.20238 0.895979
0.815152 0.214206 0.911513
0.925353 0.2271 0.927565
1 0.240681 0.941604
0.260243 0.240055 1
0.337987 0.267506 1
0.426825 0.292699 0.977005
0.533761 0.312901 0.933806
0.628809 0.334646 0.903578
0.718013 0.355413 0.90074
0.822705 0.370306 0.916152
0.931579 0.383948 0.933349
1 0.398077 0.947906
0.239734 0.401373 1
0.319203 0.427939 1
0.414008 0.450889 1
0.535134 0.467277 0.974487
0.651438 0.485054 0.928756
0.744076 0.507454 0.90312
0.826337 0.528466 0.914473
0.929961 0.541421 0.931289
1 0.552972 0.943282
0.218189 0.562661 1
0.299489 0.589319 1
0.395956 0.611505 1
0.520211 0.625483 1
0.661616 0.632883 0.975982
0.78822 0.64387 0.922988
0.83299 0.673762 0.903563
0.918471 0.685878 0.919371
1 0.692515 0.926452
0.211444 0.716731 1
0.290944 0.740795 1
0.384985 0.759304 1
0.506539 0.768505 1
0.645197 0.769787 1
0.79292 0.766247 0.988983
0.86215 0.783383 0.911925
0.895079 0.785794 0.895537
1 0.808865 0.911986
0.212085 0.852384 1
0.286839 0.871534 1
0.376043 0.884978 1
0.492988 0.889158 1
0.615274 0.890227 1
0.750774 0.883238 1
0.833616 0.891264 0.958892
0.901839 0.901839 0.901839
0.989532 0.881895 0.879255
0.202945 0.969573 1
0.273198 0.984192 1
0.358404 0.993591 1
0.472099 0.994369 1
0.592065 0.992813 1
0.712856 0.989593 1
0.809903 0.994598 0.970977
0.886275 0.995911 0.903853
0.999969 0.999527 0.905653
0.318791 0 1
0.353368 0 0.985931
0.394568 0 0.958175
0.462028 0 0.938186
0.548058 0 0.929717
0.653696 0 0.929625
0.760006 0 0.937514
0.859037 0 0.950668
0.960082 0 0.963623
0.328374 0 1
0.376318 0 1
0.431113 0.0118868 0.988449
0.506264 0.0296941 0.962325
0.58996 0.0459602 0.952773
0.691417 0.0583047 0.956695
0.797604 0.0704051 0.970886
0.899626 0.0847639 0.990066
1 0.099443 1
0.328664 0.0818647 1
0.392493 0.107958 1
0.465156 0.133852 1
0.555856 0.156008 1
0.643061 0.17882 0.984619
0.735775 0.198734 0.98645
0.834394 0.215503 1
0.933089 0.231098 1
1 0.245533 1
0.312734 0.230015 1
0.388876 0.258228 1
0.475257 0.284169 1
0.580682 0.304616 1
0.677562 0.325917 1
0.762325 0.348989 0.993545
0.847196 0.370169 1
0.940536 0.387976 1
1 0.40293 1
0.293599 0.39089 1
0.372335 0.417777 1
0.466224 0.441215 1
0.584268 0.458579 1
0.697856 0.476997 1
0.790555 0.49955 1
0.859098 0.525231 1
0.939834 0.544259 1
1 0.556741 1
0.273884 0.551675 1
0.354452 0.578546 1
0.449866 0.6009 1
0.572808 0.614984 1
0.698268 0.627253 1
0.808423 0.642039 1
0.876036 0.664988 0.99762
0.930327 0.686107 1
1 0.694591 1
0.267979 0.70428 1
0.346761 0.728115 1
0.439811 0.746365 1
0.560143 0.755413 1
0.684947 0.761471 1
0.817212 0.76289 1
0.916838 0.772488 1
0.932815 0.801663 0.994018
1 0.809537 1
0.267979 0.837568 1
0.342184 0.856291 1
0.430838 0.869322 1
0.547189 0.873152 1
0.668849 0.873991 1
0.798993 0.869917 1
0.894652 0.876204 1
0.950607 0.890639 1
0.994858 0.893156 0.9953
0.257313 0.952636 1
0.327153 0.966888 1
0.412009 0.975967 1
0.525322 0.976516 1
0.644816 0.974792 1
0.761578 0.97348 1
0.859785 0.976822 1
0.930373 0.986877 1
1 1 1
