assets/core/filters/luts/02_Fujifilm LUTs_Purple Skyline.cube
TITLE "Generated by Resolve"
LUT_3D_SIZE 5
0 0 0
0.19678 0 0
0.486854 0 0
0.75494 0 0
0.956847 0 0
0 0.195117 0.0595407
0.147799 0.220493 0
0.506905 0.195407 0
0.797711 0.199054 0
1 0.225269 0.0208438
0 0.343893 0
0 0.399374 0
0.282795 0.408042 0
0.797711 0.51133 0
1 0.541253 0.026215
0 0.799176 0.0513008
0.197559 0.821317 0.0246281
0.520394 0.813565 0.00889601
0.811887 0.809247 0.0061799
1 0.81915 0.0169833
0.00238041 1 0.139055
0.232807 1 0.0898299
0.542733 1 0.0444648
0.823407 1 0.0203098
1 1 0.0193027
0.108721 0 0.21796
0.200931 0 0.201816
0.48571 0 0.176883
0.755627 0 0.160525
0.96025 0 0.169986
0.0782483 0.158114 0.343389
0.20296 0.20296 0.20296
0.506218 0.20502 0.192401
0.805524 0.206882 0.210437
1 0.234104 0.234104
0 0.478157 0.297612
0.164263 0.513741 0.269551
0.46099 0.53373 0.202564
0.811826 0.523781 0.214939
1 0.548898 0.24094
0 0.794339 0.335439
0.0161135 0.751171 0.107149
0.436576 0.796262 0.163912
0.81442 0.812665 0.216663
1 0.820661 0.225559
0.0189364 1 0.413275
0.229435 1 0.33193
0.535424 1 0.259831
0.819745 1 0.226627
1 1 0.224979
0.15819 0 0.527413
0.229725 0 0.48957
0.477012 0 0.478782
0.748852 0 0.464347
0.955978 0 0.476326
0.139712 0.137041 0.608942
0.31519 0.170855 0.527092
0.51165 0.201938 0.512551
0.805035 0.208164 0.519646
1 0.234363 0.546746
0.0784619 0.443824 0.669169
0.292699 0.475227 0.660502
0.507164 0.507164 0.507164
0.805966 0.527199 0.516487
1 0.549035 0.549035
0.0491493 0.764828 0.728435
0.231342 0.808682 0.651606
0.486686 0.815946 0.59263
0.760571 0.822736 0.51812
1 0.81413 0.528756
0.0650645 1 0.80293
0.241871 1 0.703426
0.521859 1 0.590188
0.806821 1 0.529824
1 1 0.525963
0.235203 0 0.816922
0.305669 0 0.761807
0.489738 0 0.748272
0.744579 0 0.74725
0.954284 0 0.761776
0.232685 0.105028 0.901808
0.373495 0.152636 0.821912
0.551263 0.193942 0.78764
0.806867 0.21088 0.808637
1 0.236561 0.835203
0.185489 0.412848 0.980743
0.361608 0.461585 0.910033
0.630518 0.486168 0.818952
0.813092 0.526818 0.813977
1 0.549737 0.837766
0.154543 0.730434 1
0.329152 0.773693 0.999054
0.614221 0.773297 0.958556
0.796735 0.796735 0.796735
0.999039 0.811383 0.800687
0.150408 0.987289 1
0.308125 1 1
0.547753 1 0.944564
0.791379 1 0.833555
1 1 0.805341
0.318791 0 1
0.394568 0 0.958175
0.548058 0 0.929717
0.760006 0 0.937514
0.960082 0 0.963623
0.328664 0.0818647 1
0.465156 0.133852 1
0.643061 0.17882 0.984619
0.834394 0.215503 1
1 0.245533 1
0.293599 0.39089 1
0.466224 0.441215 1
0.697856 0.476997 1
0.859098 0.525231 1
1 0.556741 1
0.267979 0.70428 1
0.439811 0.746365 1
0.684947 0.761471 1
0.916838 0.772488 1
1 0.809537 1
0.257313 0.952636 1
0.412009 0.975967 1
0.644816 0.974792 1
0.859785 0.976822 1
1 1 1
