assets/core/filters/luts/02_Mavic Pro LUTs_Cool Mist.cube
LUT_3D_SIZE 16
-0.028922 -0.031204 -0.039644
-0.031909 -0.034290 -0.043168
0.020154 0.032486 0.056476
0.054051 0.076805 0.122545
0.083759 0.114783 0.174858
0.119234 0.156967 0.232556
0.154498 0.197633 0.285888
0.192469 0.240500 0.341370
0.232776 0.284965 0.397714
0.273248 0.328682 0.451808
0.317376 0.375904 0.507575
0.357768 0.417417 0.556307
0.401520 0.460131 0.605081
0.450317 0.508985 0.657831
0.486291 0.544329 0.692694
0.543109 0.598100 0.743747
-0.037240 -0.039632 -0.048779
-0.040314 -0.042908 -0.052815
0.022594 0.036740 0.062925
0.057565 0.080995 0.126162
0.087953 0.117568 0.179378
0.121599 0.159623 0.233398
0.155084 0.198356 0.286830
0.192992 0.241090 0.342196
0.233267 0.285522 0.398424
0.273730 0.329189 0.452449
0.317886 0.375467 0.508219
0.357220 0.415859 0.554885
0.401884 0.462507 0.608550
0.449466 0.508104 0.656830
0.486637 0.544676 0.693030
0.543300 0.598268 0.743819
0.049601 0.071786 0.114702
0.049422 0.071568 0.114473
0.058357 0.081219 0.128015
0.080497 0.109214 0.167074
0.105229 0.140008 0.209151
0.134601 0.174602 0.257126
0.168314 0.213392 0.306555
0.204521 0.253920 0.358597
0.243552 0.296720 0.412530
0.283142 0.339183 0.464678
0.326388 0.384594 0.517775
0.364810 0.424839 0.564752
0.408033 0.468559 0.613549
0.455198 0.515607 0.663975
0.492908 0.550688 0.698992
0.549171 0.603704 0.748872
0.100477 0.134754 0.202723
0.100671 0.134987 0.203067
0.105084 0.139946 0.210809
0.110826 0.147440 0.218065
0.137430 0.178232 0.261092
0.166571 0.211612 0.305015
0.193850 0.242114 0.343699
0.227641 0.279422 0.390981
0.264560 0.319432 0.440735
0.302435 0.359617 0.489249
0.343824 0.403096 0.538072
0.382402 0.441101 0.583657
0.424652 0.483671 0.632685
0.472401 0.530991 0.679536
0.506609 0.563775 0.711738
0.561337 0.615019 0.759134
0.154819 0.198281 0.287643
0.154950 0.198442 0.287885
0.158622 0.203425 0.293253
0.166403 0.209780 0.303523
0.169514 0.215986 0.310382
0.202280 0.251342 0.356064
0.229689 0.281711 0.394056
0.261206 0.315911 0.436665
0.295932 0.352865 0.481389
0.331928 0.390421 0.525756
0.369671 0.429282 0.569605
0.408320 0.467756 0.613309
0.450152 0.510290 0.658702
0.493754 0.552176 0.700956
0.528275 0.584268 0.731286
0.580861 0.633128 0.775146
0.214552 0.265358 0.374089
0.214678 0.265460 0.374269
0.218462 0.269456 0.378494
0.223473 0.274691 0.386275
0.231602 0.283686 0.397193
0.240778 0.294365 0.410353
0.272139 0.327697 0.451349
0.303429 0.360852 0.491142
0.336633 0.395391 0.531768
0.370735 0.430322 0.571685
0.405904 0.465604 0.610888
0.444651 0.503467 0.651375
0.482933 0.540457 0.689892
0.525616 0.581956 0.729675
0.558312 0.612295 0.757009
0.607815 0.657795 0.796462
0.280609 0.336978 0.463440
0.280703 0.337083 0.463606
0.282612 0.339012 0.466654
0.289689 0.346267 0.475391
0.293152 0.350896 0.481096
0.305349 0.364215 0.495993
0.315230 0.373345 0.506740
0.351776 0.411068 0.550242
0.385684 0.445542 0.589073
0.418474 0.478385 0.625145
0.453599 0.513549 0.662296
0.489899 0.548340 0.695982
0.525618 0.582546 0.731192
0.568708 0.621909 0.765751
0.596198 0.647270 0.787740
0.641787 0.688614 0.822050
0.354162 0.413794 0.554177
0.354102 0.413680 0.554097
0.357198 0.416840 0.557389
0.359168 0.418758 0.559434
0.369880 0.429040 0.572060
0.380639 0.439895 0.582943
0.390267 0.450380 0.595218
0.401116 0.461261 0.607109
0.440977 0.500695 0.649284
0.474512 0.533327 0.682720
0.506427 0.564543 0.713659
0.542398 0.597123 0.745850
0.579600 0.631378 0.775618
0.614703 0.664877 0.803648
0.641063 0.687939 0.821733
0.681818 0.724424 0.850638
0.435767 0.495846 0.644989
0.435993 0.496060 0.645222
0.437836 0.497870 0.646028
0.444255 0.504162 0.653574
0.448004 0.508667 0.658352
0.457078 0.516346 0.665799
0.470791 0.529985 0.680141
0.485115 0.543726 0.693813
0.498661 0.556573 0.706305
0.537242 0.592948 0.740489
0.573145 0.625372 0.769119
0.604680 0.654612 0.794865
0.633674 0.682561 0.816764
0.670617 0.714492 0.843409
0.691307 0.732911 0.857500
0.726426 0.763932 0.880986
0.522727 0.579566 0.728673
0.523144 0.579908 0.728970
0.522727 0.579566 0.728673
0.526290 0.582927 0.733033
0.533404 0.590842 0.738989
0.543620 0.598105 0.746675
0.555491 0.610069 0.756490
0.569911 0.623380 0.768282
0.586283 0.638462 0.781316
0.602149 0.652951 0.793590
0.637177 0.684899 0.821240
0.668088 0.712506 0.842654
0.695732 0.736333 0.860657
0.726987 0.765118 0.883178
0.744048 0.779719 0.893136
0.773271 0.805421 0.912535
0.613023 0.662924 0.802293
0.613201 0.663121 0.802527
0.613023 0.662924 0.802293
0.618498 0.668173 0.806625
0.623983 0.671950 0.809431
0.632626 0.681552 0.817655
0.642027 0.689107 0.823703
0.655014 0.700780 0.832939
0.670085 0.714217 0.843612
0.686881 0.729154 0.855069
0.705419 0.745508 0.866985
0.735144 0.771420 0.887499
0.756910 0.791030 0.901307
0.787227 0.818107 0.922569
0.796887 0.826260 0.927331
0.820797 0.847221 0.940575
0.701652 0.742262 0.865418
0.701619 0.742260 0.865356
0.703835 0.745206 0.867446
0.703848 0.745204 0.867384
0.712378 0.751985 0.871706
0.715216 0.754328 0.874631
0.726342 0.764169 0.881854
0.736758 0.773419 0.888910
0.749418 0.784577 0.897224
0.764134 0.797402 0.906958
0.779690 0.811750 0.918122
0.796518 0.825550 0.927853
0.819445 0.845558 0.939209
0.842475 0.866176 0.951178
0.849891 0.872706 0.954803
0.868609 0.889222 0.963162
0.782399 0.813535 0.918880
0.782160 0.813334 0.918664
0.785646 0.816461 0.920758
0.785408 0.816291 0.920576
0.788961 0.819746 0.923238
0.795459 0.824310 0.926724
0.802025 0.830768 0.930455
0.810686 0.838356 0.935312
0.821007 0.847431 0.940838
0.832810 0.857686 0.946757
0.845966 0.868531 0.952847
0.860003 0.881813 0.960037
0.876846 0.895361 0.966172
0.892873 0.910429 0.973088
0.900761 0.917148 0.975371
0.915046 0.929252 0.980176
0.853582 0.876010 0.956698
0.853423 0.875875 0.956555
0.853582 0.876010 0.956698
0.855624 0.878839 0.958562
0.859618 0.880983 0.959205
0.864706 0.886207 0.961545
0.869475 0.889967 0.963536
0.876653 0.896251 0.966435
0.885225 0.903844 0.969742
0.894991 0.912108 0.973273
0.906796 0.922172 0.976928
0.917091 0.931752 0.981245
0.929826 0.942160 0.984584
0.946475 0.955749 0.989795
0.946740 0.956156 0.989748
0.955321 0.963357 0.992005
0.906443 0.921951 0.977270
0.906486 0.921971 0.977306
0.906443 0.921951 0.977270
0.907573 0.922925 0.977306
0.910847 0.926235 0.978354
0.914283 0.928286 0.980269
0.919014 0.932566 0.981491
0.924372 0.937230 0.983178
0.930897 0.942740 0.985144
0.938238 0.948963 0.987359
0.945922 0.955827 0.989663
0.956142 0.963798 0.992281
0.962678 0.969661 0.993966
0.975239 0.979072 0.996563
0.984700 0.987649 0.998266
0.987305 0.989879 0.998683
1.046489 1.048001 1.055051
1.046449 1.047977 1.054994
1.047435 1.048906 1.055675
1.048058 1.049471 1.055889
1.052452 1.053616 1.058991
1.053888 1.054864 1.059451
1.057861 1.058553 1.061759
1.062728 1.063077 1.064621
1.068438 1.068359 1.067988
1.075096 1.074595 1.072195
1.082769 1.081825 1.077345
1.090596 1.089260 1.082925
1.101522 1.099754 1.091592
1.113676 1.111604 1.102125
1.125549 1.123442 1.113381
1.143931 1.141779 1.131779
-0.595718 -0.596915 -0.602499
-0.595884 -0.597067 -0.602577
-0.595637 -0.596651 -0.601452
-0.594679 -0.595283 -0.598080
-0.592739 -0.592642 -0.592186
-0.588458 -0.587249 -0.581502
-0.582362 -0.579693 -0.566994
-0.573175 -0.568517 -0.546138
-0.560513 -0.553386 -0.518295
-0.544452 -0.534372 -0.483464
-0.524265 -0.510800 -0.440188
-0.500401 -0.483089 -0.387728
-0.470651 -0.448783 -0.317816
-0.433162 -0.405522 -0.208297
-0.399373 -0.365973 0.158345
-0.329345 -0.281149 0.345272
-0.035415 -0.037625 -0.046112
-0.037611 -0.039949 -0.048936
0.019345 0.031422 0.056476
0.050560 0.072608 0.115266
0.082427 0.112084 0.171296
0.118208 0.155728 0.230769
0.152147 0.194977 0.282479
0.190440 0.238243 0.338571
0.230890 0.282911 0.395158
0.271912 0.327288 0.450102
0.312384 0.369802 0.501878
0.357447 0.416040 0.554688
0.401104 0.460786 0.604776
0.449061 0.508758 0.656623
0.484829 0.542975 0.691320
0.541848 0.596883 0.742583
0.050590 0.073040 0.116464
0.049595 0.071801 0.114804
0.055839 0.080375 0.128560
0.079770 0.109438 0.167396
0.103589 0.138070 0.206558
0.133992 0.173858 0.254872
0.166601 0.211453 0.304068
0.202903 0.252157 0.356350
0.241990 0.295034 0.410384
0.281691 0.337695 0.462831
0.323780 0.381880 0.515716
0.366367 0.425386 0.565038
0.406818 0.466310 0.612355
0.454128 0.514607 0.663003
0.491669 0.549494 0.697739
0.548064 0.602695 0.747889
0.101032 0.135414 0.203617
0.100564 0.134866 0.202882
0.104723 0.140607 0.211694
0.113497 0.150420 0.223611
0.134359 0.175847 0.257082
0.164324 0.209124 0.300924
0.192609 0.240764 0.342015
0.226323 0.277975 0.389196
0.263213 0.318018 0.439008
0.300877 0.357991 0.487308
0.342435 0.402748 0.539500
0.380837 0.440500 0.581740
0.424318 0.484428 0.630456
0.471480 0.530135 0.678618
0.505250 0.562507 0.710491
0.560379 0.614128 0.758199
0.155193 0.198719 0.288223
0.154844 0.198365 0.287768
0.158045 0.202828 0.292689
0.165349 0.209694 0.303402
0.172607 0.219228 0.314803
0.201380 0.251355 0.356933
0.228922 0.280849 0.392950
0.260263 0.314890 0.435361
0.294974 0.351811 0.480230
0.330629 0.389064 0.524181
0.368730 0.428281 0.568451
0.408062 0.467427 0.613899
0.449936 0.508094 0.657563
0.492799 0.552306 0.700107
0.527008 0.583080 0.730075
0.579882 0.632217 0.774295
0.214876 0.265666 0.374547
0.214562 0.265374 0.374149
0.217812 0.268745 0.378949
0.222399 0.273578 0.385143
0.232376 0.285533 0.398059
0.241270 0.294860 0.410878
0.271931 0.327507 0.451119
0.302935 0.360332 0.490579
0.335830 0.394507 0.530871
0.369809 0.429340 0.570606
0.405096 0.465744 0.611006
0.445762 0.504527 0.652350
0.481918 0.539517 0.688070
0.525667 0.582065 0.728757
0.557258 0.611367 0.756184
0.606795 0.656864 0.795582
0.280987 0.337357 0.463961
0.280626 0.337012 0.463464
0.282988 0.339382 0.466107
0.289612 0.346201 0.474199
0.297019 0.353830 0.484234
0.305160 0.364046 0.494764
0.316079 0.374260 0.507723
0.351592 0.410893 0.550017
0.385151 0.445051 0.588536
0.417713 0.477606 0.624289
0.454095 0.513086 0.661794
0.488099 0.546608 0.697133
0.524872 0.580802 0.728514
0.563724 0.618170 0.763057
0.595393 0.646555 0.787097
0.641044 0.687906 0.821481
0.354423 0.414002 0.554439
0.354100 0.413700 0.554175
0.355401 0.415005 0.555520
0.359165 0.419843 0.561565
0.367241 0.427434 0.569379
0.377136 0.438447 0.581493
0.390704 0.450813 0.595691
0.401719 0.461846 0.607785
0.440822 0.500582 0.649138
0.473957 0.532805 0.682205
0.506271 0.564426 0.713559
0.541844 0.598599 0.745318
0.575613 0.628747 0.772154
0.616148 0.665249 0.804358
0.640263 0.687294 0.821239
0.681156 0.723765 0.850277
0.436114 0.496163 0.645313
0.435786 0.495856 0.644958
0.438158 0.498188 0.647392
0.444065 0.503987 0.652262
0.448058 0.508721 0.658366
0.457240 0.517553 0.668037
0.470870 0.530032 0.680200
0.485295 0.543898 0.693956
0.499243 0.557146 0.706819
0.536917 0.592637 0.740075
0.572694 0.625943 0.770703
0.600166 0.651279 0.791527
0.635967 0.683612 0.818134
0.668854 0.713955 0.842061
0.690362 0.732053 0.856805
0.725693 0.763418 0.880668
0.523025 0.579812 0.728868
0.522811 0.579552 0.728732
0.523025 0.579812 0.728868
0.528048 0.584611 0.731682
0.534316 0.590765 0.738984
0.543559 0.598084 0.746652
0.555330 0.610012 0.756487
0.569869 0.623358 0.768267
0.586353 0.638557 0.781406
0.602471 0.653264 0.793906
0.639380 0.686071 0.821318
0.665201 0.709796 0.839862
0.698285 0.738716 0.862266
0.730821 0.766731 0.882924
0.743462 0.779065 0.892777
0.772862 0.805023 0.912233
0.613201 0.663117 0.802509
0.612873 0.662852 0.802206
0.613201 0.663117 0.802509
0.618227 0.666840 0.806296
0.623797 0.671846 0.809172
0.633613 0.681525 0.817636
0.641903 0.688948 0.823460
0.654934 0.700625 0.832990
0.670105 0.714245 0.843568
0.686995 0.729317 0.855144
0.705440 0.745441 0.867001
0.735212 0.770596 0.887577
0.759062 0.793017 0.903256
0.783805 0.814900 0.920540
0.796829 0.826208 0.927299
0.820662 0.847072 0.940442
0.701795 0.742496 0.865497
0.701342 0.742113 0.865265
0.705045 0.744537 0.868566
0.703479 0.744125 0.867231
0.710979 0.750743 0.871502
0.715319 0.754341 0.874737
0.725942 0.763877 0.881719
0.736850 0.773433 0.888968
0.749341 0.784450 0.897111
0.764123 0.797402 0.906924
0.779512 0.811604 0.918014
0.796506 0.825550 0.927833
0.818139 0.844357 0.939095
0.839102 0.863951 0.950444
0.849622 0.872539 0.954791
0.868504 0.889006 0.963064
0.782413 0.813559 0.918957
0.781839 0.812994 0.918399
0.785660 0.816485 0.919877
0.785113 0.816042 0.920283
0.788842 0.819493 0.923155
0.796513 0.826154 0.928361
0.801810 0.830565 0.930312
0.810584 0.838262 0.935260
0.820918 0.847345 0.940828
0.832777 0.857700 0.946737
0.844797 0.868498 0.952770
0.859968 0.881828 0.960019
0.875638 0.895263 0.966671
0.895807 0.912982 0.973496
0.900632 0.916999 0.975309
0.914785 0.928936 0.980102
0.853638 0.876014 0.956747
0.853388 0.875784 0.956547
0.854700 0.877057 0.957441
0.855537 0.878817 0.957898
0.858475 0.880920 0.959208
0.862410 0.884103 0.960199
0.869411 0.889903 0.963539
0.876603 0.896104 0.966363
0.885127 0.903676 0.969679
0.894872 0.912029 0.973298
0.906665 0.922077 0.976874
0.917962 0.932565 0.981187
0.929842 0.942174 0.984599
0.947381 0.955728 0.989786
0.946753 0.956169 0.989756
0.955298 0.963338 0.991998
0.906552 0.922028 0.977276
0.906268 0.921787 0.977296
0.905519 0.921071 0.976877
0.907386 0.921787 0.977672
0.912730 0.928017 0.979228
0.914245 0.928254 0.980256
0.918853 0.932545 0.981444
0.924335 0.937199 0.983166
0.930845 0.942683 0.985216
0.938115 0.948855 0.987320
0.945872 0.955774 0.989633
0.956114 0.963699 0.992251
0.962893 0.969813 0.993802
0.972402 0.977246 0.995937
0.984838 0.987842 0.998300
0.987409 0.989958 0.998684
1.046573 1.048079 1.055093
1.046396 1.047917 1.054898
1.047721 1.049149 1.055862
1.048134 1.049536 1.055903
1.050311 1.051557 1.057192
1.053792 1.054792 1.059358
1.057648 1.058337 1.061553
1.062538 1.062850 1.064403
1.068351 1.068259 1.067898
1.075103 1.074592 1.072150
1.082658 1.081710 1.077206
1.090650 1.089311 1.082963
1.101735 1.099923 1.091755
1.113955 1.111981 1.102429
1.125678 1.123513 1.113438
1.143893 1.141740 1.131734
-0.595510 -0.596636 -0.601987
-0.595560 -0.596680 -0.601872
-0.595379 -0.596341 -0.600877
-0.594153 -0.594719 -0.597281
-0.591983 -0.591816 -0.591151
-0.587996 -0.586760 -0.580876
-0.581776 -0.579047 -0.565990
-0.572593 -0.567833 -0.545086
-0.559880 -0.552673 -0.517171
-0.543887 -0.533722 -0.482371
-0.523166 -0.509551 -0.438116
-0.500651 -0.483356 -0.388226
-0.471561 -0.449786 -0.319854
-0.434534 -0.407074 -0.212811
-0.398060 -0.364433 0.166166
-0.327993 -0.279440 0.347187
0.017112 0.027957 0.049338
-0.028443 -0.029758 -0.035015
0.028555 0.044953 0.075055
0.057565 0.080995 0.127367
0.088363 0.120167 0.182577
0.121006 0.160066 0.235295
0.156463 0.199870 0.288786
0.194324 0.242551 0.344027
0.234456 0.286782 0.399984
0.275259 0.330830 0.454417
0.317072 0.373658 0.506571
0.359805 0.419574 0.559992
0.403881 0.463488 0.608499
0.451339 0.509904 0.658716
0.487633 0.545639 0.693965
0.544170 0.599063 0.744581
0.053273 0.076432 0.121172
0.053139 0.076289 0.121041
0.061193 0.086904 0.134430
0.076227 0.104517 0.161667
0.095585 0.129593 0.195076
0.126133 0.165819 0.243052
0.158290 0.202026 0.291847
0.194792 0.243130 0.344919
0.234053 0.286401 0.399660
0.274333 0.329855 0.453384
0.313640 0.372287 0.504114
0.356835 0.416523 0.554703
0.402391 0.462076 0.606093
0.446185 0.505936 0.654670
0.485091 0.543231 0.691615
0.542065 0.597099 0.742781
0.102834 0.137562 0.206514
0.102636 0.137335 0.206251
0.104681 0.140673 0.209994
0.117461 0.153917 0.230379
0.134414 0.175687 0.257166
0.160109 0.204380 0.295959
0.188809 0.236500 0.336545
0.222006 0.273250 0.383269
0.258570 0.312991 0.432911
0.296602 0.353508 0.481986
0.335681 0.394673 0.531429
0.376498 0.436041 0.578618
0.421021 0.480245 0.627408
0.466425 0.525357 0.674339
0.500843 0.558323 0.706471
0.556292 0.610407 0.754903
0.156518 0.200235 0.290159
0.156266 0.199933 0.289825
0.160332 0.204363 0.295752
0.166767 0.212302 0.307695
0.178308 0.225265 0.322063
0.202341 0.252253 0.356281
0.226890 0.278657 0.390261
0.257296 0.311684 0.431508
0.291305 0.348003 0.475638
0.326731 0.385084 0.519577
0.363963 0.424431 0.564962
0.403059 0.462416 0.607221
0.443702 0.502118 0.650723
0.489073 0.546742 0.694991
0.522761 0.579121 0.726372
0.576097 0.628713 0.771308
0.215908 0.266806 0.375926
0.215748 0.266646 0.375727
0.218825 0.269895 0.380331
0.223563 0.274863 0.385567
0.233296 0.286490 0.399065
0.246633 0.300391 0.416481
0.271868 0.327412 0.451080
0.301373 0.358620 0.488674
0.333462 0.392104 0.528025
0.366723 0.426281 0.567126
0.401702 0.461266 0.606107
0.440622 0.499449 0.645769
0.477699 0.536571 0.685510
0.522220 0.578892 0.726160
0.553011 0.607412 0.752643
0.603313 0.653722 0.792982
0.281821 0.338275 0.465011
0.281663 0.338119 0.464821
0.282795 0.339298 0.465011
0.288651 0.345276 0.472344
0.297124 0.355119 0.484904
0.308351 0.367252 0.499219
0.319231 0.377562 0.511592
0.351766 0.411099 0.550273
0.383817 0.443686 0.587015
0.415599 0.475560 0.622095
0.451698 0.511743 0.659206
0.484948 0.542529 0.691884
0.523070 0.580275 0.727557
0.564751 0.617343 0.761820
0.591478 0.642944 0.784108
0.637800 0.685029 0.819179
0.355150 0.414738 0.555344
0.354992 0.414667 0.555218
0.356134 0.415802 0.557444
0.361117 0.420768 0.562618
0.367266 0.427544 0.568497
0.380871 0.440183 0.583423
0.391751 0.451928 0.596898
0.404420 0.464559 0.610726
0.440963 0.500686 0.649267
0.473078 0.531965 0.681396
0.504317 0.562532 0.711622
0.539891 0.595742 0.742457
0.572453 0.625814 0.769683
0.613386 0.662859 0.800313
0.637074 0.684392 0.818840
0.678318 0.721355 0.848314
0.436875 0.496903 0.646068
0.436699 0.496735 0.645940
0.436875 0.496903 0.646068
0.441848 0.501806 0.652135
0.449567 0.509165 0.659861
0.458363 0.518601 0.669042
0.471350 0.530472 0.680716
0.486430 0.544973 0.694999
0.501459 0.559302 0.708915
0.537279 0.592985 0.740435
0.568615 0.623046 0.766684
0.600517 0.650640 0.792902
0.632459 0.680545 0.817507
0.666590 0.712136 0.841561
0.687938 0.729964 0.855165
0.723376 0.761422 0.879190
0.523631 0.580398 0.729420
0.523481 0.580287 0.729330
0.523631 0.580398 0.729420
0.528767 0.585348 0.734545
0.534672 0.591058 0.738104
0.543011 0.598547 0.746132
0.555662 0.610289 0.756733
0.570394 0.623873 0.768694
0.587305 0.639384 0.782071
0.604193 0.654762 0.795175
0.639281 0.687889 0.820983
0.664820 0.709292 0.840086
0.695645 0.736446 0.861155
0.723469 0.763030 0.880613
0.741787 0.777760 0.891601
0.770944 0.803364 0.911020
0.613934 0.663720 0.802995
0.613795 0.663632 0.802922
0.614960 0.664704 0.804071
0.620146 0.669650 0.808092
0.622737 0.670807 0.809183
0.629477 0.678581 0.815600
0.641897 0.688979 0.823452
0.655060 0.700805 0.832978
0.670543 0.714587 0.843839
0.687384 0.729668 0.855584
0.707984 0.747811 0.869255
0.732453 0.768956 0.885048
0.758891 0.792942 0.903426
0.783329 0.814468 0.918575
0.795586 0.825184 0.926492
0.819052 0.845670 0.939584
0.702378 0.742840 0.865857
0.702470 0.743049 0.866026
0.701309 0.741904 0.864815
0.705720 0.746062 0.867991
0.710690 0.750501 0.871487
0.718352 0.757165 0.876609
0.725791 0.763564 0.881585
0.736678 0.773277 0.888796
0.749415 0.784584 0.897267
0.764141 0.797415 0.906915
0.779704 0.811758 0.918163
0.796525 0.825563 0.927825
0.819343 0.845526 0.939372
0.841263 0.864973 0.949828
0.848661 0.871693 0.954286
0.867365 0.888143 0.962590
0.783157 0.814145 0.919166
0.783155 0.814169 0.919204
0.782011 0.813116 0.918241
0.784190 0.815117 0.920133
0.786453 0.817307 0.921218
0.794194 0.824062 0.926551
0.801620 0.830378 0.930188
0.810490 0.838149 0.935224
0.820725 0.847119 0.940616
0.833012 0.857985 0.946956
0.844612 0.868256 0.952665
0.861269 0.883119 0.958857
0.877318 0.896815 0.967031
0.894152 0.911588 0.973725
0.900160 0.916583 0.975093
0.914216 0.928465 0.979927
0.854027 0.876369 0.956909
0.853924 0.876275 0.956853
0.854027 0.876369 0.956909
0.856125 0.877295 0.957529
0.858204 0.880549 0.958933
0.862113 0.883843 0.960091
0.869120 0.889655 0.963368
0.876310 0.895889 0.966183
0.884834 0.903402 0.969620
0.894757 0.911969 0.973244
0.906363 0.920868 0.976825
0.917853 0.931635 0.981243
0.928792 0.941155 0.984622
0.946229 0.956150 0.989680
0.946609 0.955924 0.989799
0.955034 0.963028 0.991958
0.906713 0.922149 0.977395
0.906694 0.922199 0.977388
0.906713 0.922149 0.976899
0.907780 0.923956 0.977860
0.910318 0.924916 0.978707
0.914985 0.928831 0.980116
0.918473 0.932237 0.981294
0.923972 0.936870 0.983089
0.930481 0.942335 0.985024
0.937894 0.948516 0.987327
0.946367 0.955484 0.989528
0.953329 0.961917 0.991832
0.963634 0.969754 0.993790
0.975209 0.979546 0.996332
0.984797 0.987796 0.998294
0.987279 0.989773 0.998665
1.046776 1.048256 1.055152
1.046753 1.048224 1.055079
1.046136 1.047641 1.054463
1.048697 1.050026 1.056254
1.049904 1.051098 1.056732
1.053412 1.054403 1.058895
1.057147 1.057867 1.061013
1.062043 1.062380 1.063871
1.067947 1.067853 1.067445
1.074628 1.074111 1.071661
1.084049 1.083020 1.078329
1.090223 1.088836 1.082398
1.101721 1.099895 1.091661
1.113450 1.111418 1.101900
1.125570 1.123403 1.113365
1.143961 1.141904 1.131848
-0.594976 -0.595997 -0.600705
-0.594809 -0.595817 -0.600377
-0.594206 -0.595007 -0.598702
-0.593487 -0.593938 -0.596116
-0.591065 -0.590808 -0.589528
-0.586693 -0.585266 -0.578652
-0.580621 -0.577753 -0.564076
-0.571311 -0.566433 -0.542937
-0.558528 -0.551173 -0.514873
-0.542690 -0.532380 -0.480209
-0.521432 -0.507561 -0.434661
-0.498655 -0.481099 -0.384240
-0.468688 -0.446571 -0.313402
-0.431074 -0.403130 -0.201009
-0.396187 -0.362284 0.176427
-0.325580 -0.276363 0.350580
0.036646 0.054443 0.088162
0.021567 0.034326 0.059332
0.045217 0.066026 0.104228
0.064402 0.090130 0.138429
0.092245 0.124778 0.187393
0.124514 0.163049 0.240315
0.159581 0.203417 0.293416
0.196992 0.245520 0.347790
0.236877 0.289421 0.403268
0.277148 0.332819 0.456841
0.319554 0.378347 0.509768
0.359735 0.419509 0.560168
0.405271 0.464835 0.608814
0.452679 0.511223 0.657813
0.489071 0.547011 0.695321
0.545492 0.600379 0.745804
0.070466 0.097897 0.150999
0.067975 0.094835 0.146800
0.059805 0.084313 0.133096
0.083260 0.112568 0.171624
0.104897 0.139437 0.208710
0.133422 0.174152 0.253524
0.165097 0.209713 0.301668
0.201358 0.250381 0.353966
0.240329 0.293162 0.407945
0.280037 0.335923 0.460649
0.322074 0.380042 0.513332
0.363700 0.422574 0.563938
0.407269 0.466774 0.611824
0.454639 0.513143 0.662757
0.490043 0.547942 0.696239
0.546428 0.601242 0.746565
0.105160 0.140293 0.210124
0.105558 0.140793 0.210812
0.111631 0.148601 0.220476
0.116683 0.154279 0.229184
0.132084 0.171582 0.251447
0.152861 0.197002 0.284372
0.178706 0.225210 0.322119
0.210647 0.260774 0.367537
0.246676 0.300212 0.417099
0.284180 0.340379 0.466203
0.326557 0.383978 0.518034
0.362852 0.422935 0.563100
0.408321 0.467873 0.613087
0.451056 0.510594 0.658055
0.489034 0.547016 0.695390
0.546018 0.600746 0.746079
0.159100 0.203113 0.293918
0.158925 0.202975 0.293730
0.161965 0.207237 0.299521
0.169438 0.214310 0.308227
0.184099 0.231360 0.331409
0.201555 0.251240 0.355405
0.223971 0.275501 0.386399
0.252537 0.306595 0.425239
0.285369 0.341697 0.468115
0.320061 0.378154 0.511435
0.357917 0.418203 0.556520
0.395272 0.453523 0.598124
0.436880 0.496602 0.644630
0.479173 0.537380 0.687291
0.514856 0.571606 0.719409
0.569252 0.622398 0.765784
0.218031 0.269138 0.378870
0.217761 0.268864 0.378545
0.220937 0.273240 0.385426
0.224610 0.276028 0.388362
0.236603 0.289955 0.406188
0.253384 0.307332 0.426793
0.272227 0.327826 0.451651
0.299172 0.356339 0.485964
0.329447 0.388021 0.523248
0.361789 0.421226 0.561504
0.394542 0.455189 0.600349
0.432515 0.493386 0.640254
0.471644 0.529877 0.680412
0.514939 0.571084 0.718195
0.545850 0.600739 0.746546
0.597014 0.647926 0.788148
0.283554 0.340084 0.467216
0.283302 0.339844 0.466878
0.286544 0.343156 0.469379
0.289301 0.346980 0.474373
0.299839 0.356958 0.486611
0.312788 0.370764 0.504111
0.325978 0.384533 0.519691
0.352190 0.411509 0.550809
0.382075 0.441896 0.585101
0.412340 0.472347 0.618636
0.445786 0.504880 0.653175
0.481647 0.539269 0.688426
0.514576 0.572314 0.720360
0.555947 0.610166 0.755497
0.585022 0.637043 0.778995
0.632089 0.679848 0.814952
0.356727 0.416427 0.557217
0.356496 0.416222 0.556958
