assets/core/filters/luts/02_Mavic Pro LUTs_Cool Mist.cube
LUT_3D_SIZE 6
-0.028922 -0.031204 -0.039644
0.054051 0.076805 0.122545
0.154498 0.197633 0.285888
0.273248 0.328682 0.451808
0.401520 0.460131 0.605081
0.543109 0.598100 0.743747
0.100477 0.134754 0.202723
0.110826 0.147440 0.218065
0.193850 0.242114 0.343699
0.302435 0.359617 0.489249
0.424652 0.483671 0.632685
0.561337 0.615019 0.759134
0.280609 0.336978 0.463440
0.289689 0.346267 0.475391
0.315230 0.373345 0.506740
0.418474 0.478385 0.625145
0.525618 0.582546 0.731192
0.641787 0.688614 0.822050
0.522727 0.579566 0.728673
0.526290 0.582927 0.733033
0.555491 0.610069 0.756490
0.602149 0.652951 0.793590
0.695732 0.736333 0.860657
0.773271 0.805421 0.912535
0.782399 0.813535 0.918880
0.785408 0.816291 0.920576
0.802025 0.830768 0.930455
0.832810 0.857686 0.946757
0.876846 0.895361 0.966172
0.915046 0.929252 0.980176
1.046489 1.048001 1.055051
1.048058 1.049471 1.055889
1.057861 1.058553 1.061759
1.075096 1.074595 1.072195
1.101522 1.099754 1.091592
1.143931 1.141779 1.131779
-0.594976 -0.595997 -0.600705
-0.593487 -0.593938 -0.596116
-0.580621 -0.577753 -0.564076
-0.542690 -0.532380 -0.480209
-0.468688 -0.446571 -0.313402
-0.325580 -0.276363 0.350580
0.105160 0.140293 0.210124
0.116683 0.154279 0.229184
0.178706 0.225210 0.322119
0.284180 0.340379 0.466203
0.408321 0.467873 0.613087
0.546018 0.600746 0.746079
0.283554 0.340084 0.467216
0.289301 0.346980 0.474373
0.325978 0.384533 0.519691
0.412340 0.472347 0.618636
0.514576 0.572314 0.720360
0.632089 0.679848 0.814952
0.525061 0.581724 0.730690
0.528048 0.584656 0.732636
0.556512 0.611029 0.757362
0.608427 0.658685 0.798372
0.693039 0.735141 0.858646
0.767900 0.800699 0.909005
0.783953 0.814926 0.919682
0.785878 0.816694 0.921439
0.801229 0.830070 0.929910
0.832989 0.858018 0.946930
0.877158 0.896776 0.966538
0.913033 0.927628 0.979557
1.047210 1.048659 1.055339
1.045982 1.047359 1.053803
1.056538 1.057187 1.060337
1.074112 1.073569 1.071017
1.101695 1.099911 1.091643
1.144314 1.142218 1.132149
-0.590133 -0.589988 -0.589248
-0.586078 -0.585230 -0.581258
-0.573348 -0.569585 -0.551502
-0.533128 -0.521685 -0.463113
-0.456703 -0.433043 -0.285073
-0.309313 -0.255138 0.371524
0.151706 0.194477 0.281853
0.122577 0.160439 0.237608
0.200863 0.249869 0.353309
0.303353 0.360522 0.490089
0.421866 0.482020 0.627921
0.559273 0.613098 0.757391
0.292669 0.349662 0.478385
0.304602 0.362865 0.494406
0.334908 0.393856 0.530859
0.398641 0.458622 0.603796
0.484476 0.543293 0.691718
0.603983 0.654341 0.793534
0.534361 0.590436 0.738608
0.540556 0.596404 0.743685
0.561650 0.615792 0.761439
0.632194 0.680143 0.816265
0.682946 0.725393 0.852455
0.755343 0.789633 0.900812
0.789620 0.819948 0.923176
0.792296 0.822497 0.924774
0.800153 0.829156 0.929327
0.835275 0.859944 0.948055
0.888712 0.906502 0.970855
0.909503 0.924600 0.978353
1.049962 1.051102 1.056421
1.050591 1.051604 1.056362
1.053676 1.054196 1.056745
1.073126 1.072497 1.069435
1.101917 1.100047 1.091378
1.147818 1.145655 1.135608
-0.577667 -0.574855 -0.561476
-0.572947 -0.569311 -0.551924
-0.553815 -0.546839 -0.512733
-0.517531 -0.503866 -0.432065
-0.436156 -0.409448 -0.224833
-0.277197 -0.210022 0.405093
0.206381 0.255922 0.360872
0.174596 0.221060 0.317770
0.243491 0.296531 0.411745
0.330260 0.388566 0.523017
0.446400 0.505674 0.653107
0.577068 0.629527 0.771967
0.348236 0.407352 0.545692
0.342993 0.401083 0.541291
0.310572 0.368611 0.501485
0.413770 0.473631 0.619810
0.506411 0.563814 0.712163
0.622548 0.671238 0.807618
0.550011 0.604983 0.751731
0.556337 0.611052 0.756780
0.589808 0.641726 0.784219
0.635785 0.683439 0.819191
0.700794 0.740664 0.864020
0.772098 0.804389 0.911921
0.800852 0.829657 0.929669
0.803663 0.832400 0.931349
0.813094 0.840486 0.936536
0.842556 0.866230 0.951544
0.902669 0.918694 0.976035
0.920124 0.933519 0.981805
1.055687 1.056283 1.059024
1.056328 1.056770 1.058979
1.059870 1.059869 1.059865
1.078124 1.077111 1.072371
1.108572 1.106594 1.097116
1.156036 1.153946 1.143986
-0.556539 -0.549672 -0.516005
-0.551771 -0.544180 -0.506593
-0.529659 -0.518501 -0.461430
-0.486893 -0.468549 -0.365484
-0.406864 -0.375062 0.040546
-0.214554 -0.079845 0.449108
0.266683 0.321500 0.442617
0.234453 0.286065 0.399587
0.294171 0.350708 0.477892
0.373315 0.432659 0.573464
0.481246 0.539806 0.687245
0.604589 0.654765 0.793595
0.394813 0.454710 0.598928
0.383213 0.443121 0.585967
0.337741 0.396686 0.533742
0.430545 0.490206 0.637203
0.543555 0.598621 0.743832
0.647643 0.693817 0.826028
0.596475 0.647692 0.788927
0.594230 0.644583 0.787825
0.586827 0.638954 0.781791
0.601352 0.652288 0.793391
0.704459 0.744679 0.866608
0.778606 0.810174 0.916060
0.817201 0.844169 0.938785
0.820441 0.846090 0.940362
0.834385 0.859162 0.947633
0.866940 0.887714 0.962444
0.907121 0.922488 0.976885
0.948465 0.957574 0.990246
1.064894 1.064757 1.064147
1.065340 1.065068 1.064006
1.069819 1.069128 1.066090
1.087959 1.086427 1.079497
1.124558 1.122408 1.112152
1.164643 1.162548 1.152998
-0.530948 -0.519313 -0.459604
-0.525907 -0.513531 -0.449615
-0.504251 -0.488542 -0.403727
-0.461334 -0.438620 -0.299595
-0.381431 -0.344781 0.238006
0.132350 0.255895 0.514053
0.323169 0.381086 0.513836
0.295438 0.351905 0.479998
0.344361 0.402945 0.539133
0.412635 0.472197 0.617123
0.510180 0.566880 0.715084
0.644567 0.690993 0.823791
0.433566 0.493168 0.640432
0.422877 0.481643 0.628479
0.375323 0.435000 0.576895
0.455823 0.514894 0.662901
0.550577 0.604158 0.751014
0.684994 0.727314 0.852644
0.617605 0.666826 0.804806
0.609761 0.659479 0.798432
0.594463 0.645880 0.787389
0.611044 0.660963 0.800233
0.691558 0.732891 0.858196
0.796859 0.826241 0.927299
0.820700 0.847069 0.940599
0.817374 0.844027 0.939805
0.816966 0.843866 0.938669
0.835083 0.859786 0.948012
0.906223 0.922592 0.977613
0.952873 0.961247 0.991436
0.988567 0.990928 0.998909
0.988623 0.991417 0.998927
0.992552 0.994072 0.999371
0.999430 0.999520 0.999999
1.026483 1.026312 1.025468
1.062855 1.062852 1.062833
