assets/core/filters/luts/04_Davinci Resolve LUTs_Blue Tone.cube
LUT_3D_SIZE 16
0.000000 0.000000 0.000000
0.036316 0.012929 0.012929
0.076334 0.027127 0.027127
0.122845 0.043738 0.043738
0.172831 0.061530 0.061530
0.226839 0.080761 0.080761
0.283283 0.100851 0.100851
0.343635 0.122348 0.122348
0.406361 0.144671 0.144671
0.471354 0.167821 0.167821
0.541240 0.192707 0.192707
0.615654 0.219189 0.219189
0.695651 0.247678 0.247678
0.775031 0.275941 0.275941
0.906451 0.322710 0.322710
0.971246 0.345797 0.345797
0.018132 0.046916 0.018132
0.041484 0.047171 0.022426
0.079366 0.053246 0.034782
0.124802 0.064382 0.049210
0.174125 0.077039 0.065359
0.227864 0.093527 0.083781
0.284119 0.111682 0.103369
0.344341 0.131483 0.124441
0.406936 0.152467 0.146432
0.471868 0.174546 0.169328
0.541671 0.198630 0.194054
0.615960 0.224436 0.220433
0.696006 0.252379 0.248757
0.775357 0.280099 0.276869
0.906729 0.326056 0.323466
0.971477 0.348825 0.346460
0.038783 0.100348 0.038783
0.054158 0.100414 0.040490
0.088174 0.100876 0.047796
0.131899 0.109013 0.063476
0.179477 0.119126 0.078267
0.232152 0.132584 0.095089
0.287637 0.146972 0.112992
0.347289 0.163267 0.132717
0.409430 0.180938 0.153593
0.473997 0.199998 0.175542
0.543554 0.221483 0.199535
0.617658 0.244979 0.225249
0.697466 0.271159 0.253135
0.776755 0.297288 0.280787
0.907773 0.339892 0.326615
0.972496 0.361426 0.349267
0.061631 0.159469 0.061631
0.072268 0.159505 0.062651
0.102503 0.159690 0.066971
0.140699 0.160325 0.076116
0.188265 0.170118 0.093943
0.239953 0.183218 0.111504
0.294276 0.195710 0.128431
0.352958 0.209974 0.146894
0.414329 0.225074 0.166407
0.478247 0.241262 0.187048
0.547268 0.260009 0.209827
0.620966 0.280695 0.234482
0.700397 0.304675 0.261642
0.779366 0.328857 0.288672
0.909934 0.365864 0.332844
0.974561 0.385344 0.354869
0.086641 0.224183 0.086641
0.094537 0.224204 0.087352
0.120572 0.224316 0.090440
0.157649 0.224621 0.096816
0.198336 0.225733 0.107250
0.249853 0.238568 0.127148
0.303475 0.250416 0.145871
0.361231 0.263981 0.164453
0.421647 0.277799 0.183259
0.484725 0.292179 0.202831
0.553170 0.309790 0.224751
0.626100 0.327543 0.248005
0.705157 0.350284 0.274335
0.783636 0.371536 0.300218
0.913305 0.402943 0.342384
0.977702 0.419957 0.363502
0.113399 0.293439 0.113399
0.119593 0.293460 0.113950
0.141662 0.293535 0.116311
0.176238 0.293741 0.121044
0.216618 0.294107 0.128902
0.259257 0.295521 0.140437
0.313854 0.308264 0.161140
0.371447 0.321873 0.182268
0.431083 0.335227 0.201846
0.493281 0.348670 0.221211
0.560780 0.364513 0.242367
0.633207 0.382375 0.265185
0.711435 0.402542 0.290343
0.789351 0.422563 0.315406
0.918037 0.448690 0.355115
0.982315 0.463248 0.374994
0.141508 0.366161 0.141508
0.146557 0.366180 0.141946
0.165150 0.366242 0.143764
0.196845 0.366415 0.147629
0.236212 0.366665 0.154015
0.278108 0.366952 0.162530
0.323613 0.368156 0.174978
0.382131 0.382290 0.197221
0.441853 0.395511 0.219678
0.503533 0.408579 0.240259
0.570321 0.423887 0.261684
0.641898 0.440192 0.283889
0.719597 0.460708 0.308893
0.796930 0.480125 0.333444
0.924183 0.501008 0.370701
0.988112 0.513407 0.389242
0.170775 0.441907 0.170775
0.175012 0.441919 0.171165
0.191148 0.441959 0.172760
0.219897 0.442081 0.175901
0.256614 0.442269 0.181052
0.299398 0.442646 0.188524
0.344709 0.443288 0.198555
0.392213 0.444346 0.211678
0.452874 0.457928 0.234430
0.514700 0.470773 0.258011
0.581330 0.486862 0.281370
0.652423 0.503622 0.304355
0.729445 0.523317 0.329412
0.805879 0.540948 0.353310
0.931782 0.558041 0.388527
0.995301 0.568573 0.405678
0.200541 0.518890 0.200541
0.204133 0.518902 0.200849
0.218030 0.518951 0.202119
0.244489 0.519038 0.204856
0.278834 0.519167 0.209317
0.320158 0.519444 0.215566
0.365108 0.519909 0.224070
0.413204 0.520614 0.235249
0.463215 0.521804 0.249378
0.525949 0.534873 0.272707
0.592745 0.550051 0.298748
0.663634 0.566791 0.323722
0.740430 0.587686 0.349972
0.816377 0.605547 0.374260
0.940644 0.618628 0.408014
1.003817 0.627555 0.423717
0.230609 0.596751 0.230609
0.233734 0.596759 0.230893
0.246036 0.596791 0.231986
0.269463 0.596864 0.234182
0.302240 0.596988 0.238276
0.341053 0.597220 0.243348
0.385540 0.597534 0.250952
0.433404 0.598082 0.260610
0.484016 0.598922 0.272839
0.536484 0.600207 0.287999
0.603615 0.614843 0.313312
0.675609 0.633481 0.341699
0.752340 0.653952 0.369454
0.828026 0.672299 0.395214
0.950711 0.681799 0.428402
1.013479 0.689414 0.442739
0.261852 0.677583 0.261852
0.264615 0.677591 0.262088
0.275800 0.677597 0.263296
0.297096 0.677689 0.265189
0.327674 0.677797 0.268580
0.364284 0.677954 0.273294
0.407708 0.678226 0.279734
0.455054 0.678643 0.288209
0.505860 0.679306 0.299001
0.559208 0.680233 0.312381
0.614917 0.681718 0.329046
0.687035 0.700274 0.356350
0.764372 0.721067 0.387417
0.840196 0.740005 0.414963
0.961812 0.747081 0.449083
1.024166 0.753606 0.462081
0.295098 0.763572 0.295098
0.297576 0.763580 0.295309
0.307504 0.763603 0.296239
0.326875 0.763707 0.297791
0.355591 0.763797 0.300999
0.391793 0.763955 0.305498
0.432836 0.764133 0.311081
0.479665 0.764520 0.318684
0.530459 0.765002 0.328338
0.584377 0.765784 0.340352
0.640705 0.766816 0.354941
0.699412 0.769348 0.372917
0.776553 0.791276 0.402867
0.852654 0.809112 0.432821
0.973707 0.814007 0.469236
1.035628 0.819511 0.480993
0.330543 0.855301 0.330543
0.332800 0.855308 0.330744
0.342085 0.855311 0.331756
0.359763 0.855448 0.332892
0.386394 0.855473 0.335802
0.420863 0.855622 0.339887
0.461271 0.855836 0.345051
0.507433 0.856093 0.351959
0.558232 0.856542 0.360739
0.612600 0.857130 0.371672
0.668894 0.857979 0.384552
0.728020 0.859218 0.400299
0.787974 0.861677 0.418887
0.864983 0.880543 0.448389
0.985981 0.882356 0.488231
1.047636 0.887022 0.498846
0.360349 0.932359 0.360349
0.362376 0.932294 0.360485
0.371238 0.932350 0.361547
0.388376 0.932340 0.363178
0.412793 0.932512 0.365166
0.446262 0.932592 0.368752
0.485617 0.932738 0.373804
0.531126 0.933025 0.380193
0.581689 0.933438 0.388387
0.636238 0.933883 0.398585
0.693753 0.934659 0.411076
0.752642 0.935705 0.425245
0.813802 0.937447 0.442409
0.874562 0.939278 0.461711
0.996588 0.941452 0.502941
1.057965 0.945597 0.512668
0.385689 0.998021 0.385689
0.387576 0.998028 0.385869
0.395150 0.998063 0.386469
0.410601 0.998093 0.388058
0.433672 0.998196 0.390324
0.464858 0.998217 0.393842
0.501443 0.998405 0.398033
0.544625 0.998605 0.403903
0.593014 0.998931 0.411354
0.645655 0.999378 0.420629
0.701353 0.999919 0.431639
0.759979 1.000726 0.444922
0.819742 1.001789 0.460586
0.879286 1.003225 0.477914
1.007962 1.008100 0.520185
1.069094 1.011640 0.529021
0.413280 1.069429 0.413280
0.415028 1.069431 0.413411
0.421985 1.069447 0.414045
0.436269 1.069446 0.415709
0.457791 1.069456 0.417951
0.487156 1.069500 0.421499
0.521907 1.069610 0.425784
0.563350 1.069738 0.431693
0.610219 1.069892 0.439268
0.661512 1.070146 0.448659
0.716013 1.070573 0.459773
0.773776 1.071138 0.473225
0.832839 1.071934 0.489072
0.891947 1.073026 0.506612
1.019796 1.076946 0.549200
1.080024 1.080151 0.557377
0.006014 0.006014 0.046785
0.037095 0.015186 0.043553
0.075631 0.029442 0.049993
0.122511 0.045051 0.062419
0.172631 0.062343 0.075057
0.226704 0.081365 0.091830
0.283200 0.101335 0.110195
0.343591 0.122729 0.130189
0.406313 0.144961 0.151349
0.471345 0.168054 0.173553
0.541193 0.192980 0.197786
0.615621 0.219394 0.223631
0.695682 0.247802 0.251617
0.775043 0.276036 0.279441
0.906476 0.322803 0.325544
0.971270 0.345874 0.348360
0.015074 0.047373 0.048164
0.041129 0.047603 0.048397
0.087692 0.042127 0.042444
0.129902 0.049830 0.049959
0.177402 0.064679 0.064721
0.230028 0.082892 0.082918
0.285601 0.102379 0.102403
0.345320 0.123517 0.123530
0.407678 0.145626 0.145641
0.472372 0.168615 0.168631
0.540827 0.193155 0.193177
0.615766 0.219443 0.219452
0.695686 0.248208 0.248225
0.775058 0.276561 0.276564
0.906432 0.323163 0.323171
0.971325 0.346195 0.346207
0.037447 0.100604 0.058518
0.042731 0.102687 0.044188
0.088183 0.100902 0.050764
0.133205 0.106873 0.064902
0.180595 0.115643 0.078554
0.234314 0.127631 0.094832
0.288813 0.141578 0.112390
0.348119 0.157957 0.132054
0.410027 0.175896 0.152942
0.474475 0.195296 0.174958
0.542400 0.216704 0.198693
0.617370 0.240620 0.224390
0.697152 0.267421 0.252600
0.776284 0.294100 0.280641
0.907541 0.337167 0.326331
0.972285 0.358923 0.349020
0.060830 0.159623 0.075527
0.063361 0.161021 0.063931
0.099406 0.160635 0.068108
0.141306 0.161839 0.077838
0.188673 0.169626 0.094772
0.240301 0.179589 0.111022
0.295118 0.192934 0.128309
0.353573 0.206816 0.146563
0.414772 0.221748 0.165986
0.478587 0.237926 0.186610
0.547806 0.256006 0.209172
0.621535 0.277869 0.233991
0.700156 0.302047 0.261310
0.778985 0.326070 0.288552
0.909708 0.363479 0.332554
0.974308 0.383070 0.354644
0.086078 0.224290 0.097079
0.087740 0.225359 0.088065
0.116832 0.225254 0.091126
0.156210 0.225770 0.097578
0.198328 0.225255 0.108091
0.250371 0.237558 0.127705
0.304064 0.249176 0.146157
0.361708 0.262242 0.164476
0.421989 0.275735 0.183117
0.485008 0.289965 0.202605
0.553408 0.306499 0.224346
0.625627 0.325353 0.247466
0.704892 0.347116 0.273971
0.783371 0.369137 0.299989
0.913092 0.400827 0.342168
0.977569 0.417932 0.363251
0.112974 0.293532 0.121634
0.114196 0.294324 0.114429
0.137981 0.294492 0.116750
0.174643 0.294591 0.121760
0.215843 0.294726 0.129608
0.259748 0.295574 0.141058
0.314345 0.308022 0.161718
0.371741 0.321038 0.182581
0.431363 0.334004 0.201948
0.493482 0.347246 0.221205
0.560293 0.363242 0.242167
0.633460 0.380230 0.264617
0.711444 0.401257 0.290329
0.789250 0.420571 0.315017
0.917841 0.446951 0.354965
0.982088 0.461599 0.374879
0.141167 0.366237 0.148236
0.142153 0.366822 0.142354
0.162243 0.367214 0.144429
0.194257 0.366992 0.147886
0.234535 0.367100 0.154225
0.278574 0.367669 0.163346
0.324032 0.368581 0.175665
0.382435 0.382065 0.197718
0.442075 0.394918 0.219999
0.503710 0.407680 0.240433
0.569419 0.421506 0.261011
0.641273 0.439190 0.283637
0.719479 0.459948 0.309199
0.796769 0.478563 0.333310
0.924010 0.499571 0.370523
0.987949 0.511989 0.389139
0.170492 0.441970 0.176439
0.171336 0.442375 0.171527
0.188581 0.442950 0.173486
0.217446 0.442536 0.176188
0.255441 0.443582 0.181469
0.298430 0.443920 0.189048
0.344565 0.443623 0.199064
0.392557 0.444659 0.212300
0.453083 0.457801 0.234888
0.514865 0.470285 0.258347
0.580419 0.484877 0.280683
0.651379 0.501346 0.304054
0.729098 0.521184 0.329117
0.805820 0.539653 0.353007
0.931633 0.556884 0.388439
0.995166 0.567435 0.405602
0.200289 0.518952 0.205362
0.201030 0.519210 0.201193
0.215544 0.518967 0.202373
0.241595 0.519335 0.205133
0.277715 0.519475 0.209179
0.318754 0.519700 0.216158
0.364598 0.520192 0.224540
0.413100 0.520886 0.235750
0.463413 0.522026 0.249936
0.526111 0.534763 0.273155
0.592989 0.550313 0.299349
0.662878 0.566589 0.323840
0.740383 0.586679 0.349829
0.816304 0.604528 0.373961
0.940530 0.617716 0.407966
1.003706 0.626614 0.423691
0.230395 0.596791 0.234801
0.231079 0.596988 0.231256
0.243900 0.596770 0.232645
0.267855 0.597070 0.234857
0.300460 0.597193 0.238476
0.339657 0.597366 0.243632
0.384767 0.597737 0.251386
0.433023 0.598274 0.261058
0.483914 0.599100 0.273332
0.536696 0.600399 0.288531
0.603651 0.615913 0.313694
0.674866 0.633594 0.341823
0.752144 0.653300 0.369964
0.827747 0.670656 0.394917
0.950648 0.681182 0.428448
1.013398 0.688725 0.442780
0.261668 0.677623 0.265561
0.262311 0.677797 0.262511
0.273596 0.677648 0.263589
0.295158 0.677859 0.265600
0.325821 0.677992 0.268725
0.363053 0.678164 0.273448
0.406794 0.678387 0.280176
0.454493 0.678795 0.288683
0.505503 0.679443 0.299459
0.559046 0.680347 0.312860
0.614539 0.681807 0.329069
0.686900 0.700375 0.356659
0.764241 0.720395 0.387562
0.840051 0.739347 0.415066
0.961749 0.746450 0.449128
1.024087 0.752988 0.462135
0.294921 0.763610 0.298411
0.295564 0.763713 0.295757
0.305622 0.763613 0.296743
0.325534 0.763794 0.298613
0.353648 0.763903 0.301471
0.389937 0.764107 0.305585
0.431993 0.764245 0.311546
0.478990 0.764637 0.319165
0.530015 0.765107 0.328835
0.584090 0.765913 0.340819
0.640164 0.766919 0.355385
0.698156 0.769445 0.372860
0.776329 0.790032 0.402762
0.852711 0.809636 0.433402
0.973641 0.813693 0.469380
1.035594 0.819131 0.481110
0.330392 0.855339 0.333552
0.330921 0.855321 0.331098
0.339839 0.855375 0.331602
0.358574 0.855406 0.333689
0.385189 0.855488 0.336172
0.419245 0.855624 0.340230
0.460256 0.855847 0.345414
0.506665 0.856104 0.352304
0.557634 0.856553 0.361087
0.612173 0.857140 0.372018
0.669163 0.857970 0.385293
0.727470 0.859218 0.400564
0.787758 0.860445 0.418797
0.864914 0.880157 0.448605
0.985922 0.882085 0.488370
1.047611 0.886732 0.498985
0.360177 0.932325 0.363123
0.360603 0.932315 0.360735
0.368929 0.932349 0.361252
0.386230 0.932425 0.362900
0.411661 0.932535 0.365430
0.444599 0.932603 0.368952
0.484526 0.932757 0.374022
0.530227 0.933016 0.380434
0.580932 0.933456 0.388639
0.635653 0.933900 0.398804
0.693720 0.934670 0.411343
0.752943 0.935673 0.425486
0.813794 0.937368 0.442693
0.874550 0.939257 0.461976
0.996581 0.941495 0.503112
1.057987 0.945526 0.512829
0.385567 0.998058 0.388187
0.385911 0.998036 0.386042
0.393496 0.998078 0.386592
0.409215 0.998102 0.388231
0.432603 0.998091 0.390516
0.462462 0.998282 0.393480
0.500405 0.998412 0.398176
0.543711 0.998611 0.404070
0.592293 0.998937 0.411517
0.645099 0.999384 0.420777
0.700515 0.999913 0.431733
0.759355 1.000723 0.445054
0.819745 1.001797 0.460818
0.879289 1.003233 0.478134
1.007970 1.008108 0.520381
1.069118 1.011581 0.529216
0.413141 1.069455 0.415551
0.413488 1.069442 0.413596
0.420443 1.069464 0.414139
0.434980 1.069459 0.415819
0.456743 1.069497 0.418126
0.484825 1.069585 0.421082
0.520876 1.069648 0.425900
0.562483 1.069776 0.431844
0.609466 1.069929 0.439412
0.660901 1.070183 0.448787
0.715203 1.070602 0.459887
0.772285 1.071144 0.473267
0.832850 1.071973 0.489335
0.891958 1.073065 0.506819
1.019748 1.076982 0.549353
1.080065 1.080192 0.557565
0.012920 0.012920 0.100515
0.043002 0.016426 0.099440
0.078948 0.032080 0.093758
0.120609 0.051346 0.100119
0.171243 0.066591 0.112522
0.225827 0.084421 0.126824
0.282543 0.103695 0.141729
0.343107 0.124629 0.158540
0.405882 0.146557 0.176663
0.471016 0.169405 0.196121
0.540944 0.194060 0.217941
0.615468 0.220338 0.241717
0.695566 0.248649 0.268180
0.775003 0.276708 0.294509
0.906344 0.323393 0.337700
0.971096 0.346447 0.359460
0.017450 0.051155 0.101921
0.037352 0.042566 0.121442
0.087323 0.043242 0.103328
0.126418 0.055582 0.101600
0.175232 0.068675 0.110809
0.229176 0.085871 0.122666
0.284969 0.104647 0.137170
0.344890 0.125354 0.153944
0.407317 0.147140 0.172265
0.472102 0.169897 0.192048
0.540533 0.194328 0.213756
0.615554 0.220416 0.237984
0.695623 0.248999 0.264965
0.774892 0.277331 0.291815
0.906441 0.323665 0.335310
0.971247 0.346692 0.357306
0.032194 0.101328 0.103465
0.036700 0.103015 0.105194
0.086507 0.100847 0.102956
0.146227 0.093463 0.094738
0.195332 0.086734 0.087206
0.245080 0.095020 0.095526
0.296964 0.110390 0.110543
0.354300 0.129309 0.129416
0.414738 0.150017 0.150096
0.478077 0.172018 0.172085
0.545560 0.195658 0.195708
0.618917 0.221686 0.221748
0.698668 0.249859 0.249901
0.777088 0.277461 0.277499
0.906659 0.325449 0.325531
0.971545 0.348335 0.348405
0.057354 0.160206 0.114823
0.059680 0.161564 0.111316
0.076169 0.166429 0.081970
0.143047 0.163775 0.090163
0.195261 0.164754 0.101929
0.246971 0.170766 0.113696
0.300470 0.179598 0.128232
0.358081 0.191877 0.145298
0.418504 0.206217 0.164099
0.481617 0.222429 0.184415
0.549604 0.240989 0.206995
0.622293 0.262333 0.231279
0.701730 0.287971 0.259001
0.779918 0.312275 0.285696
0.908764 0.353063 0.331862
0.973693 0.373542 0.354090
0.083624 0.224746 0.131087
0.085216 0.225791 0.126449
0.093119 0.230018 0.095509
0.149418 0.229549 0.101863
0.200511 0.229408 0.113086
0.254668 0.234409 0.130856
0.307623 0.243764 0.147595
0.364875 0.254524 0.164520
0.424727 0.266567 0.182288
0.487272 0.279936 0.201221
0.555616 0.295468 0.222354
0.628208 0.314586 0.245752
0.706437 0.336458 0.272012
0.783168 0.358025 0.297629
0.912287 0.391972 0.341561
0.976888 0.409683 0.362835
0.111094 0.293876 0.150994
0.112306 0.294696 0.146274
0.117979 0.299243 0.119412
0.165045 0.298395 0.123943
0.212673 0.298342 0.132145
0.262306 0.298380 0.144265
0.316892 0.307073 0.163994
0.374127 0.317611 0.183644
0.433407 0.328873 0.202050
0.495251 0.340900 0.220621
0.562188 0.354611 0.240663
0.634400 0.372022 0.263536
0.712081 0.392418 0.288468
0.789074 0.411931 0.313247
0.917111 0.439668 0.354502
0.981435 0.454659 0.374560
0.139659 0.366507 0.173688
0.140644 0.367128 0.169241
0.144575 0.370011 0.145520
0.183963 0.369922 0.149345
0.229245 0.370232 0.156022
0.277098 0.369919 0.165151
0.325993 0.370844 0.177999
0.384312 0.381556 0.199378
0.443739 0.392540 0.220838
0.505055 0.403965 0.240545
0.571929 0.417736 0.261055
0.642555 0.434190 0.283368
0.720425 0.453550 0.307924
0.796666 0.471461 0.331586
0.923268 0.493624 0.370296
0.987420 0.506227 0.388983
0.169249 0.442208 0.198638
0.170072 0.442600 0.194572
0.173200 0.444819 0.174016
0.206820 0.444423 0.177002
0.248803 0.445396 0.182774
0.294897 0.445541 0.190109
0.343890 0.445449 0.200412
0.394055 0.446341 0.214014
0.454453 0.457408 0.236112
0.516016 0.468511 0.258976
0.582305 0.481968 0.281074
0.653334 0.498070 0.303942
0.729492 0.517794 0.328439
0.806016 0.535496 0.352399
0.931008 0.552140 0.388419
0.994638 0.562726 0.405640
0.199204 0.519129 0.224853
0.199961 0.519449 0.221224
0.202204 0.520849 0.202880
0.231845 0.521226 0.206048
0.269764 0.521001 0.210194
0.314358 0.521132 0.216733
0.362313 0.521693 0.225329
0.412621 0.522288 0.236775
0.464543 0.523277 0.251244
0.527142 0.534474 0.274075
0.592513 0.546914 0.298792
0.664528 0.564684 0.324195
0.740508 0.582699 0.349158
0.815781 0.601282 0.373447
0.939926 0.613953 0.408140
1.003285 0.622856 0.423918
0.229490 0.596950 0.252059
0.230144 0.597150 0.248833
0.232422 0.598664 0.233001
0.258366 0.598963 0.235199
0.293637 0.599311 0.239055
0.334418 0.598490 0.244246
0.381383 0.598923 0.251814
0.431257 0.599372 0.261637
0.483551 0.600122 0.274092
0.537593 0.601314 0.289539
0.603980 0.615998 0.314377
0.676252 0.631838 0.342492
0.752690 0.651115 0.369842
0.827376 0.668306 0.394951
0.950177 0.678224 0.428836
1.013057 0.685725 0.443153
0.260854 0.677744 0.280990
0.261508 0.677935 0.278127
0.263030 0.678547 0.263621
0.286185 0.678774 0.265684
0.318908 0.678951 0.269440
0.358008 0.679040 0.273403
0.402726 0.679388 0.280364
0.451818 0.679717 0.288936
0.504093 0.680234 0.299876
0.558746 0.681191 0.313441
0.615775 0.683595 0.330555
0.688356 0.701223 0.358371
0.765088 0.720030 0.388370
0.839819 0.737933 0.415284
0.961329 0.744307 0.449694
1.023869 0.750706 0.462718
0.294211 0.763776 0.312366
0.294828 0.763878 0.309816
0.296189 0.764588 0.296671
0.316655 0.764813 0.298163
0.346359 0.764626 0.301189
0.383558 0.764709 0.305752
0.427434 0.764925 0.311519
0.475638 0.765254 0.319186
0.527730 0.765692 0.328913
0.582837 0.766389 0.341036
0.639367 0.767513 0.355269
0.698433 0.769075 0.373531
0.776378 0.790278 0.403930
0.852380 0.807866 0.434229
0.973373 0.812187 0.470110
1.035450 0.817465 0.481812
0.329744 0.855449 0.346347
0.330252 0.855431 0.343959
0.331097 0.855336 0.331496
0.350591 0.855367 0.333536
0.377608 0.855912 0.335401
0.413802 0.855956 0.339575
0.455441 0.856248 0.345309
0.502837 0.856514 0.352262
0.554703 0.856861 0.361096
0.610223 0.857405 0.372084
0.667681 0.858304 0.385202
0.728138 0.859526 0.401134
0.787755 0.860312 0.419548
0.864849 0.879802 0.449488
0.985810 0.881130 0.489227
1.047561 0.885575 0.499810
0.359559 0.932490 0.375027
0.359991 0.932479 0.372703
0.361355 0.932310 0.361927
0.378699 0.932450 0.363183
0.404616 0.932617 0.365400
0.438640 0.932773 0.368975
0.479512 0.932950 0.373941
0.526107 0.933188 0.380401
0.577658 0.933530 0.388634
0.633186 0.934023 0.398838
0.691692 0.934820 0.411248
0.752025 0.935778 0.425984
0.812909 0.937012 0.443287
0.874595 0.939723 0.462909
0.996553 0.941174 0.504106
1.058078 0.945060 0.513799
0.385015 0.998107 0.398906
0.385347 0.998201 0.396780
0.387104 0.998088 0.387799
0.402744 0.998193 0.389069
0.426571 0.998131 0.391561
0.458322 0.998340 0.394515
0.495924 0.998456 0.399152
0.539969 0.998653 0.405032
0.589142 0.998975 0.412467
0.642594 0.999423 0.421752
0.699463 0.999988 0.432691
0.758515 1.000726 0.446448
0.818826 1.001806 0.462014
0.879308 1.003271 0.479353
1.008013 1.008150 0.521437
1.069260 1.011367 0.530104
0.412498 1.069544 0.425187
0.412851 1.069559 0.423234
0.414668 1.069638 0.415243
0.429021 1.069692 0.416540
0.450850 1.069694 0.419044
0.480874 1.069796 0.422067
0.516635 1.069813 0.426803
0.558828 1.069938 0.432721
0.606326 1.070126 0.440274
0.658378 1.070403 0.449626
0.714019 1.070820 0.460716
0.772193 1.071301 0.474670
0.830961 1.072121 0.489878
0.891116 1.073191 0.507915
1.019586 1.077171 0.550344
1.080241 1.080400 0.558579
0.020648 0.020648 0.160635
0.047501 0.022677 0.160046
0.088460 0.031770 0.157015
0.126125 0.051216 0.149870
0.168865 0.074832 0.154712
0.223170 0.091802 0.171334
0.280612 0.109331 0.185634
0.341695 0.129057 0.201063
0.404853 0.150139 0.216996
0.470199 0.172366 0.233877
0.540216 0.196734 0.253704
0.614933 0.222463 0.274294
0.695063 0.250550 0.298753
0.774469 0.278599 0.323394
0.906033 0.324811 0.361374
0.970672 0.347824 0.381446
0.024106 0.055394 0.161713
0.033213 0.036186 0.185246
0.092309 0.039280 0.170919
0.131632 0.056048 0.156634
0.172436 0.077406 0.157443
0.225687 0.092769 0.170242
0.282938 0.110218 0.183770
0.343478 0.129731 0.198539
0.406266 0.150667 0.214171
0.471313 0.172818 0.230949
0.539870 0.196542 0.249730
0.615021 0.222569 0.271120
0.695007 0.251069 0.296528
0.774544 0.279020 0.320837
0.906073 0.325065 0.359150
0.970821 0.348073 0.379362
0.033741 0.107793 0.163563
0.036905 0.106589 0.169857
0.080371 0.093341 0.192429
0.146524 0.089092 0.173235
0.188458 0.093298 0.162137
0.240593 0.101221 0.166589
0.294739 0.115389 0.174261
0.352834 0.133315 0.186329
0.413724 0.153283 0.200814
0.477326 0.174776 0.217304
0.544906 0.197841 0.236041
0.618361 0.223458 0.257902
0.698343 0.251561 0.283288
0.776798 0.279368 0.308494
0.906410 0.326671 0.350022
0.971354 0.349525 0.370873
0.051062 0.161031 0.165292
0.053010 0.162254 0.166570
0.067966 0.166936 0.171336
0.139028 0.162067 0.166333
0.207108 0.150548 0.152514
0.267694 0.134062 0.135725
0.319115 0.135359 0.136125
0.373659 0.146136 0.146595
0.431104 0.162117 0.162411
0.491654 0.181131 0.181331
0.557157 0.202675 0.202830
0.627360 0.226832 0.226966
0.705718 0.254030 0.254086
0.781175 0.280155 0.280198
0.907049 0.331224 0.331560
0.972297 0.353720 0.354026
0.078597 0.225525 0.178845
0.080031 0.226547 0.177463
0.087015 0.231104 0.169343
0.114525 0.238201 0.125217
0.203360 0.232420 0.132374
0.262636 0.229407 0.145826
0.318072 0.229806 0.154918
0.374688 0.235614 0.167224
0.433486 0.244686 0.182291
0.494743 0.256469 0.199604
0.561278 0.272086 0.219954
0.632226 0.289964 0.242193
0.708728 0.311632 0.267463
0.784568 0.333205 0.292532
0.910566 0.373719 0.341479
0.975631 0.392726 0.362913
0.107193 0.294515 0.195615
0.108336 0.295336 0.193217
0.113041 0.299083 0.180317
0.127206 0.306931 0.131148
0.203218 0.304688 0.139630
0.266187 0.303761 0.152343
0.323047 0.304452 0.171190
0.380457 0.309983 0.187733
0.439405 0.317626 0.203624
0.500660 0.327188 0.220462
0.567012 0.340530 0.239952
0.637531 0.355677 0.260827
0.714584 0.374426 0.285107
0.789735 0.393065 0.308889
0.915529 0.424709 0.354702
0.980294 0.440504 0.374891
0.136510 0.367071 0.214943
0.137470 0.367656 0.212121
0.141242 0.370674 0.197867
0.150494 0.376538 0.153167
0.214581 0.376461 0.160532
0.272945 0.375963 0.170145
0.329962 0.375272 0.183701
0.388686 0.380334 0.203920
0.448076 0.387616 0.223620
0.509013 0.396237 0.241621
0.573320 0.407129 0.260045
0.644595 0.422014 0.281522
0.722218 0.440597 0.305468
0.796565 0.456972 0.328248
0.921867 0.481578 0.370803
0.986302 0.494597 0.389612
0.166625 0.442693 0.236575
0.167441 0.443087 0.233660
0.170344 0.445334 0.219346
0.177702 0.450098 0.179883
0.231583 0.449474 0.184989
0.286105 0.448975 0.192863
0.342189 0.449560 0.203907
0.397235 0.449886 0.218239
