assets/core/filters/luts/04_Davinci Resolve LUTs_Blue Tone.cube
LUT_3D_SIZE 6
0.000000 0.000000 0.000000
0.122845 0.043738 0.043738
0.283283 0.100851 0.100851
0.471354 0.167821 0.167821
0.695651 0.247678 0.247678
0.971246 0.345797 0.345797
0.061631 0.159469 0.061631
0.140699 0.160325 0.076116
0.294276 0.195710 0.128431
0.478247 0.241262 0.187048
0.700397 0.304675 0.261642
0.974561 0.385344 0.354869
0.141508 0.366161 0.141508
0.196845 0.366415 0.147629
0.323613 0.368156 0.174978
0.503533 0.408579 0.240259
0.719597 0.460708 0.308893
0.988112 0.513407 0.389242
0.230609 0.596751 0.230609
0.269463 0.596864 0.234182
0.385540 0.597534 0.250952
0.536484 0.600207 0.287999
0.752340 0.653952 0.369454
1.013479 0.689414 0.442739
0.330543 0.855301 0.330543
0.359763 0.855448 0.332892
0.461271 0.855836 0.345051
0.612600 0.857130 0.371672
0.787974 0.861677 0.418887
1.047636 0.887022 0.498846
0.413280 1.069429 0.413280
0.436269 1.069446 0.415709
0.521907 1.069610 0.425784
0.661512 1.070146 0.448659
0.832839 1.071934 0.489072
1.080024 1.080151 0.557377
0.020648 0.020648 0.160635
0.126125 0.051216 0.149870
0.280612 0.109331 0.185634
0.470199 0.172366 0.233877
0.695063 0.250550 0.298753
0.970672 0.347824 0.381446
0.051062 0.161031 0.165292
0.139028 0.162067 0.166333
0.319115 0.135359 0.136125
0.491654 0.181131 0.181331
0.705718 0.254030 0.254086
0.972297 0.353720 0.354026
0.136510 0.367071 0.214943
0.150494 0.376538 0.153167
0.329962 0.375272 0.183701
0.509013 0.396237 0.241621
0.722218 0.440597 0.305468
0.986302 0.494597 0.389612
0.227546 0.597324 0.283700
0.235511 0.602777 0.236703
0.373963 0.601796 0.253173
0.539602 0.603468 0.291991
0.753680 0.646812 0.369881
1.012458 0.679785 0.444724
0.328349 0.855734 0.371131
0.332345 0.856318 0.333051
0.445093 0.857390 0.345131
0.606123 0.858318 0.372249
0.788955 0.862166 0.421073
1.047544 0.883276 0.502053
0.411151 1.069787 0.444491
0.417030 1.070151 0.419080
0.508034 1.070280 0.429324
0.653273 1.070853 0.452048
0.829261 1.072600 0.492314
1.080754 1.080870 0.561192
0.048693 0.048693 0.378836
0.156287 0.060806 0.375054
0.291601 0.116899 0.354724
0.461621 0.197425 0.387505
0.689500 0.267414 0.448796
0.966833 0.359093 0.507167
0.064735 0.186500 0.383853
0.103433 0.115564 0.466144
0.318152 0.140041 0.387800
0.480424 0.205673 0.384879
0.699943 0.269451 0.431447
0.968875 0.364056 0.488932
0.116346 0.369905 0.389352
0.126370 0.379237 0.399348
0.320703 0.371662 0.391174
0.567480 0.317309 0.324062
0.767383 0.308253 0.309995
0.979736 0.415979 0.420639
0.213250 0.599719 0.441875
0.220584 0.605398 0.425971
0.266784 0.625269 0.280132
0.552234 0.616882 0.320874
0.769041 0.616704 0.380494
1.009068 0.643132 0.477870
0.317971 0.857562 0.512250
0.321954 0.858213 0.489861
0.344554 0.868490 0.349517
0.571389 0.866789 0.377580
0.794751 0.868964 0.431481
1.048414 0.869659 0.533139
0.401177 1.071434 0.563731
0.407158 1.071825 0.543992
0.446042 1.074767 0.463966
0.618568 1.075144 0.484627
0.818134 1.076757 0.523652
1.085081 1.085207 0.590733
0.082812 0.082812 0.644284
0.178170 0.089532 0.642335
0.335194 0.121096 0.631926
0.487261 0.193063 0.605307
0.679953 0.303696 0.639395
0.953986 0.389869 0.690975
0.094856 0.207940 0.647939
0.107231 0.112568 0.719507
0.337717 0.133421 0.674779
0.502133 0.203112 0.624665
0.687704 0.307880 0.638022
0.956098 0.394087 0.681665
0.127949 0.402983 0.655298
0.132160 0.391707 0.673461
0.255402 0.292485 0.802761
0.565262 0.286519 0.704450
0.741537 0.342384 0.636570
0.968399 0.437258 0.648757
0.187782 0.603086 0.661129
0.192662 0.607203 0.665912
0.228331 0.627102 0.690712
0.532680 0.606020 0.664070
0.803566 0.560323 0.589126
1.000340 0.600092 0.628724
0.294036 0.861153 0.728809
0.297753 0.861986 0.719097
0.317600 0.872132 0.669005
0.415183 0.894148 0.453336
0.803793 0.877471 0.496054
1.048929 0.854505 0.677673
0.377755 1.074839 0.762864
0.384142 1.075285 0.750901
0.424175 1.078634 0.702380
0.546288 1.085397 0.618174
0.795361 1.086209 0.647005
1.094356 1.094519 0.703613
0.117266 0.117266 0.912281
0.203055 0.122082 0.911020
0.367937 0.144385 0.904158
0.545872 0.197120 0.885532
0.712913 0.289685 0.851790
0.948048 0.418639 0.850509
0.126914 0.232075 0.915109
0.125644 0.127759 0.934465
0.353465 0.148287 0.920676
0.546293 0.200327 0.895191
0.718592 0.294873 0.854934
0.948963 0.424250 0.848886
0.153656 0.434764 0.923856
0.154891 0.412556 0.930931
0.229412 0.258825 0.963696
0.553178 0.244940 0.937597
0.757373 0.330611 0.881448
0.956254 0.467126 0.845954
0.201167 0.648538 0.929810
0.202117 0.642220 0.932840
0.217286 0.614253 0.957012
0.453713 0.518162 0.972165
0.807782 0.513051 0.908554
0.980952 0.611257 0.857197
0.269787 0.864242 0.936624
0.272109 0.865250 0.937960
0.285751 0.874776 0.944391
0.368282 0.893885 0.957979
0.784451 0.869206 0.941443
1.035194 0.881714 0.932311
0.349384 1.078264 0.956832
0.354862 1.078953 0.954362
0.393594 1.083026 0.944121
0.517601 1.091450 0.926247
0.784919 1.094085 0.937004
1.098191 1.098354 0.965139
0.134668 0.134668 1.047718
0.213347 0.139338 1.046146
0.377270 0.160073 1.039086
0.558255 0.210043 1.019391
0.732026 0.298688 0.981359
0.955496 0.426917 0.955688
0.142527 0.241449 1.050533
0.154198 0.161440 1.048589
0.356247 0.177461 1.041704
0.549367 0.221161 1.022164
0.729630 0.305087 0.983825
0.956564 0.432518 0.956821
0.165665 0.442708 1.059506
0.176429 0.415653 1.058977
0.247089 0.278454 1.054682
0.512648 0.299851 1.036813
0.724110 0.360085 0.995477
0.964319 0.473109 0.964488
0.209225 0.658163 1.065627
0.216711 0.646899 1.066062
0.273636 0.598390 1.069168
0.438770 0.500916 1.070385
0.722712 0.525265 1.030361
0.988249 0.604550 0.988507
0.274407 0.876777 1.070918
0.279445 0.871641 1.071453
0.324144 0.857063 1.075159
0.466014 0.830608 1.083189
0.759154 0.842733 1.086588
1.040449 0.875028 1.040708
0.345772 1.079426 1.079601
0.350894 1.080121 1.080266
0.388797 1.084428 1.084539
0.512317 1.093310 1.093457
0.782487 1.095970 1.096165
1.087135 1.087310 1.087409
