assets/core/filters/luts/04_Wedding LUTs_Dessert.cube
LUT_3D_SIZE 6
-0.041878 -0.041878 -0.041878
0.314066 0.022734 0.095151
0.526657 0.017533 0.084055
0.719223 -0.026439 -0.026439
0.917822 -0.091078 -0.091078
1.066998 -0.098360 -0.098360
0.091074 0.232213 0.087733
0.310768 0.229995 0.078928
0.525019 0.178809 0.059564
0.718559 0.146023 -0.060439
0.917822 0.125438 -0.095416
1.066960 0.104606 -0.099216
-0.082309 0.464853 -0.082309
0.254005 0.463747 -0.085646
0.519980 0.463524 -0.095726
0.716733 0.413187 -0.098563
0.917822 0.391322 -0.099316
1.066956 0.354182 -0.099316
-0.099316 0.683357 -0.099316
0.226588 0.683357 -0.099316
0.474823 0.683357 -0.099316
0.716603 0.683357 -0.099316
0.917822 0.649399 -0.099316
1.066956 0.595893 -0.099316
-0.099316 0.908118 -0.099316
0.215819 0.908118 -0.099316
0.454778 0.908118 -0.099316
0.686955 0.908118 -0.099316
0.918838 0.909162 -0.099316
1.066956 0.835992 -0.099316
-0.099316 1.066956 -0.099316
0.198231 1.066956 -0.099316
0.422115 1.066956 -0.099316
0.638424 1.066956 -0.099316
0.852469 1.066956 -0.099316
1.066956 1.066956 -0.099316
0.088730 0.018119 0.309981
0.315367 0.023330 0.312963
0.526512 0.016672 0.266256
0.719023 -0.032771 0.235883
0.917822 -0.091680 0.215807
1.066992 -0.098485 0.196093
0.088326 0.231639 0.309939
0.310596 0.229465 0.307939
0.523990 0.225267 0.304196
0.717900 0.219290 0.298817
0.917822 0.214812 0.294776
1.066956 0.214812 0.294776
-0.083486 0.464705 0.251769
0.297965 0.463617 0.296282
0.519922 0.463485 0.295414
0.716606 0.435424 0.294783
0.917822 0.423794 0.294776
1.066956 0.398968 0.294776
-0.099316 0.683357 0.224194
0.296008 0.683357 0.294112
0.494819 0.683357 0.294776
0.716603 0.683357 0.294776
0.917822 0.661965 0.294776
1.066956 0.616753 0.294776
-0.099316 0.908118 0.213465
0.296008 0.908118 0.293770
0.484151 0.908118 0.294776
0.697449 0.908118 0.294776
0.918838 0.908660 0.294776
1.066956 0.844278 0.294776
-0.099316 1.066956 0.195787
0.296008 1.066956 0.293919
0.462167 1.066956 0.294776
0.657117 1.066956 0.294776
0.860625 1.066956 0.294776
1.066956 1.066956 0.294776
0.100333 0.023668 0.526002
0.272094 0.023170 0.525040
0.525711 0.012408 0.523956
0.718852 -0.050927 0.476557
0.917822 -0.093817 0.452390
1.066970 -0.098985 0.420006
0.089781 0.184047 0.525098
0.309092 0.228483 0.523174
0.523358 0.223799 0.521586
0.717785 0.218447 0.494553
0.917822 0.214812 0.482505
1.066956 0.214812 0.460194
-0.088287 0.464281 0.518841
0.297965 0.464281 0.518841
0.519783 0.463336 0.518016
0.716603 0.463188 0.517849
0.917822 0.463188 0.517849
1.066956 0.463188 0.517849
-0.099316 0.683357 0.472858
0.296008 0.683357 0.493077
0.519627 0.683357 0.517849
0.716603 0.683357 0.517849
0.917822 0.677462 0.517849
1.066956 0.649687 0.517849
-0.099316 0.908118 0.452754
0.296008 0.908118 0.481883
0.519627 0.908118 0.517849
0.710988 0.908118 0.517849
0.918838 0.909040 0.517849
1.066956 0.857888 0.517849
-0.099316 1.066956 0.419966
0.296008 1.066956 0.460214
0.519627 1.066956 0.517849
0.686563 1.066956 0.517849
0.872929 1.066956 0.517849
1.066956 1.066956 0.517849
0.095073 0.021056 0.720629
0.249211 0.019219 0.720629
0.481056 0.009253 0.719169
0.718258 -0.070483 0.717186
0.917822 -0.097148 0.685122
1.066956 -0.099316 0.637069
0.080363 0.158099 0.719803
0.305892 0.224192 0.718880
0.498090 0.222228 0.717743
0.717209 0.216994 0.716131
0.917822 0.214812 0.696408
1.066956 0.214812 0.655775
-0.083891 0.414757 0.716525
0.297965 0.435102 0.715483
0.519656 0.463218 0.715625
0.716603 0.463188 0.715595
0.917822 0.463188 0.710302
1.066956 0.463188 0.685362
-0.099316 0.683357 0.715595
0.296008 0.683357 0.715594
0.519627 0.683357 0.715595
0.716603 0.683357 0.715595
0.917822 0.683357 0.715595
1.066956 0.683357 0.715595
-0.099316 0.908118 0.685838
0.296008 0.908118 0.696444
0.519627 0.908118 0.709902
0.716603 0.908118 0.715595
0.918838 0.908987 0.715595
1.066956 0.872259 0.715595
-0.099316 1.066956 0.637069
0.296008 1.066956 0.655703
0.519627 1.066956 0.685362
0.716603 1.066956 0.715595
0.886548 1.066956 0.715595
1.066956 1.066956 0.715595
0.074969 0.012564 0.920213
0.234946 0.010854 0.920213
0.459764 0.000797 0.919353
0.688032 -0.080602 0.918142
0.918838 -0.099293 0.918409
1.066956 -0.099316 0.852699
0.053518 0.142335 0.919745
0.303451 0.221010 0.918748
0.486358 0.219592 0.918373
0.697669 0.215863 0.917676
0.918838 0.214812 0.918009
1.066956 0.214812 0.860138
-0.089298 0.391906 0.917846
0.296977 0.423228 0.917852
0.519627 0.463188 0.917498
0.710988 0.463188 0.917498
0.918838 0.463188 0.918300
1.066956 0.463188 0.872349
-0.099316 0.650172 0.917498
0.296008 0.662003 0.917498
0.519627 0.677106 0.917498
0.716603 0.683357 0.917498
0.918838 0.683357 0.918261
1.066956 0.683357 0.885301
-0.099316 0.908118 0.917498
0.296008 0.908118 0.917498
0.519627 0.908118 0.917498
0.716603 0.908118 0.917498
0.916903 0.907031 0.916509
1.066956 0.908118 0.917498
-0.099316 1.066956 0.852699
0.296008 1.066956 0.860529
0.519627 1.066956 0.872349
0.716603 1.066956 0.885301
0.916903 1.066956 0.916509
1.066956 1.066956 0.917498
0.059909 0.007720 1.069198
0.215888 0.005934 1.069069
0.427023 -0.036425 1.068554
0.639617 -0.080427 1.067650
0.852469 -0.098704 1.066983
1.066956 -0.099316 1.066956
0.034030 0.122358 1.068831
0.302640 0.220695 1.068028
0.464071 0.218708 1.067652
0.657418 0.215815 1.067141
0.860625 0.214812 1.066956
1.066956 0.214812 1.066956
-0.087921 0.355715 1.067416
0.296977 0.398354 1.067087
0.519627 0.463188 1.066956
0.686563 0.463188 1.066956
0.872929 0.463188 1.066956
1.066956 0.463188 1.066956
-0.099316 0.595893 1.066956
0.296008 0.616655 1.066956
0.519627 0.649687 1.066956
0.716603 0.683357 1.066956
0.886548 0.683357 1.066956
1.066956 0.683357 1.066956
-0.099316 0.835992 1.066956
0.296008 0.844714 1.066956
0.519627 0.857888 1.066956
0.716603 0.872259 1.066956
0.916903 0.907031 1.066956
1.066956 0.908118 1.066956
-0.099316 1.066956 1.066956
0.296008 1.066956 1.066956
0.519627 1.066956 1.066956
0.716603 1.066956 1.066956
0.917822 1.066956 1.066956
1.066956 1.066956 1.066956
