assets/core/filters/luts/04_Wedding LUTs_Dessert.cube
LUT_3D_SIZE 16
-0.041878 -0.041878 -0.041878
0.061846 -0.041878 -0.041878
0.215819 0.018117 0.085385
0.314066 0.022734 0.095151
0.392716 0.023549 0.096769
0.463208 0.021255 0.092146
0.526657 0.017533 0.084055
0.590310 0.012565 0.071698
0.654146 0.006475 0.052249
0.719223 -0.026439 -0.026439
0.786184 -0.063078 -0.063078
0.852184 -0.080578 -0.080578
0.917822 -0.091078 -0.091078
0.974534 -0.096704 -0.096704
1.000016 -0.098358 -0.098358
1.066998 -0.098360 -0.098360
-0.041878 0.008273 -0.041878
0.061846 0.008273 -0.041878
0.216801 0.040396 0.085385
0.314066 0.044517 0.095151
0.392716 0.042280 0.096769
0.463208 0.037996 0.092146
0.526657 0.032665 0.084055
0.590310 0.026765 0.071698
0.654146 0.020294 0.052249
0.719223 0.013383 -0.026439
0.786184 0.006260 -0.063078
0.852184 -0.029464 -0.080578
0.917822 -0.058219 -0.091078
0.974534 -0.069793 -0.096704
1.000016 -0.075748 -0.098358
1.066998 -0.076037 -0.098360
0.100066 0.129255 0.096725
0.135509 0.129258 0.096750
0.221307 0.129255 0.096725
0.314427 0.124882 0.095772
0.391247 0.114728 0.091258
0.461822 0.101607 0.085769
0.526156 0.089887 0.077613
0.589891 0.079882 0.064413
0.653916 0.070842 0.042077
0.718914 0.062586 -0.041367
0.785874 0.054743 -0.067737
0.851940 0.049064 -0.082694
0.917822 0.043192 -0.092483
0.974534 0.037908 -0.097350
1.000004 0.031672 -0.098676
1.066984 0.031153 -0.098666
0.091074 0.232213 0.087733
0.128919 0.232198 0.087700
0.215252 0.231107 0.084801
0.310768 0.229995 0.078928
0.389077 0.211601 0.075997
0.459983 0.194405 0.068957
0.525019 0.178809 0.059564
0.589042 0.166003 0.042104
0.653292 0.155199 -0.032191
0.718559 0.146023 -0.060439
0.786289 0.138803 -0.077026
0.851562 0.131823 -0.088194
0.917822 0.125438 -0.095416
0.974534 0.118811 -0.098623
1.000020 0.105773 -0.099220
1.066960 0.104606 -0.099216
0.062672 0.316186 0.059548
0.109264 0.316186 0.059548
0.197574 0.315118 0.055704
0.291122 0.315118 0.046138
0.386456 0.314473 0.018593
0.457792 0.291371 -0.011129
0.523373 0.271856 -0.035291
0.587837 0.256405 -0.051770
0.652339 0.244175 -0.065663
0.717859 0.234530 -0.077451
0.785339 0.226682 -0.087200
0.851831 0.220336 -0.094222
0.917822 0.214495 -0.098192
0.974534 0.207537 -0.099316
1.000020 0.191537 -0.099316
1.066956 0.190046 -0.099316
-0.049580 0.392537 -0.049580
0.081700 0.392537 -0.049580
0.178676 0.391494 -0.052954
0.271371 0.391494 -0.060221
0.363064 0.390910 -0.068086
0.454426 0.391079 -0.077170
0.521468 0.366913 -0.077511
0.586424 0.348461 -0.080734
0.651366 0.334228 -0.085587
0.717241 0.323506 -0.090871
0.785335 0.315654 -0.095529
0.852159 0.309297 -0.098544
0.917822 0.302954 -0.099316
0.974534 0.294591 -0.099316
1.000020 0.274558 -0.099316
1.066956 0.272729 -0.099316
-0.082309 0.464853 -0.082309
0.037010 0.464853 -0.082309
0.161073 0.464853 -0.083353
0.254005 0.463747 -0.085646
0.342981 0.463524 -0.088587
0.432842 0.463624 -0.092231
0.519980 0.463524 -0.095726
0.585380 0.441778 -0.095987
0.650632 0.425374 -0.097166
0.716733 0.413187 -0.098563
0.784562 0.404593 -0.099313
0.851647 0.397873 -0.099316
0.917822 0.391322 -0.099316
0.974534 0.380406 -0.099316
1.000020 0.356309 -0.099316
1.066956 0.354182 -0.099316
-0.096529 0.536605 -0.096529
-0.057031 0.536605 -0.096529
0.147388 0.536605 -0.096789
0.240273 0.536605 -0.097538
0.329052 0.536348 -0.098318
0.414993 0.536348 -0.099026
0.500153 0.536348 -0.099316
0.585103 0.536348 -0.099316
0.650419 0.517355 -0.099316
0.716603 0.503422 -0.099316
0.784450 0.493323 -0.099316
0.851599 0.484841 -0.099316
0.917822 0.476880 -0.099316
0.974534 0.465642 -0.099316
1.000020 0.437552 -0.099316
1.066956 0.435033 -0.099316
-0.099316 0.609401 -0.099316
-0.066017 0.609401 -0.099316
0.139566 0.609401 -0.099316
0.232445 0.609401 -0.099316
0.319339 0.609401 -0.099316
0.401925 0.609401 -0.099316
0.485554 0.609401 -0.099316
0.568126 0.609401 -0.099316
0.650419 0.609401 -0.099316
0.716603 0.593520 -0.099316
0.784450 0.583154 -0.099316
0.851599 0.571677 -0.099316
0.917822 0.563263 -0.099316
0.974534 0.549473 -0.099316
1.000020 0.518462 -0.099316
1.066956 0.515615 -0.099316
-0.099316 0.683357 -0.099316
-0.068303 0.683357 -0.099316
0.135652 0.683357 -0.099316
0.226588 0.683357 -0.099316
0.311509 0.683357 -0.099316
0.393326 0.683357 -0.099316
0.474823 0.683357 -0.099316
0.555648 0.683357 -0.099316
0.636294 0.683357 -0.099316
0.716603 0.683357 -0.099316
0.783896 0.670261 -0.099316
0.851599 0.659338 -0.099316
0.917822 0.649399 -0.099316
0.974534 0.633023 -0.099316
1.000020 0.599144 -0.099316
1.066956 0.595893 -0.099316
-0.099316 0.758751 -0.099316
-0.069855 0.758751 -0.099316
0.131741 0.758751 -0.099316
0.222678 0.758751 -0.099316
0.306698 0.758751 -0.099316
0.387257 0.758751 -0.099316
0.467034 0.758751 -0.099316
0.546641 0.758751 -0.099316
0.625967 0.758751 -0.099316
0.705121 0.758751 -0.099316
0.784385 0.758751 -0.099316
0.850847 0.746729 -0.099316
0.917822 0.736295 -0.099316
0.974534 0.718618 -0.099316
1.000020 0.679529 -0.099316
1.066956 0.676059 -0.099316
-0.099316 0.834924 -0.099316
-0.070989 0.834924 -0.099316
0.129779 0.834924 -0.099316
0.218769 0.834924 -0.099316
0.302640 0.834924 -0.099316
0.381278 0.834924 -0.099316
0.461043 0.834924 -0.099316
0.539652 0.834924 -0.099316
0.618066 0.834924 -0.099316
0.696187 0.834924 -0.099316
0.774503 0.834924 -0.099316
0.852642 0.835991 -0.099316
0.917822 0.821260 -0.099316
0.974534 0.803062 -0.099316
1.000020 0.760080 -0.099316
1.066956 0.756140 -0.099316
-0.099316 0.908118 -0.099316
-0.072129 0.908118 -0.099316
0.126860 0.908118 -0.099316
0.215819 0.908118 -0.099316
0.297381 0.908118 -0.099316
0.376924 0.908118 -0.099316
0.454778 0.908118 -0.099316
0.532378 0.908118 -0.099316
0.609782 0.908118 -0.099316
0.686955 0.908118 -0.099316
0.764231 0.908118 -0.099316
0.841474 0.908118 -0.099316
0.918838 0.909162 -0.099316
0.974534 0.887375 -0.099316
1.000020 0.840323 -0.099316
1.066956 0.835992 -0.099316
-0.099316 0.969238 -0.099316
-0.073926 0.969238 -0.099316
0.122941 0.969238 -0.099316
0.209965 0.969238 -0.099316
0.290866 0.969238 -0.099316
0.367806 0.969238 -0.099316
0.444385 0.969238 -0.099316
0.520344 0.969238 -0.099316
0.595989 0.969238 -0.099316
0.671465 0.969238 -0.099316
0.747570 0.969238 -0.099316
0.822967 0.969238 -0.099316
0.898301 0.969835 -0.099316
0.974534 0.970676 -0.099316
1.000020 0.920709 -0.099316
1.066956 0.915990 -0.099316
-0.099316 1.000018 -0.099316
-0.077109 1.000018 -0.099316
0.114143 1.000018 -0.099316
0.199215 1.000018 -0.099316
0.277390 1.000018 -0.099316
0.351005 1.000018 -0.099316
0.424045 1.000018 -0.099316
0.496705 1.000018 -0.099316
0.569124 1.000018 -0.099316
0.641313 1.000018 -0.099316
0.712808 1.000018 -0.099316
0.785090 1.000018 -0.099316
0.857215 1.000018 -0.099316
0.927594 0.998003 -0.099316
1.000020 1.000018 -0.099316
1.066956 0.995752 -0.099316
-0.099316 1.066956 -0.099316
-0.077397 1.066956 -0.099316
0.113163 1.066956 -0.099316
0.198231 1.066956 -0.099316
0.275438 1.066956 -0.099316
0.349758 1.066956 -0.099316
0.422115 1.066956 -0.099316
0.494458 1.066956 -0.099316
0.566550 1.066956 -0.099316
0.638424 1.066956 -0.099316
0.710291 1.066956 -0.099316
0.781167 1.066956 -0.099316
0.852469 1.066956 -0.099316
0.925685 1.066956 -0.099316
0.996190 1.066956 -0.099316
1.066956 1.066956 -0.099316
-0.041878 -0.041878 0.058732
0.061846 -0.041878 0.058732
0.215819 0.018117 0.125085
0.314066 0.022734 0.130964
0.392716 0.023549 0.127813
0.463208 0.021255 0.121507
0.526657 0.017533 0.113085
0.590310 0.012565 0.102859
0.654146 0.006475 0.090141
0.719223 -0.026439 0.073889
0.786184 -0.063078 0.051411
0.852184 -0.080578 -0.029464
0.917822 -0.091078 -0.058219
0.974534 -0.096704 -0.069793
1.000016 -0.098358 -0.075748
1.066998 -0.098360 -0.076037
-0.041878 0.008273 0.058732
0.061846 0.008273 0.058732
0.215819 0.027651 0.104476
0.314066 0.032200 0.112321
0.392717 0.032607 0.112995
0.463208 0.030711 0.109828
0.526657 0.026941 0.103182
0.590310 0.022223 0.094132
0.654146 0.016578 0.081836
0.719223 0.010201 0.064911
0.786184 0.003084 0.036673
0.852184 -0.045764 -0.045764
0.917822 -0.065051 -0.065051
0.974534 -0.073653 -0.073653
1.000016 -0.076034 -0.076034
1.066998 -0.076036 -0.076036
0.100076 0.129261 0.132290
0.116433 0.129255 0.113156
0.221319 0.129261 0.113655
0.313951 0.119416 0.112176
0.392233 0.106470 0.110601
0.461858 0.096278 0.105296
0.526199 0.085252 0.098830
0.589943 0.076143 0.089620
0.653978 0.067807 0.077074
0.718950 0.060035 0.059403
0.785944 0.053651 0.027376
0.851967 0.046831 -0.050477
0.917822 0.041027 -0.066911
0.974534 0.037264 -0.074579
1.000004 0.031575 -0.076482
1.066984 0.031154 -0.076476
0.091070 0.232208 0.125698
0.109310 0.232213 0.106012
0.209370 0.231102 0.104119
0.310731 0.230009 0.099151
0.389159 0.208986 0.096382
0.460041 0.192103 0.092759
0.525051 0.176198 0.086604
0.589112 0.163685 0.077154
0.653312 0.153177 0.063569
0.718591 0.144244 0.042126
0.786289 0.136785 -0.036195
0.851524 0.130034 -0.060043
0.917822 0.124271 -0.071492
0.974534 0.117718 -0.076403
1.000020 0.105696 -0.077260
1.066960 0.104606 -0.077255
0.062672 0.316186 0.105961
0.089453 0.316186 0.086118
0.190727 0.315118 0.083452
0.288916 0.315118 0.078324
0.386479 0.314216 0.068228
0.457814 0.290017 0.067538
0.523362 0.270483 0.062437
0.587856 0.255062 0.052144
0.652354 0.242943 0.032681
0.717883 0.233428 -0.037685
0.785356 0.225468 -0.058805
0.851850 0.220337 -0.069813
0.917822 0.214427 -0.075786
0.974534 0.207537 -0.077396
1.000020 0.191495 -0.077396
1.066956 0.190046 -0.077396
-0.049580 0.392537 0.078388
0.056507 0.392537 0.053483
0.171818 0.391494 0.050409
0.267681 0.391494 0.042035
0.362085 0.391438 0.025073
0.454438 0.390305 -0.038050
0.521487 0.366316 -0.037933
0.586476 0.347660 -0.045719
0.651375 0.333484 -0.055469
0.717254 0.322766 -0.064594
0.785346 0.314910 -0.072053
0.852169 0.308556 -0.076355
0.917822 0.301813 -0.077396
0.974534 0.293485 -0.077396
1.000020 0.274481 -0.077396
1.066956 0.272729 -0.077396
-0.082309 0.464853 0.034488
-0.049431 0.464853 -0.049431
0.155213 0.464853 -0.051524
0.251032 0.463747 -0.055268
0.342019 0.463524 -0.060969
0.431871 0.464419 -0.066820
0.519980 0.463524 -0.072194
0.585383 0.441455 -0.072544
0.650635 0.424934 -0.074249
0.716736 0.412697 -0.076293
0.784565 0.404161 -0.077388
0.851650 0.396304 -0.077396
0.917822 0.390201 -0.077396
0.974534 0.380406 -0.077396
1.000020 0.356359 -0.077396
1.066956 0.354182 -0.077396
-0.096529 0.536605 -0.057031
-0.073364 0.536605 -0.073364
0.142500 0.536605 -0.073765
0.238316 0.536605 -0.074846
0.327769 0.536348 -0.075961
0.414006 0.536348 -0.076987
0.499841 0.536348 -0.077396
0.585103 0.536348 -0.077396
0.650419 0.517172 -0.077396
0.716603 0.503176 -0.077396
0.784450 0.493137 -0.077396
0.851599 0.484595 -0.077396
0.917822 0.476903 -0.077396
0.974534 0.464552 -0.077396
1.000020 0.437575 -0.077396
1.066956 0.435033 -0.077396
-0.099316 0.609401 -0.066017
-0.077396 0.609401 -0.077396
0.135652 0.609401 -0.077396
0.230507 0.609401 -0.077396
0.316980 0.609401 -0.077396
0.401738 0.609401 -0.077396
0.485166 0.609401 -0.077396
0.567974 0.609401 -0.077396
0.650419 0.609401 -0.077396
0.716603 0.593384 -0.077396
0.784450 0.582059 -0.077396
0.851599 0.572654 -0.077396
0.917822 0.563250 -0.077396
0.974534 0.549473 -0.077396
1.000020 0.518444 -0.077396
1.066956 0.515615 -0.077396
-0.099316 0.683357 -0.068303
-0.077396 0.683357 -0.077396
0.131741 0.683357 -0.077396
0.224631 0.683357 -0.077396
0.310117 0.683357 -0.077396
0.393132 0.683357 -0.077396
0.474393 0.683357 -0.077396
0.555448 0.683357 -0.077396
0.636175 0.683357 -0.077396
0.716603 0.683357 -0.077396
0.784813 0.670261 -0.077396
0.851599 0.659338 -0.077396
0.917822 0.649387 -0.077396
0.974534 0.633023 -0.077396
1.000020 0.599133 -0.077396
1.066956 0.595893 -0.077396
-0.099316 0.758751 -0.069855
-0.077396 0.758751 -0.077396
0.128806 0.758751 -0.077396
0.220713 0.758751 -0.077396
0.305301 0.758751 -0.077396
0.386029 0.758751 -0.077396
0.466617 0.758751 -0.077396
0.546362 0.758751 -0.077396
0.625826 0.758751 -0.077396
0.705080 0.758751 -0.077396
0.784212 0.758751 -0.077396
0.850802 0.745693 -0.077396
0.917822 0.736273 -0.077396
0.974534 0.718618 -0.077396
1.000020 0.679515 -0.077396
1.066956 0.676059 -0.077396
-0.099316 0.834924 -0.070989
-0.077396 0.834924 -0.077396
0.126860 0.834924 -0.077396
0.217788 0.834924 -0.077396
0.301286 0.834924 -0.077396
0.381990 0.834924 -0.077396
0.460672 0.834924 -0.077396
0.539408 0.834924 -0.077396
0.617871 0.834924 -0.077396
0.696097 0.834924 -0.077396
0.774293 0.834924 -0.077396
0.851559 0.834924 -0.077396
0.917822 0.821252 -0.077396
0.974534 0.803062 -0.077396
1.000020 0.760072 -0.077396
1.066956 0.756140 -0.077396
-0.099316 0.908118 -0.072129
-0.077396 0.908118 -0.077396
0.124894 0.908118 -0.077396
0.214849 0.908118 -0.077396
0.296052 0.908118 -0.077396
0.376667 0.908118 -0.077396
0.454455 0.908118 -0.077396
0.532162 0.908118 -0.077396
0.609570 0.908118 -0.077396
0.686797 0.908118 -0.077396
0.764099 0.908118 -0.077396
0.841298 0.908118 -0.077396
0.918838 0.909157 -0.077396
0.974534 0.887375 -0.077396
1.000020 0.840318 -0.077396
1.066956 0.835992 -0.077396
-0.099316 0.969238 -0.073926
-0.077396 0.969238 -0.077396
0.120988 0.969238 -0.077396
0.209965 0.969238 -0.077396
0.289665 0.969238 -0.077396
0.367578 0.969238 -0.077396
0.444129 0.969238 -0.077396
0.520108 0.969238 -0.077396
0.595871 0.969238 -0.077396
0.671365 0.969238 -0.077396
0.746376 0.969238 -0.077396
0.822933 0.969238 -0.077396
0.898301 0.969832 -0.077396
0.974534 0.970676 -0.077396
1.000020 0.920706 -0.077396
1.066956 0.915990 -0.077396
-0.099316 1.000018 -0.077109
-0.077396 1.000018 -0.077396
0.113163 1.000018 -0.077396
0.199215 1.000018 -0.077396
0.277361 1.000018 -0.077396
0.351023 1.000018 -0.077396
0.424018 1.000018 -0.077396
0.496727 1.000018 -0.077396
0.569112 1.000018 -0.077396
0.641302 1.000018 -0.077396
0.712786 1.000018 -0.077396
0.785078 1.000018 -0.077396
0.857215 1.000018 -0.077396
0.927594 0.998003 -0.077396
1.000020 1.000018 -0.077396
1.066956 0.995752 -0.077396
-0.099316 1.066956 -0.077397
-0.077396 1.066956 -0.077396
0.113163 1.066956 -0.077396
0.198231 1.066956 -0.077396
0.275438 1.066956 -0.077396
0.349758 1.066956 -0.077396
0.422115 1.066956 -0.077396
0.494458 1.066956 -0.077396
0.566550 1.066956 -0.077396
0.638424 1.066956 -0.077396
0.710291 1.066956 -0.077396
0.781167 1.066956 -0.077396
0.852469 1.066956 -0.077396
0.925685 1.066956 -0.077396
0.996190 1.066956 -0.077396
1.066956 1.066956 -0.077396
0.073424 0.012009 0.210539
0.120452 0.012327 0.210734
0.218121 0.019600 0.215451
0.314052 0.023354 0.215635
0.392651 0.023237 0.205861
0.462160 0.020917 0.194982
0.526612 0.017268 0.184273
0.590251 0.012309 0.174370
0.654112 0.006238 0.164784
0.719164 -0.028522 0.155364
0.786147 -0.063834 0.147125
0.852190 -0.080581 0.137702
0.917822 -0.091169 0.129335
0.974534 -0.096900 0.122578
1.000014 -0.098396 0.111665
1.066996 -0.098397 0.110800
0.076203 0.035833 0.211180
0.096395 0.021699 0.210539
0.217977 0.029291 0.215101
0.314429 0.033012 0.209561
0.392660 0.032354 0.199278
0.463166 0.030446 0.190082
0.526620 0.026713 0.179649
0.590275 0.022005 0.170444
0.654114 0.016379 0.161392
0.719168 0.010027 0.152335
0.786149 0.003005 0.143723
0.852193 -0.045715 0.134660
0.917822 -0.065209 0.127203
0.974534 -0.073928 0.120610
1.000014 -0.076086 0.111506
1.066996 -0.076086 0.110801
0.100304 0.129322 0.218028
0.116629 0.129322 0.218028
0.220574 0.128232 0.217036
0.313150 0.128232 0.217036
0.391765 0.126793 0.215755
0.461414 0.124255 0.213451
0.525733 0.121338 0.210834
0.589504 0.117692 0.207570
0.653583 0.113589 0.203891
0.718727 0.109165 0.199908
0.786505 0.104849 0.196033
0.851724 0.101516 0.193051
0.917822 0.097891 0.189778
0.974534 0.095748 0.187824
1.000020 0.095748 0.187824
1.066960 0.095748 0.187824
0.090187 0.232009 0.212586
0.108699 0.232034 0.206666
0.216308 0.230915 0.213566
0.311100 0.229847 0.212578
0.389695 0.217430 0.211908
0.459631 0.206607 0.209075
0.524656 0.196657 0.207016
0.588709 0.189118 0.204163
0.653013 0.182698 0.200905
0.718262 0.177165 0.197396
0.785031 0.171758 0.194016
0.852205 0.168412 0.190526
0.917822 0.165611 0.188763
0.974534 0.161867 0.187799
1.000020 0.155766 0.187799
1.066956 0.155309 0.187799
0.061310 0.316044 0.194945
0.088715 0.316075 0.188401
0.209908 0.314978 0.206709
0.295993 0.314991 0.205081
0.386154 0.314224 0.203202
0.457516 0.296466 0.203076
0.523078 0.281434 0.201225
0.587565 0.270243 0.199156
0.652104 0.261491 0.196623
0.717624 0.254659 0.193882
0.785043 0.249472 0.190730
0.851578 0.245919 0.188997
0.917822 0.241306 0.187799
0.974534 0.237164 0.187799
1.000020 0.224911 0.187799
1.066956 0.224045 0.187799
-0.050893 0.392516 0.176129
0.055491 0.392527 0.169866
0.201168 0.391409 0.198703
0.283275 0.391420 0.198344
0.366867 0.390656 0.196490
0.456272 0.392304 0.194423
0.521357 0.371000 0.194517
0.586293 0.356252 0.193431
0.651287 0.345153 0.191954
0.717163 0.336857 0.190254
0.785204 0.330957 0.189006
0.852041 0.325934 0.188273
0.917822 0.322353 0.187799
0.974534 0.314573 0.187799
1.000020 0.298312 0.187799
1.066956 0.297100 0.187799
-0.082690 0.464804 0.158495
-0.050119 0.464809 0.152787
0.194324 0.464804 0.191857
0.271562 0.463703 0.193034
0.351772 0.463535 0.192029
0.436724 0.463802 0.189851
0.519954 0.463535 0.189079
0.585339 0.445249 0.188886
0.650649 0.431699 0.188397
0.716664 0.421840 0.187935
0.784552 0.415323 0.187406
0.851646 0.409833 0.187935
0.917822 0.403416 0.187799
0.974534 0.394228 0.187799
1.000020 0.373969 0.187799
1.066956 0.372393 0.187799
-0.096615 0.536562 0.144579
-0.073504 0.536563 0.139449
0.190417 0.536562 0.187767
0.263738 0.536563 0.188529
0.341990 0.536348 0.187799
0.421800 0.536348 0.187799
0.503324 0.536348 0.187799
0.585103 0.536348 0.187799
0.650419 0.520232 0.187799
0.716603 0.508583 0.187799
0.784450 0.501670 0.187799
0.851599 0.493264 0.187799
0.917822 0.486875 0.187799
0.974534 0.476270 0.187799
1.000020 0.450815 0.187799
1.066956 0.448961 0.187799
-0.099316 0.609401 0.137143
-0.077396 0.609401 0.132716
0.189439 0.609401 0.187198
0.259828 0.609401 0.187663
0.334887 0.609401 0.187799
0.413296 0.609401 0.187799
0.491308 0.609401 0.187799
0.570719 0.609401 0.187799
0.650419 0.609401 0.187799
0.716603 0.595841 0.187799
0.784450 0.586420 0.187799
0.851599 0.577258 0.187799
0.917822 0.570040 0.187799
0.974534 0.558008 0.187799
1.000020 0.528492 0.187799
1.066956 0.526322 0.187799
-0.099316 0.683357 0.132731
-0.077396 0.683357 0.128923
0.189439 0.683357 0.186710
0.256898 0.683357 0.187819
0.330090 0.683357 0.187799
0.405788 0.683357 0.187799
0.482630 0.683357 0.187799
0.560256 0.683357 0.187799
0.638374 0.683357 0.187799
0.716603 0.683357 0.187799
0.784002 0.672408 0.187799
0.851599 0.662588 0.187799
0.917822 0.653658 0.187799
0.974534 0.640173 0.187799
1.000020 0.606662 0.187799
1.066956 0.604134 0.187799
-0.099316 0.758751 0.129503
-0.077396 0.758751 0.126185
0.189439 0.758751 0.187400
0.254944 0.758751 0.187997
0.326843 0.758751 0.187799
0.401238 0.758751 0.187799
0.476443 0.758751 0.187799
0.552827 0.758751 0.187799
0.629676 0.758751 0.187799
0.706870 0.758751 0.187799
0.784158 0.758751 0.187799
0.850611 0.747805 0.187799
0.917822 0.738611 0.187799
0.974534 0.721637 0.187799
1.000020 0.685169 0.187799
1.066956 0.682270 0.187799
-0.099316 0.834924 0.126994
-0.077396 0.834924 0.124061
0.189439 0.834924 0.186862
0.252982 0.834924 0.186880
0.324045 0.834924 0.187799
0.397480 0.834924 0.187799
0.471706 0.834924 0.187799
0.547109 0.834924 0.187799
0.623024 0.834924 0.187799
0.699200 0.834924 0.187799
0.775524 0.834924 0.187799
0.852699 0.835991 0.187799
0.917822 0.824023 0.187799
0.974534 0.804489 0.187799
1.000020 0.763973 0.187799
1.066956 0.760781 0.187799
-0.099316 0.908118 0.124350
-0.077396 0.908118 0.121834
0.189439 0.908118 0.187157
0.252003 0.908118 0.187583
0.320888 0.908118 0.187799
0.393243 0.908118 0.187799
0.466572 0.908118 0.187799
0.540904 0.908118 0.187799
0.615841 0.908118 0.187799
0.691036 0.908118 0.187799
0.766434 0.908118 0.187799
0.841631 0.908118 0.187799
0.918838 0.908275 0.187799
0.974534 0.888491 0.187799
1.000020 0.842693 0.187799
1.066956 0.839327 0.187799
-0.099316 0.969238 0.119874
-0.077396 0.969238 0.118123
0.189439 0.969238 0.186593
0.249077 0.969238 0.186819
0.315856 0.969238 0.187799
0.386437 0.969238 0.187799
0.457628 0.969238 0.187799
0.530121 0.969238 0.187799
0.603200 0.969238 0.187799
0.676640 0.969238 0.187799
0.749898 0.969238 0.187799
0.824327 0.969238 0.187799
0.899241 0.969944 0.187799
0.974534 0.970504 0.187799
1.000020 0.921884 0.187799
1.066956 0.918069 0.187799
-0.099316 1.000018 0.110922
-0.077396 1.000018 0.110755
0.189439 1.000018 0.186480
0.244185 1.000018 0.188273
0.305845 1.000018 0.187799
0.371725 1.000018 0.187799
0.439820 1.000018 0.187799
0.508602 1.000018 0.187799
0.578108 1.000018 0.187799
0.648002 1.000018 0.187799
0.717893 1.000018 0.187799
0.787848 1.000018 0.187799
0.860181 1.000018 0.187799
0.929606 0.998997 0.187799
1.000020 1.000018 0.187799
1.066956 0.996746 0.187799
-0.099316 1.066956 0.110048
-0.077396 1.066956 0.110049
0.189439 1.066956 0.186610
0.243206 1.066956 0.186611
0.305438 1.066956 0.187799
0.371021 1.066956 0.187799
0.438400 1.066956 0.187799
0.506907 1.066956 0.187799
0.576144 1.066956 0.187799
0.645733 1.066956 0.187799
0.716029 1.066956 0.187799
0.786542 1.066956 0.187799
0.855338 1.066956 0.187799
0.927594 1.066956 0.187799
0.997139 1.066956 0.187799
1.066956 1.066956 0.187799
0.088730 0.018119 0.309981
0.127633 0.018206 0.310052
0.216806 0.021768 0.311958
0.315367 0.023330 0.312963
0.392540 0.023030 0.295714
0.462075 0.020601 0.280050
0.526512 0.016672 0.266256
0.590158 0.011728 0.254533
0.654103 0.005681 0.244519
0.719023 -0.032771 0.235883
0.786106 -0.064964 0.227835
0.852081 -0.081113 0.222136
0.917822 -0.091680 0.215807
0.974534 -0.097049 0.208851
1.000011 -0.098486 0.197154
1.066992 -0.098485 0.196093
0.089346 0.040106 0.310129
0.107515 0.027503 0.309981
0.211568 0.030775 0.311081
0.314792 0.032632 0.312937
0.392549 0.032311 0.294289
0.462078 0.029800 0.277942
0.526520 0.026141 0.263861
0.590161 0.021458 0.252428
0.654105 0.015872 0.242678
0.719027 0.009574 0.234244
0.786108 0.002649 0.226975
0.852084 -0.046872 0.220520
0.917822 -0.066018 0.214722
0.974534 -0.074147 0.208852
1.000011 -0.076221 0.197079
1.066992 -0.076220 0.196093
0.100391 0.126876 0.312161
0.116695 0.120416 0.312158
0.220656 0.129062 0.311166
0.314219 0.126976 0.311163
0.391639 0.126359 0.298502
0.460364 0.123852 0.288517
0.525624 0.120908 0.280826
0.589438 0.117302 0.273807
0.653475 0.113231 0.267768
0.718680 0.108891 0.262544
0.786423 0.104489 0.257959
0.851629 0.100151 0.253707
0.917822 0.097897 0.250613
0.974534 0.095754 0.248250
1.000020 0.095754 0.241781
1.066959 0.095754 0.241378
0.088326 0.231639 0.309939
0.107198 0.231639 0.309939
0.215430 0.231639 0.309939
0.310596 0.229465 0.307939
0.388076 0.228563 0.307146
0.459060 0.226627 0.305441
0.523990 0.225267 0.304196
0.588124 0.223356 0.302469
0.652459 0.221324 0.300633
0.717900 0.219290 0.298817
0.785452 0.216953 0.296702
0.851862 0.216002 0.295870
0.917822 0.214812 0.294776
0.974534 0.214812 0.294776
1.000020 0.214812 0.294776
1.066956 0.214812 0.294776
0.058330 0.315826 0.289395
0.086947 0.315836 0.287115
0.208881 0.315826 0.294299
0.305941 0.314740 0.303796
0.386749 0.314208 0.303215
0.457120 0.305261 0.302922
0.522625 0.297797 0.301257
0.587162 0.292140 0.300010
0.651730 0.287676 0.298574
0.717357 0.284139 0.297174
0.785754 0.281127 0.295647
0.852291 0.279781 0.295227
0.917822 0.276958 0.294776
0.974534 0.274481 0.294776
1.000020 0.269292 0.294776
1.066956 0.269029 0.294776
-0.053457 0.392376 0.269327
0.053045 0.392383 0.266608
0.201168 0.392376 0.280130
0.302320 0.392383 0.299982
0.375430 0.391297 0.299953
0.455058 0.390910 0.299186
0.521099 0.378190 0.298005
0.586045 0.369068 0.297247
0.651046 0.362236 0.296390
0.716944 0.357206 0.295603
0.785052 0.353481 0.294431
0.851867 0.350682 0.294616
0.917822 0.348359 0.294776
0.974534 0.343468 0.294776
1.000020 0.331975 0.294776
1.066956 0.331445 0.294776
-0.083486 0.464705 0.251769
-0.051722 0.464709 0.249176
0.194324 0.463614 0.268454
0.297965 0.463617 0.296282
