assets/core/filters/luts/06_Film Emulation LUTs_Matte.cube
TITLE "Generated by Resolve"
LUT_3D_SIZE 33
0 0.00396735 0.0264591
0 0.00140383 0.0238956
0.0116121 0 0.0215457
0.0423133 0 0.0199893
0.0727398 0 0.0186007
0.103197 0 0.0173342
0.133944 0 0.0160983
0.165118 0 0.0148165
0.197147 0 0.0136263
0.229831 0 0.0121004
0.26363 0 0.0102998
0.299168 0 0.00805676
0.336492 0 0.00538643
0.374838 0 0.00250248
0.413886 0 0
0.452552 0 0
0.490364 0 0
0.527367 0 0
0.564019 0 0
0.600381 0 0
0.636072 0 0
0.670588 0 0
0.704112 0 0
0.736538 0 0
0.76846 0 0
0.800259 0 0
0.83154 0 0
0.862623 0 0
0.893553 0 0
0.924514 0 0
0.955703 0 0
0.986755 0 0
1 0 0
0 0.0267033 0.0247349
0 0.0247501 0.026215
0.0148318 0.0233005 0.0247654
0.0458076 0.0220035 0.0234836
0.0764935 0.0208743 0.0223545
0.107164 0.0198367 0.0213016
0.138079 0.0187686 0.0202487
0.169665 0.0178836 0.0193484
0.201617 0.0166171 0.0180972
0.234379 0.015198 0.0166629
0.268299 0.0135042 0.0149691
0.30396 0.011368 0.0128481
0.341604 0.00903334 0.0105135
0.380041 0.00624094 0.00772107
0.418982 0.00334173 0.00480659
0.45774 0.000534066 0.00199893
0.495659 0 0
0.53283 0 0
0.569757 0 0
0.606149 0 0
0.641794 0 0
0.676432 0 0
0.710063 0 0
0.742748 0 0
0.774914 0 0
0.806592 0 0
0.83801 0 0
0.86923 0 0
0.900328 0 0
0.931624 0 0
0.962814 0 0
0.993957 0 0
1 0 0
0 0.0536965 0.0232242
0 0.051133 0.0261234
0.0159915 0.0495003 0.0259403
0.0471504 0.0483864 0.0248264
0.0780041 0.047425 0.0238499
0.108949 0.0466468 0.0230869
0.140047 0.0457771 0.0222171
0.171511 0.0447547 0.0211948
0.203586 0.0436103 0.0200504
0.236454 0.042298 0.0187381
0.270481 0.0407111 0.0171511
0.306447 0.0389105 0.0153506
0.343984 0.0364385 0.0128786
0.382513 0.033753 0.010193
0.421561 0.0309606 0.00740063
0.460441 0.0282597 0.00469978
0.498512 0.025864 0.00230411
0.535912 0.0238804 0.000320439
0.572778 0.0218509 0
0.609293 0.0199741 0
0.64509 0.0183413 0
0.679835 0.0170138 0
0.713695 0.0161135 0
0.746517 0.0155947 0
0.778729 0.0151369 0
0.810575 0.014847 0
0.84213 0.0146639 0
0.873487 0.0145876 0
0.904982 0.0148623 0
0.936294 0.0149691 0
0.96762 0.0151369 0
0.998932 0.0153506 0
1 0.0157778 0
0 0.0814984 0.0211948
0 0.0787823 0.0244144
0.0165408 0.0767071 0.0259403
0.0479591 0.0755932 0.0256352
0.0790723 0.074876 0.0249332
0.110048 0.0741436 0.0242008
0.141192 0.0733043 0.0233463
0.172747 0.0723888 0.022446
0.204913 0.0713512 0.0213931
0.237888 0.0701305 0.0201724
0.272251 0.068864 0.0189212
0.30811 0.0669566 0.0169985
0.345754 0.0646067 0.0146487
0.38439 0.0620127 0.0120546
0.423545 0.0593271 0.00936904
0.46276 0.0569772 0.00701915
0.500923 0.0546731 0.0047303
0.538277 0.0526284 0.00268559
0.575265 0.050721 0.000762951
0.611887 0.0489662 0
0.647868 0.0475013 0
0.682979 0.04654 0
0.716899 0.0457008 0
0.749722 0.045182 0
0.782071 0.0448768 0
0.814084 0.0447395 0
0.84593 0.044831 0
0.877638 0.0451209 0
0.909041 0.0453193 0
0.940505 0.045594 0
0.972061 0.0459602 0
1 0.0464179 0
1 0.0471504 0
0 0.109987 0.0189212
0 0.107256 0.0222324
0.0162814 0.104936 0.0247654
0.0486458 0.103716 0.0259098
0.0797589 0.102892 0.0256199
0.110765 0.102174 0.0249027
0.142016 0.101427 0.0241703
0.173678 0.100633 0.0233616
0.206134 0.0998856 0.0226139
0.239277 0.0988174 0.0215457
0.273503 0.0974289 0.0201724
0.309468 0.0956283 0.0183566
0.347234 0.0934005 0.0161288
0.386007 0.0909438 0.0136873
0.425528 0.0886244 0.0113527
0.464637 0.0861524 0.00889601
0.502922 0.0839704 0.00671397
0.540413 0.0820783 0.00482185
0.577569 0.0803388 0.00308232
0.614374 0.0787518 0.00149538
0.650645 0.0776074 0.000335698
0.68571 0.076585 0
0.719814 0.0759289 0
0.752834 0.0756237 0
0.785367 0.0754864 0
0.817594 0.0755474 0
0.849714 0.0759442 0
0.881498 0.0762951 0
0.913161 0.0767376 0
0.944823 0.0772259 0
0.976562 0.0777752 0.000518807
1 0.0787213 0.00146487
1 0.0796979 0.00244144
0 0.139071 0.0164187
0 0.136461 0.0198978
0.0152285 0.133974 0.0228885
0.0484779 0.132372 0.0249027
0.0801099 0.131441 0.0256504
0.111269 0.1308 0.0254063
0.142611 0.130159 0.0247807
0.174563 0.129641 0.0242466
0.207004 0.128878 0.0234836
0.240223 0.127886 0.0225071
0.274586 0.12665 0.0212558
0.310689 0.124956 0.0195773
0.348562 0.12285 0.0174563
0.387701 0.12076 0.0153658
0.427146 0.118364 0.0129702
0.466423 0.11606 0.0106813
0.504845 0.114031 0.00863661
0.542473 0.112261 0.00688182
0.580026 0.110918 0.00552377
0.616999 0.109514 0.00411994
0.653269 0.108339 0.00296025
0.688502 0.1075 0.00210575
0.722744 0.106996 0.0016022
0.755962 0.106874 0.00148013
0.788983 0.107225 0.00184634
0.821408 0.107485 0.00210575
0.853529 0.107881 0.00248722
0.885496 0.108415 0.00303655
0.917433 0.109133 0.00373846
0.949447 0.109957 0.00457771
0.98175 0.111086 0.00570687
1 0.112032 0.00665293
1 0.113298 0.00790417
0 0.168994 0.0138094
0 0.166354 0.0172274
0.0133516 0.163668 0.0203403
0.0475319 0.161868 0.0230411
0.0798962 0.160769 0.0246891
0.111543 0.16022 0.0254215
0.143145 0.159792 0.0253147
0.175051 0.159228 0.0247501
0.207568 0.158526 0.0240482
0.240909 0.157656 0.0231785
0.27541 0.156558 0.0220798
0.311849 0.155215 0.020737
0.34995 0.153323 0.0188449
0.388983 0.151141 0.0166629
0.428565 0.148882 0.0144045
0.468009 0.146746 0.0122683
0.506645 0.144915 0.0104372
0.544671 0.143557 0.00907912
0.582162 0.142153 0.00767529
0.619318 0.140902 0.00642405
0.655787 0.139956 0.00547799
0.691264 0.139361 0.00488289
0.725734 0.139071 0.00459297
0.759365 0.139361 0.00488289
0.792401 0.139727 0.0052491
0.825101 0.140291 0.00579843
0.857572 0.141009 0.00653086
0.88983 0.141848 0.00737011
0.922011 0.142809 0.00833143
0.95462 0.144228 0.00975052
0.987106 0.145541 0.0110628
1 0.146975 0.0124971
1 0.148608 0.0141299
0 0.199359 0.010544
0 0.196811 0.0140383
0.0108644 0.19411 0.017319
0.0458381 0.192218 0.0204929
0.079118 0.191104 0.0229953
0.111299 0.190463 0.0245212
0.143099 0.189944 0.0250401
0.175174 0.189502 0.0248569
0.207843 0.188968 0.0243229
0.241321 0.188266 0.0236057
0.276127 0.187442 0.022797
0.312612 0.18616 0.0215
0.350835 0.18439 0.0197299
0.390082 0.182406 0.0177615
0.429847 0.180331 0.015671
0.469429 0.178347 0.0136873
0.508492 0.176944 0.0122835
0.546532 0.175601 0.0109407
0.584253 0.174411 0.00976577
0.621607 0.173373 0.00872816
0.658259 0.17261 0.00794995
0.694133 0.172396 0.00775158
0.729046 0.172564 0.00790417
0.762798 0.172961 0.00831617
0.796048 0.173556 0.00889601
0.829023 0.174365 0.00972
0.86186 0.175463 0.0108186
0.894728 0.176898 0.012253
0.927504 0.178485 0.0138247
0.960174 0.17995 0.0153048
0.992935 0.181537 0.0168917
1 0.183291 0.0186465
1 0.185321 0.020676
0 0.230503 0.00683604
0 0.228061 0.0104067
0.00775158 0.225376 0.0138094
0.0436408 0.223682 0.0175479
0.0775769 0.222385 0.0205234
0.110323 0.221592 0.0226902
0.142565 0.221057 0.0239261
0.174884 0.220661 0.0243839
0.207828 0.220356 0.0242924
0.241657 0.219989 0.0239414
0.276493 0.219211 0.0231632
0.313069 0.218006 0.0219577
0.351446 0.216403 0.0203403
0.39089 0.214618 0.018555
0.430991 0.212879 0.0168154
0.47097 0.211276 0.0152285
0.509972 0.209812 0.0137636
0.548226 0.208682 0.0126345
0.586221 0.207782 0.0117189
0.623911 0.20708 0.011017
0.660975 0.206714 0.0106661
0.697124 0.206775 0.0107271
0.732204 0.207126 0.0110628
0.766369 0.207935 0.0118868
0.800107 0.209018 0.0129549
0.833494 0.210239 0.0141909
0.866697 0.211704 0.0156558
0.899931 0.213519 0.0174563
0.932921 0.21529 0.0192416
0.965988 0.217166 0.0211185
0.999069 0.219074 0.0230106
1 0.221042 0.024979
1 0.22356 0.027512
0 0.262486 0.002533
0 0.260212 0.00627146
0.00428779 0.257847 0.0100099
0.0404974 0.255894 0.0137636
0.0751049 0.254551 0.0171969
0.108537 0.253727 0.0199741
0.14139 0.253239 0.0219425
0.174182 0.252964 0.0231632
0.207462 0.252842 0.0237736
0.241306 0.252476 0.0235904
0.276371 0.251911 0.0230259
0.313191 0.25095 0.0220798
0.351781 0.249561 0.0206912
0.39147 0.248035 0.0191501
0.431891 0.246601 0.017731
0.472038 0.245182 0.0162966
0.511376 0.244053 0.0151827
0.549905 0.243198 0.014313
0.588159 0.242542 0.0136568
0.626444 0.242451 0.0135653
0.663874 0.242435 0.0135653
0.700328 0.242817 0.0139467
0.73579 0.243519 0.0146487
0.770214 0.244602 0.0157321
0.804257 0.245991 0.0171206
0.838331 0.247913 0.019028
0.871839 0.249683 0.020798
0.905135 0.251545 0.0226596
0.938323 0.253513 0.0246281
0.971588 0.255589 0.0267033
1 0.25774 0.0288701
1 0.260212 0.031342
1 0.262623 0.033753
0 0.295476 0
0 0.293553 0.00151064
0 0.291112 0.0052491
0.0365148 0.289281 0.00923171
0.0717479 0.287953 0.0130465
0.105821 0.287098 0.0163272
0.139528 0.286854 0.0191806
0.172808 0.286625 0.0210422
0.206317 0.286458 0.0221561
0.240436 0.286229 0.0225681
0.275685 0.285847 0.0223545
0.312749 0.285145 0.0216373
0.351949 0.284352 0.0208438
0.391897 0.283085 0.0195773
0.43238 0.281727 0.0182193
0.472801 0.280552 0.0170596
0.51252 0.27982 0.0163119
0.551537 0.279438 0.0159304
0.590494 0.2795 0.0160067
0.62884 0.279469 0.0159609
0.666545 0.279728 0.0162356
0.703334 0.280446 0.0169375
0.739193 0.281544 0.0180362
0.773953 0.282979 0.0194705
0.808499 0.284855 0.0213474
0.842512 0.286717 0.023209
0.876234 0.288701 0.0251926
0.909789 0.290822 0.0273136
0.943175 0.292988 0.0294957
0.976562 0.295201 0.031693
1 0.297734 0.034226
1 0.300008 0.0364996
1 0.302449 0.0389563
0 0.330037 0
0 0.328038 0
0 0.325704 0
0.0312047 0.323995 0.0034638
0.0670634 0.322789 0.00766003
0.102052 0.32224 0.0116884
0.136126 0.321798 0.0148623
0.16997 0.321614 0.0173495
0.204013 0.32163 0.0191653
0.238621 0.32166 0.0203098
0.274205 0.321538 0.020737
0.311772 0.321309 0.0206607
0.351034 0.320577 0.0199283
0.391424 0.319738 0.019089
0.432395 0.318868 0.0182193
0.473198 0.318105 0.0174563
0.513207 0.317647 0.0169985
0.552789 0.317845 0.0171969
0.591852 0.317998 0.0173648
0.630594 0.318349 0.0177005
0.668589 0.318929 0.0182803
0.705592 0.319844 0.0191958
0.741787 0.321279 0.0206455
0.776959 0.32311 0.0224765
0.81149 0.324987 0.0243381
0.845624 0.32697 0.0263218
0.879454 0.329061 0.0284123
0.913069 0.331243 0.0306096
0.946639 0.333608 0.0329595
0.980316 0.33608 0.0354314
1 0.338354 0.037705
1 0.340597 0.0399634
1 0.342977 0.0423438
0 0.365698 0
0 0.363943 0
0 0.361791 0
0.0247501 0.360189 0
0.0614176 0.359365 0.00138857
0.0968643 0.35877 0.00569162
0.13167 0.358495 0.00947585
0.166155 0.35845 0.012604
0.200732 0.358587 0.0150759
0.236027 0.359014 0.0170901
0.272328 0.359411 0.0184634
0.310155 0.359365 0.0189212
0.349737 0.358953 0.0186465
0.390402 0.358373 0.0180667
0.431678 0.357824 0.0175174
0.472999 0.357565 0.017258
0.513558 0.357671 0.0173495
0.553124 0.357839 0.0175174
0.592371 0.35819 0.0178836
0.631312 0.35874 0.0184329
0.669566 0.359564 0.0192569
0.706874 0.3608 0.0204929
0.743297 0.362463 0.0221561
0.778393 0.364218 0.0239109
0.812985 0.366155 0.0258488
0.847211 0.368215 0.0279088
0.881102 0.370367 0.0300603
0.914778 0.372625 0.0323186
0.94847 0.375097 0.0347906
0.981842 0.377279 0.0369726
1 0.379461 0.0391546
1 0.381628 0.0413214
1 0.383932 0.0436255
0 0.402502 0
0 0.401007 0
0 0.399283 0
0.0183871 0.398108 0
0.0553292 0.397192 0
0.0914015 0.39675 0
0.126955 0.396735 0.00389105
0.16228 0.39704 0.00781262
0.197711 0.397589 0.0111543
0.233585 0.39826 0.0138857
0.270207 0.398718 0.0157473
0.308476 0.398962 0.0168765
0.348486 0.398901 0.0172732
0.389471 0.398657 0.0171359
0.431037 0.398383 0.0168765
0.472679 0.398444 0.0169375
0.513283 0.398596 0.0170748
0.553094 0.399008 0.0175021
0.592538 0.399558 0.0180514
0.631601 0.400229 0.0187228
0.670237 0.401434 0.0199283
0.70753 0.402655 0.021149
0.743801 0.404166 0.0226596
0.778958 0.405982 0.0244755
0.81355 0.407919 0.0263981
0.847715 0.409918 0.0284123
0.881804 0.412268 0.0307622
0.915358 0.414405 0.0328832
0.948714 0.416541 0.0350347
0.981994 0.418616 0.0371099
1 0.4206 0.0390936
1 0.422522 0.0410163
1 0.424826 0.0433051
0 0.440589 0
0 0.439399 0
0 0.438071 0
0.0121767 0.437125 0
0.0498512 0.436637 0
0.0866102 0.436469 0
0.122789 0.436622 0
0.15903 0.437385 0.00363165
0.195056 0.438087 0.00756847
0.231388 0.438834 0.0108339
0.268498 0.43949 0.0133211
0.307118 0.439872 0.0149691
0.347402 0.439963 0.0158541
0.388968 0.440223 0.0165255
0.430716 0.440131 0.0165408
0.472267 0.440116 0.0165255
0.512978 0.44036 0.0167697
0.55285 0.440848 0.017258
0.592371 0.441474 0.0178836
0.631785 0.442481 0.0188907
0.670176 0.443458 0.0198672
0.707454 0.444648 0.0210727
0.743648 0.446097 0.0225071
0.778698 0.447807 0.0242161
0.813214 0.449653 0.0260777
0.847532 0.45182 0.0282292
0.881254 0.453803 0.0302281
0.91458 0.455711 0.0321202
0.947677 0.457572 0.0339971
0.980743 0.459464 0.035874
1 0.461326 0.0377356
1 0.463447 0.0398566
1 0.465415 0.041825
0 0.480125 0
0 0.479332 0
0 0.478111 0
0.00724804 0.477409 0
0.0453956 0.477165 0
0.0828107 0.477317 0
0.119936 0.478004 0
0.156481 0.47863 0.000213626
0.192996 0.479408 0.00459297
0.229831 0.480278 0.00836194
0.26743 0.481071 0.0114137
0.306432 0.48159 0.0135958
0.347204 0.482002 0.0151369
0.388678 0.482063 0.0159304
0.430518 0.482002 0.0162509
0.472145 0.482048 0.0164034
0.512901 0.482353 0.0166934
0.552804 0.482856 0.0172122
0.592599 0.483757 0.0180972
0.631632 0.484413 0.0187533
0.669902 0.485252 0.0195926
0.707103 0.486366 0.0207218
0.743206 0.487724 0.0220645
0.77821 0.489372 0.0237278
0.81265 0.491157 0.0255131
0.846479 0.492836 0.0271763
0.879973 0.494591 0.0289311
0.913207 0.496376 0.0307317
0.946212 0.498177 0.0325322
0.979248 0.500023 0.0343786
1 0.502007 0.0363622
1 0.503777 0.0381323
1 0.505714 0.0400702
0 0.520333 0
0 0.51989 0
0 0.519051 0
0.00404364 0.518639 0
0.0426032 0.518578 0
0.0807355 0.519142 0
0.11809 0.519692 0
0.155169 0.520439 0
0.192172 0.521294 0.00283818
0.229389 0.522164 0.00698863
0.26743 0.523079 0.010544
0.306874 0.523751 0.0132448
0.347616 0.523903 0.0149081
0.389181 0.523888 0.0159457
0.431067 0.523796 0.0165103
0.472648 0.523751 0.0168154
0.51342 0.524056 0.0172122
0.553429 0.524681 0.0178378
0.592844 0.525185 0.0183413
0.631769 0.525719 0.0188907
0.669841 0.52636 0.0195315
0.706767 0.52723 0.0203861
0.742702 0.528405 0.021561
0.777691 0.530037 0.023209
0.811856 0.531563 0.0247196
0.845609 0.53315 0.0263066
0.878996 0.534783 0.0279545
0.912139 0.536507 0.0296635
0.945113 0.538277 0.0314336
0.978317 0.540291 0.0334478
1 0.542031 0.0351873
1 0.54377 0.0369268
1 0.545678 0.0388495
0 0.561456 0
0 0.561212 0
0 0.560571 0
0.00228885 0.560479 0
0.0414282 0.5608 0
0.0796216 0.561166 0
0.117311 0.56173 0
0.154726 0.562448 0
0.192096 0.563272 0.00187686
0.229725 0.564172 0.00639353
0.268132 0.565118 0.0103304
0.307591 0.565499 0.0131075
0.34844 0.565499 0.0149691
0.390021 0.565332 0.0161746
0.431907 0.565103 0.016907
0.473503 0.564981 0.0173953
0.514305 0.56527 0.0180056
0.553872 0.565454 0.0182803
0.593027 0.565698 0.0185245
0.631754 0.566049 0.0188754
0.669718 0.566583 0.0194095
0.706844 0.567636 0.0204623
0.742626 0.568658 0.0214847
0.777279 0.56997 0.022797
0.811383 0.57142 0.0242466
0.84509 0.572976 0.0257877
0.878462 0.574594 0.0274205
0.911803 0.576516 0.0293431
0.944793 0.578286 0.0311131
0.977707 0.579995 0.0328222
1 0.581689 0.0345159
1 0.583337 0.0361639
1 0.585138 0.0379492
0 0.60325 0
0 0.603204 0
0 0.602731 0
0.00131228 0.602853 0
0.0404517 0.603006 0
0.0789044 0.603387 0
0.116869 0.603937 0
0.154559 0.604593 0
0.192447 0.60557 0.00137331
0.230167 0.60621 0.0059205
0.268498 0.606729 0.00976577
0.30811 0.606943 0.0127108
0.34905 0.606775 0.0147402
0.3906 0.606363 0.016022
0.432609 0.606088 0.0170138
0.474006 0.605661 0.0174716
0.514427 0.605493 0.0178836
0.553933 0.60557 0.0182498
0.592981 0.605722 0.0184939
0.631617 0.605966 0.0187381
0.669703 0.606607 0.019379
0.706569 0.607401 0.0201724
0.742306 0.608392 0.0211643
0.776928 0.609674 0.022446
0.811017 0.611093 0.0238651
0.844694 0.612619 0.025391
0.878202 0.614389 0.0271611
0.91136 0.616114 0.0288853
0.944183 0.617731 0.0305028
0.976959 0.619318 0.0320897
1 0.62092 0.0336767
1 0.622477 0.0352483
1 0.624414 0.0371862
0 0.64538 0
0 0.645701 0
0 0.645274 0
0.000579843 0.645151 0
0.039826 0.645274 0
0.0783551 0.645548 0
0.116426 0.64593 0
0.154498 0.646662 0
0.192294 0.647227 0.000427253
0.230167 0.647654 0.00502022
0.268528 0.647868 0.00885023
0.308095 0.647745 0.01178
0.349004 0.647257 0.0138094
0.390799 0.646845 0.0154116
0.432685 0.646235 0.0163882
0.474067 0.645655 0.016968
0.514443 0.645335 0.0174868
0.553887 0.645289 0.0179751
0.592905 0.64538 0.0183413
0.6318 0.645884 0.0189212
0.669627 0.646281 0.0193179
0.706401 0.646983 0.0200046
0.742123 0.647944 0.0209812
0.776699 0.64918 0.0222171
0.810788 0.650614 0.0236515
0.844541 0.652216 0.0252384
0.87776 0.653681 0.0267185
0.910719 0.655207 0.0282444
0.94345 0.656733 0.0297704
0.976074 0.658167 0.0312047
1 0.659617 0.0326543
1 0.661204 0.0342412
1 0.662715 0.0357519
0 0.687739 0
0 0.6878 0
0 0.687266 0
0.00015259 0.687037 0
0.0394598 0.687022 0
0.0780194 0.68719 0
0.116411 0.687663 0
0.154192 0.687831 0
0.191913 0.688014 0
0.229831 0.688167 0.00384527
0.26833 0.688197 0.00775158
0.308141 0.687999 0.0108949
0.34934 0.687526 0.0132448
0.391012 0.686717 0.0147707
0.432883 0.685908 0.0158083
0.474342 0.685222 0.0165866
0.514778 0.68484 0.0172885
0.554314 0.684779 0.0180056
0.593561 0.685039 0.0187686
0.632151 0.685206 0.0191958
0.669932 0.685557 0.0196231
0.7066 0.686152 0.0202182
0.742199 0.686992 0.0210575
0.776699 0.688151 0.0222171
0.810864 0.689647 0.0237125
0.844312 0.690944 0.0250095
0.877348 0.692241 0.0263066
0.910094 0.693568 0.0276188
0.942657 0.694911 0.0289769
0.975174 0.696239 0.0302892
1 0.697688 0.031754
1 0.698817 0.0328832
1 0.700053 0.0341192
0 0.729351 0
0 0.729274 0
0 0.728618 0
0.000183108 0.728191 0
0.0393835 0.727977 0
0.0780499 0.728069 0
0.116152 0.728038 0
0.15404 0.728069 0
0.191882 0.728099 0
0.229923 0.728069 0.00309758
0.268589 0.727962 0.0071107
0.308721 0.727764 0.0105287
0.349905 0.727001 0.0128786
0.39173 0.726085 0.0145876
0.433738 0.72517 0.0158236
0.475303 0.724392 0.0167849
0.515816 0.723934 0.0176852
0.555566 0.723995 0.0187533
0.594537 0.723888 0.0193637
0.633021 0.723903 0.019852
0.67071 0.724132 0.020325
0.707286 0.724636 0.0209049
0.743008 0.725597 0.0218662
0.777295 0.726543 0.0228122
0.811002 0.727596 0.0238651
0.844297 0.72874 0.0249943
0.877195 0.7299 0.026154
0.909758 0.731014 0.0272831
0.942275 0.732326 0.0285954
0.974533 0.733394 0.0296635
1 0.734432 0.0306859
1 0.735393 0.0316625
1 0.736416 0.0326848
0 0.770108 0
0 0.769757 0
0 0.768902 0
0.000335698 0.768353 0
0.0397345 0.768231 0
0.0782025 0.767971 0
0.116335 0.767803 0
0.15433 0.767697 0
0.192325 0.767605 0
0.230823 0.767758 0.00321965
0.269657 0.767514 0.00732433
0.309712 0.766964 0.0106203
0.351095 0.766094 0.0131228
0.393057 0.765072 0.0149844
0.435142 0.763989 0.0163577
0.476967 0.763272 0.0176394
0.51751 0.762676 0.0186618
0.557 0.762325 0.0195773
0.595926 0.762066 0.0202792
0.634302 0.761898 0.0207828
0.671809 0.761898 0.0212253
0.708415 0.762402 0.0219577
0.743801 0.763027 0.0226444
0.77792 0.763806 0.0234379
0.811399 0.76463 0.0242466
0.844404 0.765484 0.0251164
0.877073 0.766415 0.0260319
0.909651 0.767559 0.0271763
0.941833 0.768536 0.0281529
0.973831 0.769345 0.0289616
1 0.770092 0.0297246
1 0.770855 0.0304723
1 0.771756 0.0313726
0 0.809873 0
0 0.809461 0
0 0.808728 0
0.00132753 0.808087 0
0.0404517 0.807614 0
0.078996 0.807309 0
0.117235 0.807065 0
0.155352 0.806867 0
0.193713 0.806912 0
0.232181 0.80676 0.00383001
0.271153 0.806378 0.00798047
0.311315 0.805661 0.0113375
0.352758 0.804578 0.0138705
0.394812 0.803372 0.0158236
0.437156 0.802319 0.0174563
0.478889 0.801282 0.0187076
0.519341 0.800397 0.0196994
0.558709 0.799786 0.0205997
0.597559 0.799329 0.0213169
0.635859 0.798978 0.0218662
0.673487 0.799039 0.0225681
0.709651 0.799054 0.0230106
0.744701 0.799329 0.0234989
0.778607 0.799893 0.0241245
0.811933 0.800565 0.0247959
0.844877 0.801343 0.0255741
0.877424 0.802152 0.0263828
0.909545 0.802838 0.0270695
0.941482 0.803571 0.0278019
0.973388 0.804273 0.0285039
1 0.804944 0.0291752
1 0.805722 0.0299535
1 0.806622 0.0308537
0 0.849195 0
0 0.848905 0
0 0.848005 0
0.00227359 0.847288 0
0.0414282 0.846754 0
0.0800641 0.846387 0
0.118364 0.846082 0
0.156832 0.846067 0
0.195041 0.845716 0
0.233494 0.845304 0.00444038
0.272557 0.844755 0.00859083
0.31284 0.84387 0.0119783
0.354421 0.842664 0.0146181
0.396643 0.841382 0.0167239
0.438788 0.839887 0.0181735
0.48043 0.838529 0.0193484
0.520882 0.837446 0.0204013
0.560174 0.836576 0.0212711
0.598901 0.835859 0.0219883
0.637201 0.835401 0.0226444
0.674449 0.834989 0.0230716
0.710475 0.834821 0.0235142
0.745342 0.834852 0.0239414
0.778988 0.835142 0.024445
0.812146 0.835645 0.0250095
0.844999 0.836332 0.0256962
0.877302 0.836912 0.0262608
0.909331 0.837507 0.0268711
0.941161 0.838117 0.0274815
0.972961 0.838727 0.0280919
1 0.839445 0.028809
1 0.840162 0.0295109
1 0.840879 0.0302434
0 0.888579 0
0 0.88806 0
0 0.887037 0
0.00335698 0.886259 0
0.0424964 0.885634 0
0.0811475 0.885161 0
0.119661 0.884947 0
0.157885 0.884504 0
0.196139 0.884016 0.000259403
0.234607 0.883391 0.00486763
0.27364 0.882567 0.00891127
0.313954 0.881453 0.0122683
0.355749 0.880201 0.0150454
0.397803 0.878492 0.0169528
0.439902 0.876692 0.0183413
0.481407 0.874998 0.0194095
0.521767 0.873625 0.0204166
0.561059 0.872557 0.0213474
0.599878 0.871763 0.0222171
0.637842 0.870848 0.0226291
0.674876 0.870115 0.0229648
0.710765 0.869718 0.0233616
0.745525 0.869612 0.0238193
0.779339 0.870024 0.0246128
0.812329 0.870329 0.0251316
0.844892 0.870741 0.0255894
0.877119 0.871229 0.0260777
0.909087 0.871763 0.0266117
0.940902 0.872374 0.0272068
0.972808 0.873091 0.027924
1 0.87361 0.0284581
1 0.874144 0.0289921
1 0.874815 0.0296635
0 0.927459 0
0 0.926848 0
0 0.925689 0
0.00427253 0.924804 0
0.0433814 0.924086 0
0.0822003 0.92369 0
0.120394 0.923033 0
0.158541 0.922347 0
0.19678 0.921645 0.000366217
0.235248 0.920821 0.00488289
0.27454 0.920012 0.00907912
0.314748 0.918563 0.012253
0.356207 0.916716 0.0146487
0.39826 0.914748 0.016495
0.44036 0.912734 0.0178683
0.481849 0.910765 0.0189212
0.522347 0.909316 0.0200809
0.561471 0.907912 0.0209049
0.600015 0.906691 0.021561
0.637964 0.905608 0.0220493
0.674998 0.904753 0.022446
0.710826 0.904204 0.0229038
0.745769 0.904204 0.0236515
0.779309 0.904295 0.0242924
0.812253 0.904524 0.0248722
0.844739 0.904845 0.025391
0.87689 0.905241 0.0258488
0.908812 0.90573 0.0263371
0.940734 0.906447 0.0270542
0.972412 0.906935 0.0275273
1 0.907393 0.0280003
1 0.907866 0.0284581
1 0.908492 0.0290837
0 0.965942 0
0 0.96524 0
0 0.963928 0
0.00505074 0.963058 0
0.0440528 0.962173 0
0.082536 0.961334 0
0.120668 0.960494 0
0.158709 0.959579 0
0.196796 0.958556 0
