assets/core/filters/luts/06_Film Emulation LUTs_Matte.cube
TITLE "Generated by Resolve"
LUT_3D_SIZE 9
0 0.00396735 0.0264591
0.0727398 0 0.0186007
0.197147 0 0.0136263
0.336492 0 0.00538643
0.490364 0 0
0.636072 0 0
0.76846 0 0
0.893553 0 0
1 0 0
0 0.109987 0.0189212
0.0797589 0.102892 0.0256199
0.206134 0.0998856 0.0226139
0.347234 0.0934005 0.0161288
0.502922 0.0839704 0.00671397
0.650645 0.0776074 0.000335698
0.785367 0.0754864 0
0.913161 0.0767376 0
1 0.0796979 0.00244144
0 0.230503 0.00683604
0.0775769 0.222385 0.0205234
0.207828 0.220356 0.0242924
0.351446 0.216403 0.0203403
0.509972 0.209812 0.0137636
0.660975 0.206714 0.0106661
0.800107 0.209018 0.0129549
0.932921 0.21529 0.0192416
1 0.22356 0.027512
0 0.365698 0
0.0614176 0.359365 0.00138857
0.200732 0.358587 0.0150759
0.349737 0.358953 0.0186465
0.513558 0.357671 0.0173495
0.669566 0.359564 0.0192569
0.812985 0.366155 0.0258488
0.94847 0.375097 0.0347906
1 0.383932 0.0436255
0 0.520333 0
0.0426032 0.518578 0
0.192172 0.521294 0.00283818
0.347616 0.523903 0.0149081
0.51342 0.524056 0.0172122
0.669841 0.52636 0.0195315
0.811856 0.531563 0.0247196
0.945113 0.538277 0.0314336
1 0.545678 0.0388495
0 0.687739 0
0.0394598 0.687022 0
0.191913 0.688014 0
0.34934 0.687526 0.0132448
0.514778 0.68484 0.0172885
0.669932 0.685557 0.0196231
0.810864 0.689647 0.0237125
0.942657 0.694911 0.0289769
1 0.700053 0.0341192
0 0.849195 0
0.0414282 0.846754 0
0.195041 0.845716 0
0.354421 0.842664 0.0146181
0.520882 0.837446 0.0204013
0.674449 0.834989 0.0230716
0.812146 0.835645 0.0250095
0.941161 0.838117 0.0274815
1 0.840879 0.0302434
0 1 0
0.0439002 0.999359 0
0.196429 0.995041 0
0.355245 0.987793 0.0120241
0.521569 0.978759 0.0174411
0.674739 0.973358 0.020737
0.811673 0.972137 0.0236362
0.939818 0.973602 0.0261387
1 0.97557 0.0281071
0 1 0
0.0370947 1 0
0.188693 1 0
0.348714 1 0.00248722
0.516564 1 0.00875868
0.671092 1 0.0136568
0.808789 1 0.0184176
0.937087 1 0.0226291
1 1 0.0252689
0 0 0.183413
0.0695354 0 0.164492
0.194049 0 0.159625
0.333776 0 0.151781
0.487816 0 0.140719
0.633707 0 0.132494
0.766278 0 0.128237
0.891569 0 0.127001
1 0 0.127047
0 0.109346 0.181186
0.0772717 0.100389 0.172229
0.203647 0.0973831 0.169223
0.345129 0.0912947 0.163134
0.501045 0.0821088 0.153948
0.649027 0.0759899 0.147829
0.784024 0.0741436 0.145983
0.912154 0.0757305 0.14757
1 0.0792096 0.151049
0 0.232959 0.161151
0.0677806 0.223499 0.162737
0.206241 0.218769 0.171817
0.350271 0.215228 0.168276
0.509163 0.209003 0.162051
0.660517 0.206256 0.159304
0.800412 0.209323 0.162371
0.933822 0.21619 0.169238
1 0.224521 0.177569
0 0.369894 0.135073
0.0489509 0.362737 0.143908
0.199451 0.359136 0.162127
0.35024 0.359457 0.168246
0.514305 0.358404 0.167193
0.670893 0.360891 0.16968
0.81442 0.367575 0.176364
0.949783 0.37641 0.185199
1 0.385 0.19379
0 0.526619 0.109163
0.0301823 0.524315 0.125154
0.189242 0.524346 0.148943
0.348714 0.525521 0.164569
0.514611 0.525246 0.167498
0.670756 0.527276 0.169543
0.812634 0.532326 0.174594
0.945815 0.538964 0.181231
1 0.546334 0.188586
0 0.694621 0.102968
0.0260929 0.693126 0.12105
0.18584 0.691539 0.143664
0.348135 0.688777 0.160342
0.515343 0.685618 0.166629
0.670481 0.686107 0.169268
0.8112 0.689998 0.173159
0.942748 0.695003 0.178164
1 0.699794 0.182956
0 0.855573 0.104677
0.0269627 0.852506 0.12192
0.186603 0.849485 0.143236
0.351034 0.844251 0.159915
0.519951 0.837736 0.167849
0.673961 0.834623 0.171481
0.811383 0.834882 0.173342
0.940322 0.837278 0.175738
1 0.839918 0.178378
0 1 0.107683
0.0280919 1 0.123064
0.18526 0.998016 0.14107
0.349172 0.98909 0.155398
0.518761 0.978714 0.162951
0.673259 0.972549 0.167773
0.810559 0.971099 0.171466
0.938674 0.972457 0.17409
1 0.974395 0.176028
0 1 0.101869
0.0202945 1 0.115251
0.176135 1 0.131365
0.340749 1 0.144884
0.512184 1 0.152956
0.668666 1 0.159533
0.80734 1 0.165591
0.935866 1 0.170382
1 1 0.173205
0 0 0.323781
0.0697642 0 0.297505
0.192615 0 0.287968
0.332525 0 0.280308
0.486732 0 0.269398
0.632609 0 0.261189
0.765576 0 0.257298
0.891096 0 0.256306
1 0 0.256596
0 0.10573 0.332372
0.075227 0.0983444 0.314061
0.202792 0.0965286 0.298146
0.344488 0.0906386 0.292256
0.500648 0.0817121 0.28333
0.648692 0.075639 0.277256
0.784237 0.0743572 0.275959
0.912734 0.0763104 0.277928
1 0.0799725 0.28159
0 0.231907 0.314733
0.0551461 0.224948 0.307774
0.20621 0.218738 0.301564
0.350607 0.215564 0.29839
0.509972 0.209812 0.292638
0.661875 0.207614 0.29044
0.802289 0.2112 0.294026
0.936156 0.218524 0.30135
1 0.227237 0.310063
0 0.372259 0.284077
0.0321355 0.368032 0.281727
0.193072 0.363668 0.288441
0.352407 0.361624 0.300191
0.516747 0.360845 0.299428
0.67364 0.363638 0.302205
0.817243 0.370413 0.30898
0.952178 0.378805 0.317372
1 0.387304 0.325887
0 0.532235 0.254551
0.0141146 0.532235 0.26067
0.180301 0.531228 0.275654
0.350225 0.528878 0.295109
0.51722 0.527855 0.299901
0.673045 0.529564 0.30161
0.814725 0.534417 0.306462
0.947906 0.541054 0.3131
1 0.548287 0.320317
0 0.701549 0.244999
0.00962844 0.70106 0.254276
0.174533 0.698375 0.269886
0.345953 0.692576 0.287846
0.517082 0.687892 0.297627
0.672389 0.688014 0.300954
0.812558 0.691356 0.304295
0.944045 0.6963 0.309239
1 0.700786 0.313726
0 0.862547 0.243565
0.010132 0.860151 0.253574
0.173648 0.856001 0.269001
0.345647 0.848463 0.285664
0.519417 0.839643 0.296284
0.674647 0.835508 0.301595
0.812009 0.835508 0.303746
0.940841 0.837797 0.306035
1 0.84033 0.308568
0 1 0.244022
0.0104829 1 0.253086
0.170718 1 0.266087
0.340795 0.992935 0.279637
0.515679 0.980621 0.289235
0.672786 0.973266 0.296345
0.810819 0.97145 0.301274
0.938918 0.972702 0.304112
1 0.974609 0.30602
0 1 0.23592
0.00205997 1 0.244068
0.160891 1 0.25626
0.330602 1 0.26862
0.507118 1 0.278019
0.666819 1 0.286687
0.807095 1 0.29456
0.936034 1 0.300175
1 1 0.303212
0 0 0.478508
0.0684825 0 0.450095
0.191684 0 0.432914
0.330251 0 0.422766
0.484611 0 0.412039
0.63061 0 0.403922
0.763836 0 0.400305
0.889616 0 0.399558
1 0 0.400015
0 0.101503 0.491936
0.0720073 0.09514 0.469673
0.202869 0.0935988 0.445975
0.342824 0.0889906 0.435355
0.499184 0.0802472 0.426596
0.647578 0.0745251 0.42089
0.78349 0.0736095 0.419959
0.912444 0.0760204 0.422385
1 0.0802167 0.426566
0 0.227985 0.482399
0.0542763 0.221225 0.473823
0.204181 0.216709 0.458366
0.349935 0.214893 0.442466
0.509529 0.209384 0.436957
0.662409 0.208148 0.435721
0.803357 0.212268 0.439841
0.937484 0.219867 0.447425
1 0.228885 0.456458
0 0.370596 0.45391
0.0255436 0.367514 0.450828
0.181613 0.366308 0.449622
0.353628 0.362844 0.446159
0.518334 0.362432 0.445747
0.675349 0.365347 0.448661
0.818936 0.372107 0.455406
0.953719 0.380346 0.463661
1 0.38851 0.471824
0 0.533898 0.423362
0.00285344 0.535821 0.425849
0.164431 0.537484 0.429404
0.343526 0.533089 0.436057
0.518578 0.529213 0.445991
0.674189 0.530724 0.447501
0.815534 0.535225 0.452003
0.948913 0.542062 0.458854
1 0.549096 0.465888
0 0.705074 0.410483
0 0.705776 0.413733
0.156863 0.704707 0.418769
0.335225 0.697688 0.427756
0.516777 0.689418 0.441291
0.673106 0.688731 0.446418
0.813046 0.691844 0.449531
0.944137 0.696391 0.454078
1 0.700511 0.458198
0 0.866545 0.404929
0 0.865354 0.40885
0.155383 0.862135 0.415396
0.332479 0.853452 0.42501
0.51519 0.841398 0.436713
0.673701 0.835111 0.444877
0.81149 0.834989 0.447974
0.940215 0.837171 0.450156
1 0.839628 0.452598
0 1 0.401633
0 1 0.4047
0.151492 1 0.410285
0.325704 0.997299 0.418235
0.508064 0.982589 0.427726
0.670207 0.973159 0.437705
0.809873 0.970718 0.444724
0.938079 0.971862 0.44802
1 0.973495 0.449653
0 1 0.390417
0 1 0.393057
0.141405 1 0.399374
0.314611 1 0.407126
0.497307 1 0.415778
0.662409 1 0.426612
0.805402 1 0.436866
0.935103 1 0.443748
1 1 0.446891
0 0 0.648478
0.065156 0 0.619501
0.190463 0 0.597528
0.328038 0 0.582086
0.481392 0 0.569757
0.627588 0 0.561837
0.760998 0 0.558434
0.887022 0 0.557916
1 0 0.558572
0 0.0965744 0.664378
0.0677653 0.0908827 0.640467
0.20145 0.089128 0.614633
0.341634 0.0855573 0.596231
0.496651 0.0777142 0.585031
0.64538 0.0723278 0.579644
0.781643 0.0717632 0.579065
0.910964 0.0745556 0.581857
1 0.0795605 0.586877
0 0.222843 0.661418
0.0529183 0.216876 0.64947
0.201144 0.213672 0.630381
0.350225 0.212161 0.606699
0.508339 0.208179 0.596704
0.66186 0.207614 0.596124
0.803418 0.212314 0.600839
0.937713 0.220081 0.608606
1 0.229435 0.617945
0 0.366598 0.638239
0.0243992 0.364279 0.635386
0.181735 0.363546 0.632837
0.352438 0.361639 0.619989
0.518791 0.36289 0.607156
0.675929 0.365927 0.610193
0.819242 0.372396 0.616663
0.953918 0.380545 0.624796
1 0.38851 0.632761
0 0.532708 0.610437
0 0.535119 0.612848
0.158404 0.53753 0.615259
0.331868 0.535515 0.613245
0.518624 0.529259 0.606989
0.674098 0.530632 0.608362
0.815381 0.535088 0.612818
0.948699 0.541848 0.619577
1 0.548714 0.626459
0 0.705119 0.596216
0 0.706264 0.597589
0.143557 0.706249 0.598123
0.317449 0.702022 0.595789
0.508461 0.691997 0.596826
0.672511 0.688136 0.606775
0.812284 0.691081 0.609705
0.943008 0.695262 0.613886
1 0.698878 0.617502
0 0.867262 0.587686
0 0.86688 0.58854
0.138415 0.864988 0.589197
0.312764 0.85774 0.588052
0.502144 0.844205 0.590509
0.670909 0.834134 0.602258
0.809796 0.833295 0.607233
0.938384 0.83534 0.609277
1 0.837476 0.611399
0 1 0.580728
0 1 0.579568
0.131914 1 0.579293
0.305089 1 0.57847
0.4925 0.985183 0.580865
0.664012 0.972946 0.592386
0.807523 0.968917 0.602823
0.936034 0.969818 0.606928
1 0.97145 0.60856
0 1 0.566201
0 1 0.564813
0.120714 1 0.565393
0.293751 1 0.565927
0.480476 1 0.568841
0.653391 1 0.579889
0.801633 1 0.593256
0.932937 1 0.602213
1 1 0.605844
0 0 0.807797
0.0622568 0 0.778759
0.189639 0 0.754177
0.327825 0 0.734142
0.479805 0 0.717876
0.625467 0 0.709087
0.759121 0 0.705913
0.88539 0 0.705638
1 0 0.706554
0 0.0927749 0.825345
0.0644694 0.087602 0.800641
0.199893 0.0856641 0.774227
0.342168 0.0823224 0.751019
0.496208 0.0755474 0.734508
0.64419 0.0711376 0.72781
0.780804 0.0709239 0.727596
0.910445 0.0740368 0.730694
1 0.0798505 0.736522
0 0.218753 0.826749
0.0517586 0.21384 0.812222
0.199054 0.211582 0.791745
0.351049 0.209934 0.766018
0.509819 0.207416 0.748669
0.662348 0.208087 0.745968
0.804181 0.213092 0.750973
0.93901 0.221378 0.759258
1 0.230838 0.768719
0 0.363577 0.809705
0.0258183 0.362051 0.805722
0.183474 0.36231 0.8
0.352529 0.361746 0.783551
0.522057 0.363165 0.762798
0.677333 0.36733 0.760952
0.820371 0.373526 0.767147
0.954803 0.38143 0.775051
1 0.389258 0.782879
0 0.531716 0.786404
0 0.534203 0.788663
0.159365 0.5364 0.790341
0.333516 0.534295 0.786419
0.518486 0.529122 0.770306
0.674632 0.531151 0.758251
0.816068 0.53576 0.762844
0.949233 0.542382 0.769482
1 0.54905 0.77615
0 0.704509 0.772503
0 0.705608 0.773602
0.139635 0.70576 0.773754
0.311543 0.70219 0.770184
0.496849 0.694484 0.762478
0.672587 0.688212 0.756207
0.812146 0.690944 0.758938
0.94258 0.694835 0.762829
1 0.698054 0.766033
0 0.867155 0.762783
0 0.866789 0.762539
0.129244 0.865599 0.761578
0.299611 0.859419 0.755962
0.483818 0.847974 0.74641
0.662104 0.83624 0.745724
0.808896 0.832395 0.755688
0.937362 0.834318 0.75761
1 0.836378 0.75967
0 1 0.753246
0 1 0.750225
0.11812 1 0.746944
0.28777 1 0.740337
0.472663 0.989349 0.732204
0.651148 0.975921 0.734768
0.805112 0.968322 0.748989
0.934752 0.968536 0.755001
1 0.970214 0.756695
0 1 0.735836
0 1 0.732326
0.104219 1 0.729229
0.274617 1 0.723781
0.46038 1 0.718013
0.638636 1 0.722255
0.796155 1 0.737057
0.931334 1 0.749447
1 1 0.75407
0 0 0.950774
0.0603647 0 0.922072
0.189517 0 0.89604
0.328969 0 0.872679
0.480888 0 0.852705
0.625467 0 0.841184
0.758572 0 0.837217
0.884886 0 0.837003
1 0 0.838468
0 0.0901808 0.969467
0.0625467 0.0856641 0.94464
0.199115 0.0836805 0.918105
0.343359 0.0801099 0.892164
0.498329 0.0741588 0.871382
0.645335 0.0709087 0.861158
0.78146 0.0715801 0.860105
0.91165 0.075227 0.863752
1 0.08159 0.8701
0 0.216541 0.974426
0.0515145 0.212406 0.958053
0.198306 0.210834 0.936934
0.352163 0.209155 0.910765
0.513634 0.207462 0.889235
0.665537 0.209567 0.88159
0.806455 0.215366 0.8851
0.941604 0.223972 0.893706
1 0.233524 0.903258
0 0.362097 0.962661
0.0285496 0.361471 0.957046
0.185779 0.362737 0.948714
0.354025 0.363241 0.930999
0.526238 0.364279 0.907958
0.681483 0.369238 0.898085
0.822828 0.375998 0.901473
0.956939 0.383566 0.909041
1 0.391241 0.916716
0 0.531777 0.944427
0.0028687 0.53434 0.9458
0.162936 0.536309 0.945312
0.336767 0.534554 0.937575
0.519539 0.530175 0.917311
0.678447 0.531975 0.896925
0.818006 0.537697 0.896635
0.950988 0.544137 0.90309
1 0.550256 0.909209
0 0.704448 0.931991
0 0.705211 0.932647
0.140856 0.705409 0.932631
0.31313 0.701671 0.928374
0.498817 0.693568 0.918456
0.672984 0.688609 0.902556
0.813169 0.691966 0.891814
0.943236 0.695491 0.895338
1 0.698528 0.898375
0 0.867247 0.922393
0 0.866758 0.921904
0.126726 0.865446 0.920592
0.295933 0.859174 0.914321
0.477684 0.847913 0.903059
0.650431 0.838651 0.893797
0.809201 0.8327 0.887846
0.93753 0.834485 0.889632
1 0.83653 0.891676
0 1 0.911315
0 1 0.907759
0.111208 1 0.903639
0.278721 1 0.895338
0.459937 0.99147 0.88304
0.633661 0.980529 0.873991
0.797177 0.971313 0.875822
0.934661 0.968444 0.886763
1 0.97026 0.888594
0 1 0.89221
0 1 0.887831
0.0938582 1 0.883146
0.261662 1 0.874769
0.444083 1 0.863401
0.619928 1 0.857221
0.784466 1 0.863111
0.930022 1 0.879225
1 1 0.886076
0 0 1
0.0590982 0 1
0.18967 0 1
0.330434 0 1
0.483101 0 0.980377
0.627359 0 0.965911
0.759503 0 0.959838
0.885451 0 0.959075
1 0 0.960922
0 0.0886854 1
0.0614176 0.0845502 1
0.198886 0.0826123 1
0.3449 0.0789349 1
0.501305 0.0733349 1
0.648432 0.0708934 0.987671
0.78352 0.0724804 0.983902
0.913848 0.0774395 0.987472
1 0.0843214 0.994369
0 0.215396 1
0.0519265 0.211994 1
0.198489 0.211017 1
0.353765 0.209537 1
0.5178 0.208225 1
0.670741 0.211261 1
0.810651 0.218173 1
0.944991 0.227359 1
1 0.236896 1
0 0.361898 1
0.0318761 0.362127 1
0.188418 0.364187 1
0.356329 0.365545 1
0.530175 0.366308 1
0.686824 0.370809 1
0.827054 0.3785 1
0.959777 0.386404 1
1 0.393683 1
0 0.532601 1
0.00738537 0.535164 1
0.167376 0.537438 1
0.339971 0.535866 1
0.521279 0.531914 1
0.682689 0.53315 1
0.822156 0.539605 1
0.953414 0.546578 1
1 0.552422 1
0 0.704845 1
0 0.705287 1
0.144366 0.705562 1
0.316869 0.701762 1
0.502052 0.693828 1
0.674037 0.689662 1
0.816815 0.692607 1
0.94432 0.696574 1
1 0.699687 1
0 0.867384 1
0 0.866743 1
0.12755 0.865049 1
0.296742 0.858427 1
0.478691 0.84683 1
0.652033 0.837385 1
0.809216 0.8327 1
0.938308 0.835264 1
1 0.8374 1
0 1 1
0 1 1
0.108904 1 1
0.275669 1 1
0.45623 0.99118 1
0.627924 0.98088 1
0.785901 0.974121 1
0.935454 0.969238 1
1 0.971054 1
0 1 1
0 1 1
0.0885786 1 1
0.254994 1 1
0.435554 1 1
0.607828 1 0.998337
0.767666 1 0.992706
0.922866 1 0.99649
1 1 1
0 0 1
0.057969 0 1
0.189685 0 1
0.331716 0 1
0.485481 0 1
0.630014 0 1
0.7617 0 1
0.886915 0 1
1 0 1
0 0.0874952 1
0.0605478 0.0836652 1
0.198734 0.0818647 1
0.346303 0.0782025 1
0.50428 0.0728008 1
0.652201 0.0709239 1
0.787213 0.0734417 1
0.917052 0.0796368 1
1 0.0874037 1
0 0.214649 1
0.0524758 0.211948 1
0.198856 0.211383 1
0.355581 0.210513 1
0.521691 0.209415 1
0.675914 0.212634 1
0.816236 0.220661 1
0.949416 0.23064 1
1 0.240284 1
0 0.362325 1
0.0352789 0.363439 1
0.191318 0.366262 1
0.358846 0.368063 1
0.53373 0.368658 1
0.692149 0.372732 1
0.832441 0.380392 1
0.963699 0.388937 1
1 0.396582 1
0 0.533806 1
0.0120546 0.536416 1
0.171557 0.538964 1
0.342855 0.537575 1
0.522896 0.533532 1
0.686061 0.53463 1
0.827222 0.540902 1
0.957061 0.548486 1
1 0.554696 1
0 0.705318 1
0 0.705699 1
0.148516 0.70602 1
0.320714 0.702296 1
0.504738 0.694636 1
0.67509 0.690715 1
0.820111 0.692836 1
0.947326 0.697337 1
1 0.70103 1
0 0.867491 1
0 0.866621 1
0.129946 0.864469 1
0.298924 0.857237 1
0.4813 0.845792 1
0.654307 0.836683 1
0.809247 0.832746 1
0.941344 0.835294 1
1 0.838453 1
0 1 1
0 1 1
0.108919 1 1
0.275807 1 1
0.45658 0.989975 1
0.628672 0.979538 1
0.787152 0.972503 1
0.935409 0.969192 1
1 0.972045 1
0 1 1
0 1 1
0.0864576 1 1
0.252583 1 1
0.4327 1 1
0.604181 1 1
0.761913 1 1
0.911833 1 1
1 1 1
