assets/core/filters/luts/06_Film Emulation LUTs_Matte.cube
TITLE "Generated by Resolve"
LUT_3D_SIZE 5
0 0.00396735 0.0264591
0.197147 0 0.0136263
0.490364 0 0
0.76846 0 0
1 0 0
0 0.230503 0.00683604
0.207828 0.220356 0.0242924
0.509972 0.209812 0.0137636
0.800107 0.209018 0.0129549
1 0.22356 0.027512
0 0.520333 0
0.192172 0.521294 0.00283818
0.51342 0.524056 0.0172122
0.811856 0.531563 0.0247196
1 0.545678 0.0388495
0 0.849195 0
0.195041 0.845716 0
0.520882 0.837446 0.0204013
0.812146 0.835645 0.0250095
1 0.840879 0.0302434
0 1 0
0.188693 1 0
0.516564 1 0.00875868
0.808789 1 0.0184176
1 1 0.0252689
0 0 0.323781
0.192615 0 0.287968
0.486732 0 0.269398
0.765576 0 0.257298
1 0 0.256596
0 0.231907 0.314733
0.20621 0.218738 0.301564
0.509972 0.209812 0.292638
0.802289 0.2112 0.294026
1 0.227237 0.310063
0 0.532235 0.254551
0.180301 0.531228 0.275654
0.51722 0.527855 0.299901
0.814725 0.534417 0.306462
1 0.548287 0.320317
0 0.862547 0.243565
0.173648 0.856001 0.269001
0.519417 0.839643 0.296284
0.812009 0.835508 0.303746
1 0.84033 0.308568
0 1 0.23592
0.160891 1 0.25626
0.507118 1 0.278019
0.807095 1 0.29456
1 1 0.303212
0 0 0.648478
0.190463 0 0.597528
0.481392 0 0.569757
0.760998 0 0.558434
1 0 0.558572
0 0.222843 0.661418
0.201144 0.213672 0.630381
0.508339 0.208179 0.596704
0.803418 0.212314 0.600839
1 0.229435 0.617945
0 0.532708 0.610437
0.158404 0.53753 0.615259
0.518624 0.529259 0.606989
0.815381 0.535088 0.612818
1 0.548714 0.626459
0 0.867262 0.587686
0.138415 0.864988 0.589197
0.502144 0.844205 0.590509
0.809796 0.833295 0.607233
1 0.837476 0.611399
0 1 0.566201
0.120714 1 0.565393
0.480476 1 0.568841
0.801633 1 0.593256
1 1 0.605844
0 0 0.950774
0.189517 0 0.89604
0.480888 0 0.852705
0.758572 0 0.837217
1 0 0.838468
0 0.216541 0.974426
0.198306 0.210834 0.936934
0.513634 0.207462 0.889235
0.806455 0.215366 0.8851
1 0.233524 0.903258
0 0.531777 0.944427
0.162936 0.536309 0.945312
0.519539 0.530175 0.917311
0.818006 0.537697 0.896635
1 0.550256 0.909209
0 0.867247 0.922393
0.126726 0.865446 0.920592
0.477684 0.847913 0.903059
0.809201 0.8327 0.887846
1 0.83653 0.891676
0 1 0.89221
0.0938582 1 0.883146
0.444083 1 0.863401
0.784466 1 0.863111
1 1 0.886076
0 0 1
0.189685 0 1
0.485481 0 1
0.7617 0 1
1 0 1
0 0.214649 1
0.198856 0.211383 1
0.521691 0.209415 1
0.816236 0.220661 1
1 0.240284 1
0 0.533806 1
0.171557 0.538964 1
0.522896 0.533532 1
0.827222 0.540902 1
1 0.554696 1
0 0.867491 1
0.129946 0.864469 1
0.4813 0.845792 1
0.809247 0.832746 1
1 0.838453 1
0 1 1
0.0864576 1 1
0.4327 1 1
0.761913 1 1
1 1 1
