assets/core/filters/luts/07_Color LUTs_B & W.cube
TITLE "Generated by Resolve"
LUT_3D_SIZE 9
0 0 0
0.0207675 0.0207675 0.0207675
0.0412146 0.0412146 0.0412146
0.0614633 0.0614633 0.0614633
0.0816358 0.0816358 0.0816358
0.101991 0.101991 0.101991
0.122652 0.122652 0.122652
0.144396 0.144396 0.144396
0.167437 0.167437 0.167437
0.0688029 0.0688029 0.0688029
0.0890211 0.0890211 0.0890211
0.109361 0.109361 0.109361
0.130495 0.130495 0.130495
0.15259 0.15259 0.15259
0.175906 0.175906 0.175906
0.20148 0.20148 0.20148
0.22945 0.22945 0.22945
0.259739 0.259739 0.259739
0.13846 0.13846 0.13846
0.161059 0.161059 0.161059
0.185 0.185 0.185
0.211292 0.211292 0.211292
0.240146 0.240146 0.240146
0.271061 0.271061 0.271061
0.30425 0.30425 0.30425
0.33901 0.33901 0.33901
0.374762 0.374762 0.374762
0.221622 0.221622 0.221622
0.251148 0.251148 0.251148
0.282856 0.282856 0.282856
0.316747 0.316747 0.316747
0.352056 0.352056 0.352056
0.387732 0.387732 0.387732
0.42385 0.42385 0.42385
0.459342 0.459342 0.459342
0.493248 0.493248 0.493248
0.329442 0.329442 0.329442
0.364782 0.364782 0.364782
0.400977 0.400977 0.400977
0.436896 0.436896 0.436896
0.471733 0.471733 0.471733
0.505577 0.505577 0.505577
0.539254 0.539254 0.539254
0.57351 0.57351 0.57351
0.60763 0.60763 0.60763
0.449805 0.449805 0.449805
0.484047 0.484047 0.484047
0.517845 0.517845 0.517845
0.551736 0.551736 0.551736
0.585794 0.585794 0.585794
0.620111 0.620111 0.620111
0.653758 0.653758 0.653758
0.685969 0.685969 0.685969
0.716777 0.716777 0.716777
0.564034 0.564034 0.564034
0.598352 0.598352 0.598352
0.632456 0.632456 0.632456
0.665766 0.665766 0.665766
0.697444 0.697444 0.697444
0.727687 0.727687 0.727687
0.755978 0.755978 0.755978
0.782147 0.782147 0.782147
0.806912 0.806912 0.806912
0.677241 0.677241 0.677241
0.708659 0.708659 0.708659
0.738308 0.738308 0.738308
0.765667 0.765667 0.765667
0.791348 0.791348 0.791348
0.815564 0.815564 0.815564
0.838651 0.838651 0.838651
0.860609 0.860609 0.860609
0.882063 0.882063 0.882063
0.775265 0.775265 0.775265
0.800397 0.800397 0.800397
0.82414 0.82414 0.82414
0.846601 0.846601 0.846601
0.868482 0.868482 0.868482
0.889738 0.889738 0.889738
0.910506 0.910506 0.910506
0.930846 0.930846 0.930846
0.951217 0.951217 0.951217
0.00680552 0.00680552 0.00680552
0.027863 0.027863 0.027863
0.048127 0.048127 0.048127
0.0682994 0.0682994 0.0682994
0.0885176 0.0885176 0.0885176
0.108888 0.108888 0.108888
0.129946 0.129946 0.129946
0.152026 0.152026 0.152026
0.175433 0.175433 0.175433
0.0756695 0.0756695 0.0756695
0.0958267 0.0958267 0.0958267
0.116442 0.116442 0.116442
0.137911 0.137911 0.137911
0.160479 0.160479 0.160479
0.18436 0.18436 0.18436
0.210605 0.210605 0.210605
0.239399 0.239399 0.239399
0.270268 0.270268 0.270268
0.145937 0.145937 0.145937
0.168841 0.168841 0.168841
0.193774 0.193774 0.193774
0.22089 0.22089 0.22089
0.250462 0.250462 0.250462
0.282032 0.282032 0.282032
0.315877 0.315877 0.315877
0.351141 0.351141 0.351141
0.386831 0.386831 0.386831
0.231479 0.231479 0.231479
0.261646 0.261646 0.261646
0.294194 0.294194 0.294194
0.328557 0.328557 0.328557
0.363882 0.363882 0.363882
0.400061 0.400061 0.400061
0.435996 0.435996 0.435996
0.471046 0.471046 0.471046
0.504738 0.504738 0.504738
0.341497 0.341497 0.341497
0.377035 0.377035 0.377035
0.413245 0.413245 0.413245
0.448997 0.448997 0.448997
0.483192 0.483192 0.483192
0.516991 0.516991 0.516991
0.550866 0.550866 0.550866
0.585122 0.585122 0.585122
0.619257 0.619257 0.619257
0.461601 0.461601 0.461601
0.495613 0.495613 0.495613
0.529259 0.529259 0.529259
0.563378 0.563378 0.563378
0.597482 0.597482 0.597482
0.631617 0.631617 0.631617
0.664958 0.664958 0.664958
0.696651 0.696651 0.696651
0.72694 0.72694 0.72694
0.575647 0.575647 0.575647
0.610025 0.610025 0.610025
0.64387 0.64387 0.64387
0.676539 0.676539 0.676539
0.707897 0.707897 0.707897
0.737591 0.737591 0.737591
0.765164 0.765164 0.765164
0.790722 0.790722 0.790722
0.814969 0.814969 0.814969
0.688106 0.688106 0.688106
0.718868 0.718868 0.718868
0.747829 0.747829 0.747829
0.774609 0.774609 0.774609
0.799786 0.799786 0.799786
0.82356 0.82356 0.82356
0.846082 0.846082 0.846082
0.867933 0.867933 0.867933
0.889204 0.889204 0.889204
0.783902 0.783902 0.783902
0.808576 0.808576 0.808576
0.831983 0.831983 0.831983
0.854154 0.854154 0.854154
0.875761 0.875761 0.875761
0.896834 0.896834 0.896834
0.917327 0.917327 0.917327
0.937774 0.937774 0.937774
0.958144 0.958144 0.958144
0.0140078 0.0140078 0.0140078
0.0348058 0.0348058 0.0348058
0.0550088 0.0550088 0.0550088
0.0751507 0.0751507 0.0751507
0.0954147 0.0954147 0.0954147
0.115923 0.115923 0.115923
0.137362 0.137362 0.137362
0.159899 0.159899 0.159899
0.183795 0.183795 0.183795
0.082536 0.082536 0.082536
0.102754 0.102754 0.102754
0.123598 0.123598 0.123598
0.145373 0.145373 0.145373
0.168383 0.168383 0.168383
0.193118 0.193118 0.193118
0.220172 0.220172 0.220172
0.249683 0.249683 0.249683
0.281209 0.281209 0.281209
0.153613 0.153613 0.153613
0.176989 0.176989 0.176989
0.202655 0.202655 0.202655
0.230747 0.230747 0.230747
0.260884 0.260884 0.260884
0.293339 0.293339 0.293339
0.327672 0.327672 0.327672
0.363134 0.363134 0.363134
0.399161 0.399161 0.399161
0.241306 0.241306 0.241306
0.27248 0.27248 0.27248
0.305776 0.305776 0.305776
0.340597 0.340597 0.340597
0.37612 0.37612 0.37612
0.412345 0.412345 0.412345
0.448096 0.448096 0.448096
0.482322 0.482322 0.482322
0.516152 0.516152 0.516152
0.353307 0.353307 0.353307
0.389349 0.389349 0.389349
0.425437 0.425437 0.425437
0.460883 0.460883 0.460883
0.494759 0.494759 0.494759
0.528405 0.528405 0.528405
0.562539 0.562539 0.562539
0.596613 0.596613 0.596613
0.630762 0.630762 0.630762
0.473106 0.473106 0.473106
0.507088 0.507088 0.507088
0.540764 0.540764 0.540764
0.574777 0.574777 0.574777
0.609155 0.609155 0.609155
0.64303 0.64303 0.64303
0.675914 0.675914 0.675914
0.707134 0.707134 0.707134
0.736873 0.736873 0.736873
0.58732 0.58732 0.58732
0.621637 0.621637 0.621637
0.655238 0.655238 0.655238
0.687312 0.687312 0.687312
0.71812 0.71812 0.71812
0.747143 0.747143 0.747143
0.774075 0.774075 0.774075
0.799161 0.799161 0.799161
0.822965 0.822965 0.822965
0.698833 0.698833 0.698833
0.729 0.729 0.729
0.757137 0.757137 0.757137
0.783276 0.783276 0.783276
0.80798 0.80798 0.80798
0.831403 0.831403 0.831403
0.853605 0.853605 0.853605
0.875227 0.875227 0.875227
0.8963 0.8963 0.8963
0.792462 0.792462 0.792462
0.816617 0.816617 0.816617
0.839475 0.839475 0.839475
0.86157 0.86157 0.86157
0.882994 0.882994 0.882994
0.903822 0.903822 0.903822
0.924285 0.924285 0.924285
0.944686 0.944686 0.944686
0.965072 0.965072 0.965072
0.0211795 0.0211795 0.0211795
0.0415961 0.0415961 0.0415961
0.0618601 0.0618601 0.0618601
0.0820325 0.0820325 0.0820325
0.102373 0.102373 0.102373
0.123064 0.123064 0.123064
0.144823 0.144823 0.144823
0.167895 0.167895 0.167895
0.192477 0.192477 0.192477
0.0894179 0.0894179 0.0894179
0.109758 0.109758 0.109758
0.130907 0.130907 0.130907
0.153033 0.153033 0.153033
0.176379 0.176379 0.176379
0.201999 0.201999 0.201999
0.230015 0.230015 0.230015
0.260273 0.260273 0.260273
0.2925 0.2925 0.2925
0.161456 0.161456 0.161456
0.185489 0.185489 0.185489
0.211826 0.211826 0.211826
0.240726 0.240726 0.240726
0.271672 0.271672 0.271672
0.304906 0.304906 0.304906
0.339696 0.339696 0.339696
0.37528 0.37528 0.37528
0.411429 0.411429 0.411429
0.251591 0.251591 0.251591
0.283497 0.283497 0.283497
0.317418 0.317418 0.317418
0.352575 0.352575 0.352575
0.388434 0.388434 0.388434
0.424552 0.424552 0.424552
0.460014 0.460014 0.460014
0.493904 0.493904 0.493904
0.527565 0.527565 0.527565
0.365484 0.365484 0.365484
0.401679 0.401679 0.401679
0.437583 0.437583 0.437583
0.472236 0.472236 0.472236
0.506233 0.506233 0.506233
0.53991 0.53991 0.53991
0.574014 0.574014 0.574014
0.608301 0.608301 0.608301
0.642191 0.642191 0.642191
0.484718 0.484718 0.484718
0.518486 0.518486 0.518486
0.552392 0.552392 0.552392
0.586465 0.586465 0.586465
0.620768 0.620768 0.620768
0.654398 0.654398 0.654398
0.686503 0.686503 0.686503
0.717357 0.717357 0.717357
0.746441 0.746441 0.746441
0.599008 0.599008 0.599008
0.633112 0.633112 0.633112
0.666392 0.666392 0.666392
0.698054 0.698054 0.698054
0.728252 0.728252 0.728252
0.756512 0.756512 0.756512
0.782635 0.782635 0.782635
0.807385 0.807385 0.807385
0.830823 0.830823 0.830823
0.709255 0.709255 0.709255
0.738857 0.738857 0.738857
0.766186 0.766186 0.766186
0.791836 0.791836 0.791836
0.816022 0.816022 0.816022
0.839063 0.839063 0.839063
0.861021 0.861021 0.861021
0.88246 0.88246 0.88246
0.90338 0.90338 0.90338
0.80087 0.80087 0.80087
0.824598 0.824598 0.824598
0.847028 0.847028 0.847028
0.868894 0.868894 0.868894
0.890135 0.890135 0.890135
0.910811 0.910811 0.910811
0.931228 0.931228 0.931228
0.951614 0.951614 0.951614
0.971969 0.971969 0.971969
0.0282597 0.0282597 0.0282597
0.0485237 0.0485237 0.0485237
0.0686961 0.0686961 0.0686961
0.0889143 0.0889143 0.0889143
0.109239 0.109239 0.109239
0.130373 0.130373 0.130373
0.152468 0.152468 0.152468
0.175784 0.175784 0.175784
0.201343 0.201343 0.201343
0.0961318 0.0961318 0.0961318
0.116838 0.116838 0.116838
0.138323 0.138323 0.138323
0.160922 0.160922 0.160922
0.184848 0.184848 0.184848
0.211124 0.211124 0.211124
0.239979 0.239979 0.239979
0.270878 0.270878 0.270878
0.304051 0.304051 0.304051
0.169299 0.169299 0.169299
0.194278 0.194278 0.194278
0.221454 0.221454 0.221454
0.251011 0.251011 0.251011
0.282673 0.282673 0.282673
0.316548 0.316548 0.316548
0.351843 0.351843 0.351843
0.387533 0.387533 0.387533
0.423636 0.423636 0.423636
0.262272 0.262272 0.262272
0.29485 0.29485 0.29485
0.329244 0.329244 0.329244
0.364569 0.364569 0.364569
0.400763 0.400763 0.400763
0.436698 0.436698 0.436698
0.47158 0.47158 0.47158
0.505394 0.505394 0.505394
0.539055 0.539055 0.539055
0.377737 0.377737 0.377737
0.413947 0.413947 0.413947
0.449653 0.449653 0.449653
0.483848 0.483848 0.483848
0.517647 0.517647 0.517647
0.551537 0.551537 0.551537
0.585611 0.585611 0.585611
0.619913 0.619913 0.619913
0.653559 0.653559 0.653559
0.496269 0.496269 0.496269
0.5299 0.5299 0.5299
0.563882 0.563882 0.563882
0.598138 0.598138 0.598138
0.632258 0.632258 0.632258
0.665583 0.665583 0.665583
0.697261 0.697261 0.697261
0.727504 0.727504 0.727504
0.75581 0.75581 0.75581
0.610697 0.610697 0.610697
0.644526 0.644526 0.644526
0.677043 0.677043 0.677043
0.708476 0.708476 0.708476
0.73814 0.73814 0.73814
0.76556 0.76556 0.76556
0.791196 0.791196 0.791196
0.815427 0.815427 0.815427
0.838514 0.838514 0.838514
0.719448 0.719448 0.719448
0.748363 0.748363 0.748363
0.775113 0.775113 0.775113
0.800259 0.800259 0.800259
0.824002 0.824002 0.824002
0.846479 0.846479 0.846479
0.868345 0.868345 0.868345
0.889616 0.889616 0.889616
0.910414 0.910414 0.910414
0.809033 0.809033 0.809033
0.83241 0.83241 0.83241
0.854582 0.854582 0.854582
0.876188 0.876188 0.876188
0.897231 0.897231 0.897231
0.917708 0.917708 0.917708
0.93817 0.93817 0.93817
0.958541 0.958541 0.958541
0.97879 0.97879 0.97879
0.035111 0.035111 0.035111
0.0554055 0.0554055 0.0554055
0.0755474 0.0755474 0.0755474
0.0957504 0.0957504 0.0957504
0.11632 0.11632 0.11632
0.137789 0.137789 0.137789
0.160342 0.160342 0.160342
0.184222 0.184222 0.184222
0.210452 0.210452 0.210452
0.103105 0.103105 0.103105
0.12401 0.12401 0.12401
0.1458 0.1458 0.1458
0.168734 0.168734 0.168734
0.193622 0.193622 0.193622
0.220722 0.220722 0.220722
0.250278 0.250278 0.250278
0.281849 0.281849 0.281849
0.315679 0.315679 0.315679
0.177462 0.177462 0.177462
0.203174 0.203174 0.203174
0.231312 0.231312 0.231312
0.261463 0.261463 0.261463
0.293996 0.293996 0.293996
0.328359 0.328359 0.328359
0.363668 0.363668 0.363668
0.399847 0.399847 0.399847
0.435798 0.435798 0.435798
0.273106 0.273106 0.273106
0.306432 0.306432 0.306432
0.341299 0.341299 0.341299
0.376822 0.376822 0.376822
0.413046 0.413046 0.413046
0.448783 0.448783 0.448783
0.482994 0.482994 0.482994
0.516808 0.516808 0.516808
0.550668 0.550668 0.550668
0.390051 0.390051 0.390051
0.426139 0.426139 0.426139
0.461448 0.461448 0.461448
0.495415 0.495415 0.495415
0.529061 0.529061 0.529061
0.56321 0.56321 0.56321
0.597284 0.597284 0.597284
0.631418 0.631418 0.631418
0.664759 0.664759 0.664759
0.507729 0.507729 0.507729
0.541421 0.541421 0.541421
0.575433 0.575433 0.575433
0.609827 0.609827 0.609827
0.643687 0.643687 0.643687
0.676402 0.676402 0.676402
0.707713 0.707713 0.707713
0.737423 0.737423 0.737423
0.765042 0.765042 0.765042
0.622293 0.622293 0.622293
0.655818 0.655818 0.655818
0.687922 0.687922 0.687922
0.7187 0.7187 0.7187
0.747677 0.747677 0.747677
0.774472 0.774472 0.774472
0.799649 0.799649 0.799649
0.823423 0.823423 0.823423
0.845975 0.845975 0.845975
0.72958 0.72958 0.72958
0.757534 0.757534 0.757534
0.783764 0.783764 0.783764
0.808438 0.808438 0.808438
0.831846 0.831846 0.831846
0.854032 0.854032 0.854032
0.875639 0.875639 0.875639
0.896712 0.896712 0.896712
0.917205 0.917205 0.917205
0.817075 0.817075 0.817075
0.839857 0.839857 0.839857
0.861997 0.861997 0.861997
0.883406 0.883406 0.883406
0.904128 0.904128 0.904128
0.924681 0.924681 0.924681
0.945083 0.945083 0.945083
0.965469 0.965469 0.965469
0.985779 0.985779 0.985779
0.0419928 0.0419928 0.0419928
0.0622416 0.0622416 0.0622416
0.082414 0.082414 0.082414
0.102678 0.102678 0.102678
0.123476 0.123476 0.123476
0.145251 0.145251 0.145251
0.168292 0.168292 0.168292
0.192981 0.192981 0.192981
0.22002 0.22002 0.22002
0.11017 0.11017 0.11017
0.131334 0.131334 0.131334
0.153475 0.153475 0.153475
0.176852 0.176852 0.176852
0.202502 0.202502 0.202502
0.230579 0.230579 0.230579
0.260746 0.260746 0.260746
0.293141 0.293141 0.293141
0.327474 0.327474 0.327474
0.185992 0.185992 0.185992
0.21236 0.21236 0.21236
0.241169 0.241169 0.241169
0.272297 0.272297 0.272297
0.305577 0.305577 0.305577
0.340398 0.340398 0.340398
0.375921 0.375921 0.375921
0.412131 0.412131 0.412131
0.447898 0.447898 0.447898
0.284138 0.284138 0.284138
0.31809 0.31809 0.31809
0.353094 0.353094 0.353094
0.389136 0.389136 0.389136
0.425238 0.425238 0.425238
0.460685 0.460685 0.460685
0.49456 0.49456 0.49456
0.528206 0.528206 0.528206
0.562341 0.562341 0.562341
0.40238 0.40238 0.40238
0.438285 0.438285 0.438285
0.472908 0.472908 0.472908
0.506889 0.506889 0.506889
0.540566 0.540566 0.540566
0.574563 0.574563 0.574563
0.608957 0.608957 0.608957
0.642832 0.642832 0.642832
0.675731 0.675731 0.675731
0.519142 0.519142 0.519142
0.553063 0.553063 0.553063
0.587121 0.587121 0.587121
0.621424 0.621424 0.621424
0.655039 0.655039 0.655039
0.687114 0.687114 0.687114
0.717937 0.717937 0.717937
0.746975 0.746975 0.746975
0.773968 0.773968 0.773968
0.633768 0.633768 0.633768
0.666896 0.666896 0.666896
0.69865 0.69865 0.69865
0.728817 0.728817 0.728817
0.757015 0.757015 0.757015
0.783123 0.783123 0.783123
0.807843 0.807843 0.807843
0.831266 0.831266 0.831266
0.853468 0.853468 0.853468
0.739406 0.739406 0.739406
0.766705 0.766705 0.766705
0.792325 0.792325 0.792325
0.81648 0.81648 0.81648
0.839384 0.839384 0.839384
0.861448 0.861448 0.861448
0.882872 0.882872 0.882872
0.903731 0.903731 0.903731
0.924163 0.924163 0.924163
0.824979 0.824979 0.824979
0.847471 0.847471 0.847471
0.869307 0.869307 0.869307
0.890547 0.890547 0.890547
0.911131 0.911131 0.911131
0.931624 0.931624 0.931624
0.951995 0.951995 0.951995
0.972259 0.972259 0.972259
0.992828 0.992828 0.992828
0.0489204 0.0489204 0.0489204
0.0690929 0.0690929 0.0690929
0.0892958 0.0892958 0.0892958
0.109651 0.109651 0.109651
0.130785 0.130785 0.130785
0.152911 0.152911 0.152911
0.176242 0.176242 0.176242
0.201846 0.201846 0.201846
0.229862 0.229862 0.229862
0.11725 0.11725 0.11725
0.13875 0.13875 0.13875
0.161349 0.161349 0.161349
0.185336 0.185336 0.185336
0.211673 0.211673 0.211673
0.240558 0.240558 0.240558
0.271489 0.271489 0.271489
0.304707 0.304707 0.304707
0.339498 0.339498 0.339498
0.194781 0.194781 0.194781
0.222004 0.222004 0.222004
0.251453 0.251453 0.251453
0.283299 0.283299 0.283299
0.31722 0.31722 0.31722
0.352422 0.352422 0.352422
0.388235 0.388235 0.388235
0.424338 0.424338 0.424338
0.459815 0.459815 0.459815
0.295506 0.295506 0.295506
0.329915 0.329915 0.329915
0.36527 0.36527 0.36527
0.401465 0.401465 0.401465
0.437385 0.437385 0.437385
0.472084 0.472084 0.472084
0.506035 0.506035 0.506035
0.539712 0.539712 0.539712
0.573861 0.573861 0.573861
0.414649 0.414649 0.414649
0.450172 0.450172 0.450172
0.484504 0.484504 0.484504
0.518288 0.518288 0.518288
0.552193 0.552193 0.552193
0.586252 0.586252 0.586252
0.620584 0.620584 0.620584
0.6542 0.6542 0.6542
0.68632 0.68632 0.68632
0.530556 0.530556 0.530556
0.564416 0.564416 0.564416
0.59881 0.59881 0.59881
0.632914 0.632914 0.632914
0.666209 0.666209 0.666209
0.697856 0.697856 0.697856
0.728084 0.728084 0.728084
0.756344 0.756344 0.756344
0.782483 0.782483 0.782483
0.645182 0.645182 0.645182
0.677668 0.677668 0.677668
0.709072 0.709072 0.709072
0.738689 0.738689 0.738689
0.766033 0.766033 0.766033
0.791684 0.791684 0.791684
0.815885 0.815885 0.815885
0.838941 0.838941 0.838941
0.860899 0.860899 0.860899
0.748898 0.748898 0.748898
0.775616 0.775616 0.775616
0.800732 0.800732 0.800732
0.82446 0.82446 0.82446
0.846906 0.846906 0.846906
0.868757 0.868757 0.868757
0.890013 0.890013 0.890013
0.910719 0.910719 0.910719
0.931121 0.931121 0.931121
0.832746 0.832746 0.832746
0.855009 0.855009 0.855009
0.8766 0.8766 0.8766
0.897597 0.897597 0.897597
0.918105 0.918105 0.918105
0.938567 0.938567 0.938567
0.958923 0.958923 0.958923
0.979187 0.979187 0.979187
0.999863 0.999863 0.999863
0.055787 0.055787 0.055787
0.0759442 0.0759442 0.0759442
0.0960403 0.0960403 0.0960403
0.116732 0.116732 0.116732
0.138216 0.138216 0.138216
0.1608 0.1608 0.1608
0.18471 0.18471 0.18471
0.210986 0.210986 0.210986
0.239826 0.239826 0.239826
0.124422 0.124422 0.124422
0.146227 0.146227 0.146227
0.169162 0.169162 0.169162
0.194125 0.194125 0.194125
0.221286 0.221286 0.221286
0.250874 0.250874 0.250874
0.282475 0.282475 0.282475
0.31635 0.31635 0.31635
0.351629 0.351629 0.351629
0.203677 0.203677 0.203677
0.231876 0.231876 0.231876
0.262074 0.262074 0.262074
0.294652 0.294652 0.294652
0.32903 0.32903 0.32903
0.36437 0.36437 0.36437
0.400549 0.400549 0.400549
0.436484 0.436484 0.436484
0.471443 0.471443 0.471443
0.307103 0.307103 0.307103
0.341894 0.341894 0.341894
0.377523 0.377523 0.377523
0.413733 0.413733 0.413733
0.44947 0.44947 0.44947
0.48365 0.48365 0.48365
0.517449 0.517449 0.517449
0.551324 0.551324 0.551324
0.585473 0.585473 0.585473
0.426825 0.426825 0.426825
0.461952 0.461952 0.461952
0.496071 0.496071 0.496071
0.529717 0.529717 0.529717
0.563729 0.563729 0.563729
0.59794 0.59794 0.59794
0.632074 0.632074 0.632074
0.665385 0.665385 0.665385
0.697078 0.697078 0.697078
0.542092 0.542092 0.542092
0.576104 0.576104 0.576104
0.610483 0.610483 0.610483
0.644327 0.644327 0.644327
0.67686 0.67686 0.67686
0.708309 0.708309 0.708309
0.737972 0.737972 0.737972
0.765438 0.765438 0.765438
0.791058 0.791058 0.791058
0.656306 0.656306 0.656306
0.688533 0.688533 0.688533
0.71928 0.71928 0.71928
0.748211 0.748211 0.748211
0.77496 0.77496 0.77496
0.800122 0.800122 0.800122
0.823865 0.823865 0.823865
0.846342 0.846342 0.846342
0.868223 0.868223 0.868223
0.758007 0.758007 0.758007
0.784253 0.784253 0.784253
0.808896 0.808896 0.808896
0.832288 0.832288 0.832288
0.854444 0.854444 0.854444
0.876051 0.876051 0.876051
0.897108 0.897108 0.897108
0.917601 0.917601 0.917601
0.938048 0.938048 0.938048
0.840299 0.840299 0.840299
0.862409 0.862409 0.862409
0.883818 0.883818 0.883818
0.904509 0.904509 0.904509
0.925078 0.925078 0.925078
0.94548 0.94548 0.94548
0.96585 0.96585 0.96585
0.986175 0.986175 0.986175
1 1 1
