assets/core/filters/luts/07_Color LUTs_B & W.cube
TITLE "Generated by Resolve"
LUT_3D_SIZE 5
0 0 0
0.0412146 0.0412146 0.0412146
0.0816358 0.0816358 0.0816358
0.122652 0.122652 0.122652
0.167437 0.167437 0.167437
0.13846 0.13846 0.13846
0.185 0.185 0.185
0.240146 0.240146 0.240146
0.30425 0.30425 0.30425
0.374762 0.374762 0.374762
0.329442 0.329442 0.329442
0.400977 0.400977 0.400977
0.471733 0.471733 0.471733
0.539254 0.539254 0.539254
0.60763 0.60763 0.60763
0.564034 0.564034 0.564034
0.632456 0.632456 0.632456
0.697444 0.697444 0.697444
0.755978 0.755978 0.755978
0.806912 0.806912 0.806912
0.775265 0.775265 0.775265
0.82414 0.82414 0.82414
0.868482 0.868482 0.868482
0.910506 0.910506 0.910506
0.951217 0.951217 0.951217
0.0140078 0.0140078 0.0140078
0.0550088 0.0550088 0.0550088
0.0954147 0.0954147 0.0954147
0.137362 0.137362 0.137362
0.183795 0.183795 0.183795
0.153613 0.153613 0.153613
0.202655 0.202655 0.202655
0.260884 0.260884 0.260884
0.327672 0.327672 0.327672
0.399161 0.399161 0.399161
0.353307 0.353307 0.353307
0.425437 0.425437 0.425437
0.494759 0.494759 0.494759
0.562539 0.562539 0.562539
0.630762 0.630762 0.630762
0.58732 0.58732 0.58732
0.655238 0.655238 0.655238
0.71812 0.71812 0.71812
0.774075 0.774075 0.774075
0.822965 0.822965 0.822965
0.792462 0.792462 0.792462
0.839475 0.839475 0.839475
0.882994 0.882994 0.882994
0.924285 0.924285 0.924285
0.965072 0.965072 0.965072
0.0282597 0.0282597 0.0282597
0.0686961 0.0686961 0.0686961
0.109239 0.109239 0.109239
0.152468 0.152468 0.152468
0.201343 0.201343 0.201343
0.169299 0.169299 0.169299
0.221454 0.221454 0.221454
0.282673 0.282673 0.282673
0.351843 0.351843 0.351843
0.423636 0.423636 0.423636
0.377737 0.377737 0.377737
0.449653 0.449653 0.449653
0.517647 0.517647 0.517647
0.585611 0.585611 0.585611
0.653559 0.653559 0.653559
0.610697 0.610697 0.610697
0.677043 0.677043 0.677043
0.73814 0.73814 0.73814
0.791196 0.791196 0.791196
0.838514 0.838514 0.838514
0.809033 0.809033 0.809033
0.854582 0.854582 0.854582
0.897231 0.897231 0.897231
0.93817 0.93817 0.93817
0.97879 0.97879 0.97879
0.0419928 0.0419928 0.0419928
0.082414 0.082414 0.082414
0.123476 0.123476 0.123476
0.168292 0.168292 0.168292
0.22002 0.22002 0.22002
0.185992 0.185992 0.185992
0.241169 0.241169 0.241169
0.305577 0.305577 0.305577
0.375921 0.375921 0.375921
0.447898 0.447898 0.447898
0.40238 0.40238 0.40238
0.472908 0.472908 0.472908
0.540566 0.540566 0.540566
0.608957 0.608957 0.608957
0.675731 0.675731 0.675731
0.633768 0.633768 0.633768
0.69865 0.69865 0.69865
0.757015 0.757015 0.757015
0.807843 0.807843 0.807843
0.853468 0.853468 0.853468
0.824979 0.824979 0.824979
0.869307 0.869307 0.869307
0.911131 0.911131 0.911131
0.951995 0.951995 0.951995
0.992828 0.992828 0.992828
0.055787 0.055787 0.055787
0.0960403 0.0960403 0.0960403
0.138216 0.138216 0.138216
0.18471 0.18471 0.18471
0.239826 0.239826 0.239826
0.203677 0.203677 0.203677
0.262074 0.262074 0.262074
0.32903 0.32903 0.32903
0.400549 0.400549 0.400549
0.471443 0.471443 0.471443
0.426825 0.426825 0.426825
0.496071 0.496071 0.496071
0.563729 0.563729 0.563729
0.632074 0.632074 0.632074
0.697078 0.697078 0.697078
0.656306 0.656306 0.656306
0.71928 0.71928 0.71928
0.77496 0.77496 0.77496
0.823865 0.823865 0.823865
0.868223 0.868223 0.868223
0.840299 0.840299 0.840299
0.883818 0.883818 0.883818
0.925078 0.925078 0.925078
0.96585 0.96585 0.96585
1 1 1
