assets/core/filters/luts/07_Color LUTs_B & W.cube
TITLE "Generated by Resolve"
LUT_3D_SIZE 33
0 0 0
0.00485237 0.00485237 0.00485237
0.0100862 0.0100862 0.0100862
0.0155489 0.0155489 0.0155489
0.0207675 0.0207675 0.0207675
0.0259556 0.0259556 0.0259556
0.0310674 0.0310674 0.0310674
0.0361486 0.0361486 0.0361486
0.0412146 0.0412146 0.0412146
0.0464485 0.0464485 0.0464485
0.0514839 0.0514839 0.0514839
0.0564736 0.0564736 0.0564736
0.0614633 0.0614633 0.0614633
0.066453 0.066453 0.066453
0.0714885 0.0714885 0.0714885
0.0766308 0.0766308 0.0766308
0.0816358 0.0816358 0.0816358
0.086656 0.086656 0.086656
0.0916762 0.0916762 0.0916762
0.0967117 0.0967117 0.0967117
0.101991 0.101991 0.101991
0.107118 0.107118 0.107118
0.112276 0.112276 0.112276
0.117433 0.117433 0.117433
0.122652 0.122652 0.122652
0.128038 0.128038 0.128038
0.133547 0.133547 0.133547
0.138964 0.138964 0.138964
0.144396 0.144396 0.144396
0.149935 0.149935 0.149935
0.155596 0.155596 0.155596
0.161517 0.161517 0.161517
0.167437 0.167437 0.167437
0.017319 0.017319 0.017319
0.0225376 0.0225376 0.0225376
0.0278935 0.0278935 0.0278935
0.03299 0.03299 0.03299
0.038056 0.038056 0.038056
0.0431067 0.0431067 0.0431067
0.0481575 0.0481575 0.0481575
0.0533608 0.0533608 0.0533608
0.0583505 0.0583505 0.0583505
0.0633402 0.0633402 0.0633402
0.0683299 0.0683299 0.0683299
0.0733196 0.0733196 0.0733196
0.0783246 0.0783246 0.0783246
0.0835279 0.0835279 0.0835279
0.0885328 0.0885328 0.0885328
0.0935683 0.0935683 0.0935683
0.0986191 0.0986191 0.0986191
0.103716 0.103716 0.103716
0.108904 0.108904 0.108904
0.114214 0.114214 0.114214
0.119402 0.119402 0.119402
0.124636 0.124636 0.124636
0.129976 0.129976 0.129976
0.135378 0.135378 0.135378
0.140871 0.140871 0.140871
0.146471 0.146471 0.146471
0.152041 0.152041 0.152041
0.157763 0.157763 0.157763
0.163577 0.163577 0.163577
0.169406 0.169406 0.169406
0.175448 0.175448 0.175448
0.181674 0.181674 0.181674
0.187976 0.187976 0.187976
0.0348516 0.0348516 0.0348516
0.0399634 0.0399634 0.0399634
0.0450141 0.0450141 0.0450141
0.0500496 0.0500496 0.0500496
0.0550546 0.0550546 0.0550546
0.0600595 0.0600595 0.0600595
0.0652171 0.0652171 0.0652171
0.070222 0.070222 0.070222
0.0752117 0.0752117 0.0752117
0.0802167 0.0802167 0.0802167
0.0852369 0.0852369 0.0852369
0.0902419 0.0902419 0.0902419
0.0954757 0.0954757 0.0954757
0.100542 0.100542 0.100542
0.105669 0.105669 0.105669
0.110811 0.110811 0.110811
0.115969 0.115969 0.115969
0.121187 0.121187 0.121187
0.12665 0.12665 0.12665
0.132006 0.132006 0.132006
0.137423 0.137423 0.137423
0.142855 0.142855 0.142855
0.148348 0.148348 0.148348
0.154192 0.154192 0.154192
0.15996 0.15996 0.15996
0.165774 0.165774 0.165774
0.171633 0.171633 0.171633
0.177615 0.177615 0.177615
0.183856 0.183856 0.183856
0.190402 0.190402 0.190402
0.196841 0.196841 0.196841
0.203326 0.203326 0.203326
0.209995 0.209995 0.209995
0.051957 0.051957 0.051957
0.0569467 0.0569467 0.0569467
0.0619364 0.0619364 0.0619364
0.0669261 0.0669261 0.0669261
0.0719158 0.0719158 0.0719158
0.0771038 0.0771038 0.0771038
0.0821088 0.0821088 0.0821088
0.087129 0.087129 0.087129
0.0921492 0.0921492 0.0921492
0.0971847 0.0971847 0.0971847
0.102434 0.102434 0.102434
0.107607 0.107607 0.107607
0.112764 0.112764 0.112764
0.117937 0.117937 0.117937
0.123156 0.123156 0.123156
0.128466 0.128466 0.128466
0.134051 0.134051 0.134051
0.139467 0.139467 0.139467
0.144915 0.144915 0.144915
0.150454 0.150454 0.150454
0.15613 0.15613 0.15613
0.161929 0.161929 0.161929
0.167987 0.167987 0.167987
0.173877 0.173877 0.173877
0.179919 0.179919 0.179919
0.186175 0.186175 0.186175
0.192584 0.192584 0.192584
0.199069 0.199069 0.199069
0.205814 0.205814 0.205814
0.212573 0.212573 0.212573
0.219577 0.219577 0.219577
0.226734 0.226734 0.226734
0.233951 0.233951 0.233951
0.0688029 0.0688029 0.0688029
0.0737926 0.0737926 0.0737926
0.0787976 0.0787976 0.0787976
0.0839246 0.0839246 0.0839246
0.0890211 0.0890211 0.0890211
0.0940414 0.0940414 0.0940414
0.0991073 0.0991073 0.0991073
0.104219 0.104219 0.104219
0.109361 0.109361 0.109361
0.114656 0.114656 0.114656
0.11989 0.11989 0.11989
0.125139 0.125139 0.125139
0.130495 0.130495 0.130495
0.135897 0.135897 0.135897
0.141314 0.141314 0.141314
0.146975 0.146975 0.146975
0.15259 0.15259 0.15259
0.158312 0.158312 0.158312
0.164126 0.164126 0.164126
0.16997 0.16997 0.16997
0.175906 0.175906 0.175906
0.182269 0.182269 0.182269
0.188586 0.188586 0.188586
0.19501 0.19501 0.19501
0.20148 0.20148 0.20148
0.208087 0.208087 0.208087
0.215198 0.215198 0.215198
0.222263 0.222263 0.222263
0.22945 0.22945 0.22945
0.236683 0.236683 0.236683
0.244053 0.244053 0.244053
0.251667 0.251667 0.251667
0.259739 0.259739 0.259739
0.0857099 0.0857099 0.0857099
0.0907301 0.0907301 0.0907301
0.0958572 0.0958572 0.0958572
0.10103 0.10103 0.10103
0.106157 0.106157 0.106157
0.111315 0.111315 0.111315
0.116472 0.116472 0.116472
0.121675 0.121675 0.121675
0.127153 0.127153 0.127153
0.132525 0.132525 0.132525
0.137942 0.137942 0.137942
0.143374 0.143374 0.143374
0.148882 0.148882 0.148882
0.154665 0.154665 0.154665
0.16051 0.16051 0.16051
0.166339 0.166339 0.166339
0.172198 0.172198 0.172198
0.178195 0.178195 0.178195
0.18439 0.18439 0.18439
0.190967 0.190967 0.190967
0.197452 0.197452 0.197452
0.203952 0.203952 0.203952
0.210651 0.210651 0.210651
0.217578 0.217578 0.217578
0.224704 0.224704 0.224704
0.232181 0.232181 0.232181
0.239445 0.239445 0.239445
0.246906 0.246906 0.246906
0.254566 0.254566 0.254566
0.262409 0.262409 0.262409
0.270298 0.270298 0.270298
0.278569 0.278569 0.278569
0.286687 0.286687 0.286687
0.102815 0.102815 0.102815
0.108095 0.108095 0.108095
0.113252 0.113252 0.113252
0.118425 0.118425 0.118425
0.123659 0.123659 0.123659
0.128969 0.128969 0.128969
0.134432 0.134432 0.134432
0.139986 0.139986 0.139986
0.145434 0.145434 0.145434
0.150988 0.150988 0.150988
0.156695 0.156695 0.156695
0.162478 0.162478 0.162478
0.168444 0.168444 0.168444
0.174441 0.174441 0.174441
0.180514 0.180514 0.180514
0.186786 0.186786 0.186786
0.193194 0.193194 0.193194
0.199649 0.199649 0.199649
0.206394 0.206394 0.206394
0.21323 0.21323 0.21323
0.220249 0.220249 0.220249
0.22742 0.22742 0.22742
0.234638 0.234638 0.234638
0.241947 0.241947 0.241947
0.249775 0.249775 0.249775
0.257527 0.257527 0.257527
0.2654 0.2654 0.2654
0.273304 0.273304 0.273304
0.2813 0.2813 0.2813
0.289784 0.289784 0.289784
0.298192 0.298192 0.298192
0.306645 0.306645 0.306645
0.315114 0.315114 0.315114
0.120394 0.120394 0.120394
0.125658 0.125658 0.125658
0.130999 0.130999 0.130999
0.1364 0.1364 0.1364
0.141833 0.141833 0.141833
0.147372 0.147372 0.147372
0.153124 0.153124 0.153124
0.158877 0.158877 0.158877
0.164691 0.164691 0.164691
0.170535 0.170535 0.170535
0.176486 0.176486 0.176486
0.182864 0.182864 0.182864
0.189197 0.189197 0.189197
0.195636 0.195636 0.195636
0.202106 0.202106 0.202106
0.208728 0.208728 0.208728
0.215717 0.215717 0.215717
0.22295 0.22295 0.22295
0.230152 0.230152 0.230152
0.237385 0.237385 0.237385
0.24477 0.24477 0.24477
0.252384 0.252384 0.252384
0.26038 0.26038 0.26038
0.268376 0.268376 0.268376
0.27631 0.27631 0.27631
0.284382 0.284382 0.284382
0.292638 0.292638 0.292638
0.30106 0.30106 0.30106
0.309773 0.309773 0.309773
0.318349 0.318349 0.318349
0.326955 0.326955 0.326955
0.335683 0.335683 0.335683
0.344518 0.344518 0.344518
0.13846 0.13846 0.13846
0.143893 0.143893 0.143893
0.149416 0.149416 0.149416
0.155077 0.155077 0.155077
0.161059 0.161059 0.161059
0.166888 0.166888 0.166888
0.172763 0.172763 0.172763
0.178775 0.178775 0.178775
0.185 0.185 0.185
0.191424 0.191424 0.191424
0.198077 0.198077 0.198077
0.204593 0.204593 0.204593
0.211292 0.211292 0.211292
0.21825 0.21825 0.21825
0.225391 0.225391 0.225391
0.2327 0.2327 0.2327
0.240146 0.240146 0.240146
0.247623 0.247623 0.247623
0.255314 0.255314 0.255314
0.263172 0.263172 0.263172
0.271061 0.271061 0.271061
0.279194 0.279194 0.279194
0.28748 0.28748 0.28748
0.295811 0.295811 0.295811
0.30425 0.30425 0.30425
0.312718 0.312718 0.312718
0.321248 0.321248 0.321248
0.330236 0.330236 0.330236
0.33901 0.33901 0.33901
0.34786 0.34786 0.34786
0.35671 0.35671 0.35671
0.365591 0.365591 0.365591
0.374762 0.374762 0.374762
0.157244 0.157244 0.157244
0.163043 0.163043 0.163043
0.168887 0.168887 0.168887
0.175021 0.175021 0.175021
0.181109 0.181109 0.181109
0.187396 0.187396 0.187396
0.19382 0.19382 0.19382
0.200275 0.200275 0.200275
0.206867 0.206867 0.206867
0.213901 0.213901 0.213901
0.220935 0.220935 0.220935
0.228107 0.228107 0.228107
0.235325 0.235325 0.235325
0.242664 0.242664 0.242664
0.250507 0.250507 0.250507
0.258274 0.258274 0.258274
0.266148 0.266148 0.266148
0.274052 0.274052 0.274052
0.282078 0.282078 0.282078
0.290379 0.290379 0.290379
0.298985 0.298985 0.298985
0.307454 0.307454 0.307454
0.315938 0.315938 0.315938
0.324514 0.324514 0.324514
0.333211 0.333211 0.333211
0.342168 0.342168 0.342168
0.351202 0.351202 0.351202
0.360067 0.360067 0.360067
0.368963 0.368963 0.368963
0.377905 0.377905 0.377905
0.386877 0.386877 0.386877
0.396078 0.396078 0.396078
0.405173 0.405173 0.405173
0.177066 0.177066 0.177066
0.183429 0.183429 0.183429
0.189807 0.189807 0.189807
0.196246 0.196246 0.196246
0.202731 0.202731 0.202731
0.209384 0.209384 0.209384
0.216266 0.216266 0.216266
0.223636 0.223636 0.223636
0.230838 0.230838 0.230838
0.238087 0.238087 0.238087
0.245487 0.245487 0.245487
0.253132 0.253132 0.253132
0.260945 0.260945 0.260945
0.269139 0.269139 0.269139
0.277073 0.277073 0.277073
0.285161 0.285161 0.285161
0.293446 0.293446 0.293446
0.301869 0.301869 0.301869
0.310384 0.310384 0.310384
0.319158 0.319158 0.319158
0.327779 0.327779 0.327779
0.336522 0.336522 0.336522
0.345357 0.345357 0.345357
0.354208 0.354208 0.354208
0.36321 0.36321 0.36321
0.372335 0.372335 0.372335
0.381292 0.381292 0.381292
0.39028 0.39028 0.39028
0.399252 0.399252 0.399252
0.408225 0.408225 0.408225
0.417487 0.417487 0.417487
0.426352 0.426352 0.426352
0.435203 0.435203 0.435203
0.198642 0.198642 0.198642
0.205219 0.205219 0.205219
0.211948 0.211948 0.211948
0.218921 0.218921 0.218921
0.226078 0.226078 0.226078
0.233295 0.233295 0.233295
0.240833 0.240833 0.240833
0.248356 0.248356 0.248356
0.256062 0.256062 0.256062
0.26392 0.26392 0.26392
0.271824 0.271824 0.271824
0.279805 0.279805 0.279805
0.288273 0.288273 0.288273
0.29662 0.29662 0.29662
0.305058 0.305058 0.305058
0.313527 0.313527 0.313527
0.322072 0.322072 0.322072
0.331075 0.331075 0.331075
0.339864 0.339864 0.339864
0.348699 0.348699 0.348699
0.357565 0.357565 0.357565
0.366445 0.366445 0.366445
0.375402 0.375402 0.375402
0.38468 0.38468 0.38468
0.393668 0.393668 0.393668
0.402655 0.402655 0.402655
0.411597 0.411597 0.411597
0.420493 0.420493 0.420493
0.42945 0.42945 0.42945
0.438544 0.438544 0.438544
0.447364 0.447364 0.447364
0.456077 0.456077 0.456077
0.464668 0.464668 0.464668
0.221622 0.221622 0.221622
0.228809 0.228809 0.228809
0.236027 0.236027 0.236027
0.243381 0.243381 0.243381
0.251148 0.251148 0.251148
0.259022 0.259022 0.259022
0.266896 0.266896 0.266896
0.274815 0.274815 0.274815
0.282856 0.282856 0.282856
0.291081 0.291081 0.291081
0.299748 0.299748 0.299748
0.308263 0.308263 0.308263
0.316747 0.316747 0.316747
0.325338 0.325338 0.325338
0.334051 0.334051 0.334051
0.342855 0.342855 0.342855
0.352056 0.352056 0.352056
0.360906 0.360906 0.360906
0.369818 0.369818 0.369818
0.378759 0.378759 0.378759
0.387732 0.387732 0.387732
0.396719 0.396719 0.396719
0.406043 0.406043 0.406043
0.414969 0.414969 0.414969
0.42385 0.42385 0.42385
0.432715 0.432715 0.432715
0.44155 0.44155 0.44155
0.450401 0.450401 0.450401
0.459342 0.459342 0.459342
0.467887 0.467887 0.467887
0.476356 0.476356 0.476356
0.48481 0.48481 0.48481
0.493248 0.493248 0.493248
0.24622 0.24622 0.24622
0.253864 0.253864 0.253864
0.261707 0.261707 0.261707
0.269764 0.269764 0.269764
0.277836 0.277836 0.277836
0.285954 0.285954 0.285954
0.29424 0.29424 0.29424
0.302678 0.302678 0.302678
0.311147 0.311147 0.311147
0.319905 0.319905 0.319905
0.328618 0.328618 0.328618
0.337362 0.337362 0.337362
0.346212 0.346212 0.346212
0.355062 0.355062 0.355062
0.363928 0.363928 0.363928
0.37319 0.37319 0.37319
0.382147 0.382147 0.382147
0.391135 0.391135 0.391135
0.400122 0.400122 0.400122
0.409079 0.409079 0.409079
0.418296 0.418296 0.418296
0.427207 0.427207 0.427207
0.436057 0.436057 0.436057
0.444877 0.444877 0.444877
0.453635 0.453635 0.453635
0.462257 0.462257 0.462257
0.471092 0.471092 0.471092
0.479561 0.479561 0.479561
0.487999 0.487999 0.487999
0.496422 0.496422 0.496422
0.504784 0.504784 0.504784
0.51313 0.51313 0.51313
0.521737 0.521737 0.521737
0.272587 0.272587 0.272587
0.280568 0.280568 0.280568
0.289067 0.289067 0.289067
0.297414 0.297414 0.297414
0.305867 0.305867 0.305867
0.314351 0.314351 0.314351
0.322896 0.322896 0.322896
0.331731 0.331731 0.331731
0.340703 0.340703 0.340703
0.349554 0.349554 0.349554
0.358404 0.358404 0.358404
0.3673 0.3673 0.3673
0.376226 0.376226 0.376226
0.385428 0.385428 0.385428
0.394522 0.394522 0.394522
0.40351 0.40351 0.40351
0.412451 0.412451 0.412451
0.421347 0.421347 0.421347
0.430213 0.430213 0.430213
0.439338 0.439338 0.439338
0.448203 0.448203 0.448203
0.456916 0.456916 0.456916
0.465492 0.465492 0.465492
0.473976 0.473976 0.473976
0.482429 0.482429 0.482429
0.491188 0.491188 0.491188
0.49958 0.49958 0.49958
0.507942 0.507942 0.507942
0.516243 0.516243 0.516243
0.524559 0.524559 0.524559
0.532906 0.532906 0.532906
0.541634 0.541634 0.541634
0.550103 0.550103 0.550103
0.300359 0.300359 0.300359
0.309071 0.309071 0.309071
0.317571 0.317571 0.317571
0.326162 0.326162 0.326162
0.33489 0.33489 0.33489
0.343709 0.343709 0.343709
0.352697 0.352697 0.352697
0.361761 0.361761 0.361761
0.370672 0.370672 0.370672
0.379614 0.379614 0.379614
0.388602 0.388602 0.388602
0.397589 0.397589 0.397589
0.406744 0.406744 0.406744
0.415824 0.415824 0.415824
0.424704 0.424704 0.424704
0.433555 0.433555 0.433555
0.442405 0.442405 0.442405
0.451179 0.451179 0.451179
0.460166 0.460166 0.460166
0.468696 0.468696 0.468696
0.477165 0.477165 0.477165
0.485618 0.485618 0.485618
0.494057 0.494057 0.494057
0.502663 0.502663 0.502663
0.511086 0.511086 0.511086
0.519387 0.519387 0.519387
0.527703 0.527703 0.527703
0.53608 0.53608 0.53608
0.544503 0.544503 0.544503
0.553292 0.553292 0.553292
0.561837 0.561837 0.561837
0.570352 0.570352 0.570352
0.578866 0.578866 0.578866
0.329442 0.329442 0.329442
0.338216 0.338216 0.338216
0.347051 0.347051 0.347051
0.355901 0.355901 0.355901
0.364782 0.364782 0.364782
0.374044 0.374044 0.374044
0.383001 0.383001 0.383001
0.391989 0.391989 0.391989
0.400977 0.400977 0.400977
0.409934 0.409934 0.409934
0.418936 0.418936 0.418936
0.428046 0.428046 0.428046
0.436896 0.436896 0.436896
0.445731 0.445731 0.445731
0.454459 0.454459 0.454459
0.463081 0.463081 0.463081
0.471733 0.471733 0.471733
0.480369 0.480369 0.480369
0.488807 0.488807 0.488807
0.49723 0.49723 0.49723
0.505577 0.505577 0.505577
0.513909 0.513909 0.513909
0.522423 0.522423 0.522423
0.530861 0.530861 0.530861
0.539254 0.539254 0.539254
0.547707 0.547707 0.547707
0.556207 0.556207 0.556207
0.564721 0.564721 0.564721
0.57351 0.57351 0.57351
0.582086 0.582086 0.582086
0.5906 0.5906 0.5906
0.599115 0.599115 0.599115
0.60763 0.60763 0.60763
0.359258 0.359258 0.359258
0.368154 0.368154 0.368154
0.377096 0.377096 0.377096
0.386069 0.386069 0.386069
0.395392 0.395392 0.395392
0.404364 0.404364 0.404364
0.413306 0.413306 0.413306
0.422202 0.422202 0.422202
0.431052 0.431052 0.431052
0.439979 0.439979 0.439979
0.449042 0.449042 0.449042
0.45774 0.45774 0.45774
0.4663 0.4663 0.4663
0.474784 0.474784 0.474784
0.483238 0.483238 0.483238
0.491798 0.491798 0.491798
0.500389 0.500389 0.500389
0.508736 0.508736 0.508736
0.517052 0.517052 0.517052
0.525353 0.525353 0.525353
0.5337 0.5337 0.5337
0.542443 0.542443 0.542443
0.550912 0.550912 0.550912
0.559426 0.559426 0.559426
0.567941 0.567941 0.567941
0.576455 0.576455 0.576455
0.585153 0.585153 0.585153
0.59382 0.59382 0.59382
0.602335 0.602335 0.602335
0.610849 0.610849 0.610849
0.619318 0.619318 0.619318
0.62771 0.62771 0.62771
0.636286 0.636286 0.636286
0.389456 0.389456 0.389456
0.398444 0.398444 0.398444
0.407416 0.407416 0.407416
0.416663 0.416663 0.416663
0.425544 0.425544 0.425544
0.434409 0.434409 0.434409
0.443244 0.443244 0.443244
0.452018 0.452018 0.452018
0.46099 0.46099 0.46099
0.469505 0.469505 0.469505
0.477974 0.477974 0.477974
0.486427 0.486427 0.486427
0.49485 0.49485 0.49485
0.503258 0.503258 0.503258
0.511879 0.511879 0.511879
0.52018 0.52018 0.52018
0.528511 0.528511 0.528511
0.536873 0.536873 0.536873
0.545312 0.545312 0.545312
0.553903 0.553903 0.553903
0.562646 0.562646 0.562646
0.57116 0.57116 0.57116
0.579675 0.579675 0.579675
0.58819 0.58819 0.58819
0.596719 0.596719 0.596719
0.605386 0.605386 0.605386
0.614054 0.614054 0.614054
0.622492 0.622492 0.622492
0.630869 0.630869 0.630869
0.639185 0.639185 0.639185
0.647501 0.647501 0.647501
0.65597 0.65597 0.65597
0.664225 0.664225 0.664225
0.419699 0.419699 0.419699
0.428855 0.428855 0.428855
0.437751 0.437751 0.437751
0.446571 0.446571 0.446571
0.455299 0.455299 0.455299
0.46389 0.46389 0.46389
0.472389 0.472389 0.472389
0.481178 0.481178 0.481178
0.489616 0.489616 0.489616
0.498024 0.498024 0.498024
0.506386 0.506386 0.506386
0.514702 0.514702 0.514702
0.523018 0.523018 0.523018
0.53167 0.53167 0.53167
0.540047 0.540047 0.540047
0.548516 0.548516 0.548516
0.557031 0.557031 0.557031
0.565545 0.565545 0.565545
0.574121 0.574121 0.574121
0.582895 0.582895 0.582895
0.591409 0.591409 0.591409
0.599939 0.599939 0.599939
0.608454 0.608454 0.608454
0.616922 0.616922 0.616922
0.625666 0.625666 0.625666
0.634012 0.634012 0.634012
0.642329 0.642329 0.642329
0.650629 0.650629 0.650629
0.658869 0.658869 0.658869
0.667079 0.667079 0.667079
0.675258 0.675258 0.675258
0.683192 0.683192 0.683192
0.691096 0.691096 0.691096
0.449805 0.449805 0.449805
0.458564 0.458564 0.458564
0.467109 0.467109 0.467109
0.475593 0.475593 0.475593
0.484047 0.484047 0.484047
0.492485 0.492485 0.492485
0.501183 0.501183 0.501183
0.509529 0.509529 0.509529
0.517845 0.517845 0.517845
0.526146 0.526146 0.526146
0.534508 0.534508 0.534508
0.543236 0.543236 0.543236
0.551736 0.551736 0.551736
0.56025 0.56025 0.56025
0.568765 0.568765 0.568765
0.577279 0.577279 0.577279
0.585794 0.585794 0.585794
0.594629 0.594629 0.594629
0.603159 0.603159 0.603159
0.611658 0.611658 0.611658
0.620111 0.620111 0.620111
0.628504 0.628504 0.628504
0.636881 0.636881 0.636881
0.645472 0.645472 0.645472
0.653758 0.653758 0.653758
0.661936 0.661936 0.661936
0.669993 0.669993 0.669993
0.677958 0.677958 0.677958
0.685969 0.685969 0.685969
0.694057 0.694057 0.694057
0.701778 0.701778 0.701778
0.709331 0.709331 0.709331
0.716777 0.716777 0.716777
0.478798 0.478798 0.478798
0.487236 0.487236 0.487236
0.495659 0.495659 0.495659
0.504021 0.504021 0.504021
0.512566 0.512566 0.512566
0.520989 0.520989 0.520989
0.529305 0.529305 0.529305
0.537682 0.537682 0.537682
0.54612 0.54612 0.54612
0.55462 0.55462 0.55462
0.563409 0.563409 0.563409
0.571984 0.571984 0.571984
0.580499 0.580499 0.580499
0.589014 0.589014 0.589014
0.597528 0.597528 0.597528
0.606043 0.606043 0.606043
0.614862 0.614862 0.614862
0.623301 0.623301 0.623301
0.631662 0.631662 0.631662
0.639994 0.639994 0.639994
0.648295 0.648295 0.648295
0.656565 0.656565 0.656565
0.665003 0.665003 0.665003
0.673014 0.673014 0.673014
0.680949 0.680949 0.680949
0.688869 0.688869 0.688869
0.696696 0.696696 0.696696
0.704662 0.704662 0.704662
0.712169 0.712169 0.712169
0.719585 0.719585 0.719585
0.726986 0.726986 0.726986
0.734249 0.734249 0.734249
0.741375 0.741375 0.741375
0.507179 0.507179 0.507179
0.515496 0.515496 0.515496
0.523812 0.523812 0.523812
0.532326 0.532326 0.532326
0.540871 0.540871 0.540871
0.54934 0.54934 0.54934
0.557839 0.557839 0.557839
0.566354 0.566354 0.566354
0.574868 0.574868 0.574868
0.583719 0.583719 0.583719
0.592233 0.592233 0.592233
0.600748 0.600748 0.600748
0.609262 0.609262 0.609262
0.617731 0.617731 0.617731
0.626398 0.626398 0.626398
0.634806 0.634806 0.634806
0.643137 0.643137 0.643137
0.651423 0.651423 0.651423
0.659648 0.659648 0.659648
0.667735 0.667735 0.667735
0.67599 0.67599 0.67599
0.683955 0.683955 0.683955
0.691844 0.691844 0.691844
0.699611 0.699611 0.699611
0.707225 0.707225 0.707225
0.714687 0.714687 0.714687
0.722393 0.722393 0.722393
0.729747 0.729747 0.729747
0.73695 0.73695 0.73695
0.743954 0.743954 0.743954
0.75082 0.75082 0.75082
0.757656 0.757656 0.757656
0.764645 0.764645 0.764645
0.535317 0.535317 0.535317
0.543832 0.543832 0.543832
0.552544 0.552544 0.552544
0.561059 0.561059 0.561059
0.569574 0.569574 0.569574
0.578088 0.578088 0.578088
0.586603 0.586603 0.586603
0.595285 0.595285 0.595285
0.603967 0.603967 0.603967
0.612467 0.612467 0.612467
0.62092 0.62092 0.62092
0.629313 0.629313 0.629313
0.637644 0.637644 0.637644
0.646174 0.646174 0.646174
0.654551 0.654551 0.654551
0.662715 0.662715 0.662715
0.670756 0.670756 0.670756
0.678706 0.678706 0.678706
0.686641 0.686641 0.686641
0.694759 0.694759 0.694759
0.70251 0.70251 0.70251
0.710048 0.710048 0.710048
0.717494 0.717494 0.717494
0.724895 0.724895 0.724895
0.732219 0.732219 0.732219
0.73962 0.73962 0.73962
0.746563 0.746563 0.746563
0.753399 0.753399 0.753399
0.760204 0.760204 0.760204
0.766903 0.766903 0.766903
0.773663 0.773663 0.773663
0.780011 0.780011 0.780011
0.786267 0.786267 0.786267
0.564034 0.564034 0.564034
0.572793 0.572793 0.572793
0.581308 0.581308 0.581308
0.589822 0.589822 0.589822
0.598352 0.598352 0.598352
0.606867 0.606867 0.606867
0.615488 0.615488 0.615488
0.624094 0.624094 0.624094
0.632456 0.632456 0.632456
0.640787 0.640787 0.640787
0.649088 0.649088 0.649088
0.657343 0.657343 0.657343
0.665766 0.665766 0.665766
0.673777 0.673777 0.673777
0.681712 0.681712 0.681712
0.689632 0.689632 0.689632
0.697444 0.697444 0.697444
0.705257 0.705257 0.705257
0.712871 0.712871 0.712871
0.720302 0.720302 0.720302
0.727687 0.727687 0.727687
0.734936 0.734936 0.734936
0.742 0.742 0.742
0.749081 0.749081 0.749081
0.755978 0.755978 0.755978
0.762753 0.762753 0.762753
0.76939 0.76939 0.76939
0.775845 0.775845 0.775845
0.782147 0.782147 0.782147
0.788617 0.788617 0.788617
0.794842 0.794842 0.794842
0.800946 0.800946 0.800946
0.806912 0.806912 0.806912
0.593042 0.593042 0.593042
0.601572 0.601572 0.601572
0.610071 0.610071 0.610071
0.61854 0.61854 0.61854
0.626993 0.626993 0.626993
0.635615 0.635615 0.635615
0.643931 0.643931 0.643931
0.652216 0.652216 0.652216
0.660426 0.660426 0.660426
0.668498 0.668498 0.668498
0.67657 0.67657 0.67657
0.684718 0.684718 0.684718
0.692592 0.692592 0.692592
0.700359 0.700359 0.700359
0.707942 0.707942 0.707942
0.715404 0.715404 0.715404
0.722957 0.722957 0.722957
0.730449 0.730449 0.730449
0.737636 0.737636 0.737636
0.744625 0.744625 0.744625
0.751476 0.751476 0.751476
0.758282 0.758282 0.758282
0.765194 0.765194 0.765194
0.771847 0.771847 0.771847
0.778241 0.778241 0.778241
0.784512 0.784512 0.784512
0.790753 0.790753 0.790753
0.796933 0.796933 0.796933
0.80322 0.80322 0.80322
0.80914 0.80914 0.80914
0.815 0.815 0.815
0.820844 0.820844 0.820844
0.826627 0.826627 0.826627
0.621729 0.621729 0.621729
0.630106 0.630106 0.630106
0.638437 0.638437 0.638437
0.646769 0.646769 0.646769
0.655329 0.655329 0.655329
0.663493 0.663493 0.663493
0.671519 0.671519 0.671519
0.679469 0.679469 0.679469
0.687404 0.687404 0.687404
0.695323 0.695323 0.695323
0.703243 0.703243 0.703243
0.710765 0.710765 0.710765
0.718196 0.718196 0.718196
0.725612 0.725612 0.725612
0.732906 0.732906 0.732906
0.740291 0.740291 0.740291
0.747219 0.747219 0.747219
0.75404 0.75404 0.75404
0.760845 0.760845 0.760845
0.767529 0.767529 0.767529
0.774136 0.774136 0.774136
0.780621 0.780621 0.780621
0.786877 0.786877 0.786877
0.793103 0.793103 0.793103
0.799237 0.799237 0.799237
0.805249 0.805249 0.805249
0.811261 0.811261 0.811261
0.817212 0.817212 0.817212
0.823041 0.823041 0.823041
0.828779 0.828779 0.828779
0.834424 0.834424 0.834424
0.840009 0.840009 0.840009
0.845701 0.845701 0.845701
0.649882 0.649882 0.649882
