assets/core/filters/luts/08_Wedding LUTs_Saturation.cube
LUT_3D_SIZE 16
0.037824 0.040483 0.043256
0.051536 0.039828 0.042654
0.095053 0.036625 0.039312
0.160024 0.032286 0.035675
0.225571 0.026923 0.031175
0.292386 0.022790 0.027577
0.363753 0.020352 0.025591
0.433879 0.018392 0.024189
0.502866 0.016996 0.023245
0.569619 0.015994 0.022574
0.633817 0.015254 0.021949
0.696436 0.014850 0.021930
0.758574 0.014750 0.021554
0.817913 0.014214 0.021430
0.877742 0.014189 0.020918
0.934583 0.014214 0.020794
0.035324 0.053464 0.040998
0.049471 0.052915 0.040297
0.094754 0.050915 0.037887
0.159535 0.047867 0.032725
0.225961 0.043754 0.028495
0.292950 0.041116 0.024892
0.364148 0.039796 0.021789
0.434442 0.038776 0.019731
0.503475 0.038042 0.018223
0.570188 0.037449 0.017121
0.635295 0.037276 0.017029
0.697927 0.035930 0.014806
0.757985 0.036674 0.016123
0.817322 0.036533 0.015533
0.878099 0.035915 0.014975
0.934846 0.035778 0.014963
0.026871 0.096065 0.033389
0.041825 0.095916 0.031559
0.087840 0.093986 0.029067
0.152668 0.093845 0.028013
0.219911 0.094793 0.024483
0.289957 0.095123 0.022150
0.361368 0.096868 0.020598
0.432522 0.098241 0.019004
0.502145 0.099138 0.017778
0.569317 0.099477 0.016849
0.634021 0.099138 0.016009
0.697078 0.099477 0.015685
0.758589 0.099030 0.014969
0.818148 0.098396 0.014967
0.877810 0.097969 0.014969
0.934745 0.097350 0.014967
0.020338 0.156808 0.027777
0.035140 0.157025 0.023956
0.083874 0.155730 0.023065
0.147614 0.154876 0.022644
0.214708 0.156735 0.021424
0.284863 0.161537 0.020378
0.357394 0.166403 0.018927
0.429577 0.170100 0.017923
0.500113 0.172609 0.017076
0.567819 0.173815 0.016397
0.633952 0.174748 0.015907
0.697509 0.173815 0.015816
0.758422 0.174733 0.014956
0.817970 0.173749 0.014980
0.877569 0.172585 0.014956
0.934573 0.171628 0.014980
0.016819 0.223078 0.025275
0.031691 0.223388 0.019625
0.083087 0.223078 0.019464
0.147956 0.222343 0.018399
0.210832 0.222206 0.017968
0.280700 0.225952 0.017415
0.353703 0.233641 0.017369
0.426545 0.239438 0.016822
0.497705 0.243428 0.016320
0.566028 0.245574 0.015885
0.632552 0.246527 0.015169
0.695708 0.246604 0.015311
0.756998 0.245965 0.013839
0.816686 0.245732 0.013345
0.877140 0.244936 0.014958
0.934227 0.243665 0.015015
0.014971 0.293915 0.024505
0.030212 0.294201 0.017264
0.083893 0.293915 0.016959
0.151135 0.294201 0.017264
0.216134 0.292748 0.016787
0.278998 0.291335 0.015940
0.350785 0.298838 0.016201
0.423958 0.306543 0.015940
0.495558 0.312021 0.015679
0.564288 0.315113 0.015435
0.630469 0.317060 0.013984
0.693988 0.317117 0.015435
0.756607 0.317274 0.014986
0.816343 0.315784 0.015655
0.876747 0.315271 0.014986
0.933883 0.313746 0.015083
0.014023 0.367576 0.024547
0.029686 0.367835 0.015967
0.086194 0.367576 0.016409
0.154658 0.367835 0.015967
0.222836 0.367278 0.014888
0.288150 0.367241 0.015925
0.352187 0.366309 0.015456
0.421949 0.372222 0.015350
0.493753 0.379042 0.015231
0.562782 0.383034 0.015123
0.629646 0.385031 0.015804
0.692523 0.384998 0.016274
0.756077 0.386062 0.013946
0.815928 0.384302 0.012442
0.876166 0.384051 0.015068
0.933460 0.382336 0.015202
0.013581 0.441591 0.024909
0.029554 0.441835 0.015292
0.088407 0.441591 0.014994
0.159836 0.441835 0.015292
0.226853 0.440945 0.015092
0.293430 0.440568 0.013917
0.360015 0.440945 0.015092
0.424110 0.440568 0.015039
0.492397 0.444893 0.015001
0.561539 0.449726 0.014969
0.628305 0.452730 0.016148
0.693200 0.453636 0.013301
0.754569 0.452688 0.013531
0.815433 0.452700 0.015377
0.875646 0.451701 0.015209
0.932997 0.449764 0.015377
0.013457 0.514056 0.025327
0.029559 0.514257 0.014999
0.089193 0.514056 0.014220
0.161995 0.514257 0.015569
0.231384 0.514625 0.014395
0.298948 0.513432 0.014954
0.365377 0.513671 0.014958
0.430436 0.513432 0.014954
0.494553 0.513205 0.014963
0.560576 0.515556 0.014978
0.626588 0.518056 0.014963
0.691345 0.519427 0.016710
0.754127 0.519330 0.017177
0.814102 0.519126 0.013382
0.875195 0.518346 0.015428
0.932531 0.516258 0.015625
0.013558 0.583775 0.025724
0.029602 0.583937 0.014968
0.090397 0.583775 0.014549
0.162063 0.583937 0.013849
0.233291 0.583581 0.015015
0.301446 0.583421 0.015614
0.368172 0.583581 0.015015
0.433836 0.583421 0.015043
0.498424 0.583236 0.015079
0.562219 0.583064 0.015134
0.626603 0.585153 0.013406
0.691032 0.585921 0.014011
0.753694 0.586080 0.014591
0.814665 0.584747 0.015371
0.874824 0.584194 0.015729
0.932226 0.581900 0.015946
0.013824 0.650898 0.026071
0.029697 0.651000 0.015135
0.089872 0.650898 0.015979
0.163273 0.651000 0.014569
0.234524 0.650819 0.014103
0.301835 0.650673 0.014707
0.369353 0.650819 0.015228
0.435180 0.650673 0.015273
0.500008 0.650556 0.015329
0.564083 0.650400 0.015399
0.627228 0.650556 0.015329
0.691018 0.651381 0.015399
0.753343 0.651210 0.016693
0.813404 0.649653 0.017528
0.874467 0.649333 0.016109
0.931911 0.646802 0.016348
0.014235 0.715650 0.026385
0.029873 0.715803 0.015456
0.091651 0.715650 0.018028
0.162467 0.714912 0.014887
0.234569 0.715834 0.016737
0.301843 0.715584 0.013390
0.369385 0.715834 0.015575
0.435187 0.715584 0.015634
0.500112 0.715587 0.015704
0.564159 0.715536 0.015786
0.627374 0.715587 0.016869
0.691045 0.715536 0.016953
0.752039 0.714768 0.016572
0.813083 0.713866 0.016824
0.874125 0.713873 0.016572
0.931594 0.711050 0.016824
0.014775 0.778342 0.026672
0.030155 0.778432 0.015927
0.091606 0.778342 0.017679
0.162899 0.778432 0.015927
0.233653 0.778335 0.017231
0.301838 0.778296 0.017296
0.368516 0.778335 0.016056
0.434232 0.778296 0.016121
0.498986 0.778219 0.016197
0.563057 0.778246 0.016288
0.626209 0.778219 0.013376
0.689032 0.778246 0.018672
0.751822 0.778669 0.015943
0.812879 0.777742 0.015623
0.873883 0.777803 0.017115
0.931440 0.774932 0.017378
0.015445 0.839952 0.026965
0.030593 0.840028 0.016529
0.089756 0.839952 0.017336
0.162475 0.840028 0.016529
0.233609 0.839980 0.017266
0.300624 0.839964 0.017333
0.367508 0.839980 0.016675
0.433050 0.839964 0.016741
0.497700 0.839884 0.016823
0.561531 0.839873 0.016914
0.624968 0.839884 0.020473
0.686593 0.839873 0.020572
0.748810 0.839540 0.014822
0.811754 0.840179 0.014517
0.873739 0.841423 0.017734
0.931252 0.838348 0.018009
0.016245 0.900902 0.027315
0.031188 0.901010 0.017272
0.090146 0.900902 0.017640
0.162285 0.901010 0.017272
0.231700 0.900961 0.018018
0.299607 0.900900 0.018087
0.366699 0.900961 0.017420
0.432052 0.900900 0.017486
0.496568 0.900872 0.017569
0.560254 0.900791 0.017666
0.622906 0.899960 0.021908
0.686302 0.900791 0.022658
0.747776 0.900669 0.020901
0.808833 0.901085 0.013492
0.869984 0.900669 0.018424
0.931053 0.901085 0.018705
0.038253 0.958174 0.045436
0.051747 0.958174 0.042595
0.101924 0.958174 0.043019
0.168864 0.958174 0.042595
0.235205 0.958174 0.042591
0.302115 0.958174 0.042590
0.367026 0.958174 0.042591
0.431558 0.958174 0.042590
0.495340 0.958174 0.042589
0.558471 0.958174 0.042588
0.620779 0.958174 0.042589
0.683609 0.958174 0.042588
0.743767 0.958174 0.042583
0.805000 0.958174 0.042580
0.866012 0.958174 0.042583
0.926364 0.958174 0.042580
0.037559 0.040257 0.058837
0.051373 0.039565 0.058295
0.095734 0.037169 0.056198
0.160904 0.031314 0.053935
0.225485 0.026888 0.049926
0.292317 0.023426 0.048708
0.363707 0.020321 0.047422
0.433856 0.018375 0.047054
0.502864 0.016985 0.046841
0.569581 0.015986 0.046609
0.633814 0.015815 0.046841
0.696386 0.014842 0.045790
0.758566 0.014750 0.046049
0.817905 0.014212 0.044929
0.877733 0.014189 0.045230
0.934575 0.014212 0.044929
0.035051 0.053304 0.056883
0.049219 0.052694 0.056344
0.093337 0.049911 0.053412
0.159210 0.045191 0.049499
0.227596 0.039119 0.044583
0.297511 0.034208 0.040421
0.368719 0.030187 0.036740
0.438854 0.027056 0.034312
0.507500 0.024686 0.032527
0.573801 0.022899 0.031178
0.638380 0.022066 0.029648
0.700490 0.020345 0.029042
0.760591 0.019990 0.028820
0.819829 0.018510 0.027043
0.879800 0.018756 0.027427
0.936419 0.018510 0.027043
0.026725 0.095909 0.050562
0.040277 0.096015 0.048387
0.088629 0.094874 0.045589
0.153791 0.092922 0.041890
0.224179 0.092261 0.038372
0.295207 0.091173 0.033927
0.366408 0.091232 0.030924
0.437624 0.091173 0.028177
0.506946 0.090928 0.025981
0.573643 0.090373 0.024241
0.638776 0.089905 0.023313
0.701285 0.089366 0.021636
0.760925 0.088095 0.021143
0.820225 0.087422 0.020842
0.880049 0.087090 0.019889
0.936823 0.086413 0.019592
0.020289 0.156750 0.045912
0.030656 0.157543 0.039942
0.080836 0.156750 0.035707
0.146402 0.155393 0.034600
0.216599 0.157022 0.032330
0.287024 0.159877 0.029724
0.361159 0.164537 0.028055
0.433631 0.167388 0.026249
0.504017 0.169076 0.024680
0.571574 0.169670 0.023366
0.635915 0.169076 0.022060
0.699328 0.168598 0.021430
0.759621 0.167880 0.021038
0.819026 0.166768 0.020159
0.879783 0.166819 0.019782
0.936516 0.165697 0.019538
0.016801 0.223047 0.044332
0.024785 0.224004 0.035395
0.077187 0.224095 0.028485
0.144802 0.222966 0.028853
0.211144 0.220816 0.027287
0.281573 0.226134 0.026219
0.356022 0.233306 0.025244
0.429374 0.238591 0.024204
0.500713 0.242043 0.023219
0.569042 0.243726 0.022332
0.634556 0.243076 0.021287
0.698628 0.243726 0.020422
0.759071 0.243685 0.020274
0.818376 0.242286 0.020715
0.879158 0.241618 0.019652
0.935956 0.240222 0.019467
0.014966 0.293899 0.044579
0.021429 0.294833 0.033476
0.076051 0.294918 0.025265
0.146812 0.293813 0.025026
0.215039 0.293883 0.023648
0.280742 0.292276 0.023100
0.351717 0.298970 0.022994
0.425631 0.306490 0.022447
0.497552 0.311574 0.021883
0.566506 0.314349 0.021335
0.632405 0.314602 0.021883
0.696195 0.316341 0.020702
0.758227 0.315243 0.020140
0.817885 0.313633 0.019404
0.878327 0.313236 0.019519
0.935469 0.311586 0.019404
0.014019 0.367545 0.045577
0.019477 0.368387 0.032900
0.077318 0.369567 0.023421
0.151013 0.368387 0.022532
0.220743 0.368547 0.022682
0.287876 0.368453 0.021768
0.352188 0.366561 0.021396
0.422679 0.372386 0.021130
0.494983 0.379040 0.020819
0.564269 0.382802 0.020514
0.631773 0.385029 0.020191
0.694907 0.384801 0.019271
0.757468 0.384791 0.019414
0.817166 0.382971 0.019990
0.877586 0.382792 0.019414
0.934748 0.380962 0.019370
0.013580 0.441595 0.046666
0.018351 0.442297 0.032905
0.077515 0.441595 0.020427
0.153352 0.442297 0.021253
0.225235 0.442229 0.021045
0.293462 0.441763 0.020852
0.359456 0.441269 0.020416
0.424154 0.440787 0.020222
0.492898 0.445046 0.020076
0.562457 0.449774 0.019917
0.629717 0.451894 0.019455
0.694110 0.453669 0.020543
0.756736 0.452845 0.018150
0.815643 0.450818 0.018774
0.876838 0.450885 0.019370
0.934098 0.448861 0.019386
0.013457 0.514049 0.047547
0.017733 0.514604 0.033093
0.077296 0.514049 0.019846
0.155481 0.514604 0.020155
0.228228 0.514078 0.020425
0.297534 0.514753 0.019706
0.364364 0.514078 0.019800
0.430056 0.513816 0.019706
0.494563 0.513375 0.019610
0.560989 0.515673 0.019544
0.627578 0.519155 0.019610
0.691663 0.519545 0.020793
0.754969 0.519798 0.019402
0.815947 0.517577 0.018861
0.876098 0.517865 0.019402
0.933481 0.515640 0.019476
0.013559 0.583773 0.048135
0.017465 0.584237 0.033304
0.077477 0.584743 0.017834
0.156077 0.584237 0.019094
0.228754 0.583947 0.018858
0.298641 0.583760 0.018822
0.366837 0.583947 0.019472
0.433069 0.583760 0.019436
0.498104 0.583492 0.019405
0.562250 0.583222 0.019384
0.627269 0.584460 0.018791
0.692034 0.586078 0.021262
0.754455 0.585835 0.019521
0.814527 0.583451 0.018412
0.875564 0.583949 0.019521
0.932983 0.581543 0.019637
0.013825 0.650897 0.048505
0.017437 0.651310 0.033489
0.077948 0.650897 0.018712
0.156022 0.651310 0.019248
0.229764 0.651156 0.019370
0.299750 0.651006 0.017550
0.367789 0.651156 0.019370
0.434172 0.651006 0.019370
0.499487 0.650876 0.019379
0.563842 0.650645 0.019394
0.627683 0.650876 0.020626
0.690811 0.650645 0.020640
0.752973 0.651047 0.019736
0.813932 0.649343 0.020515
0.874974 0.649145 0.019736
0.932416 0.646526 0.019891
0.014235 0.715646 0.048720
0.017608 0.716024 0.033634
0.079643 0.716626 0.022004
0.157402 0.716024 0.021249
0.229546 0.716033 0.018231
0.299523 0.715890 0.018862
0.367555 0.716033 0.019453
0.433927 0.715890 0.019477
0.499276 0.715767 0.019509
0.563750 0.715713 0.019549
0.627457 0.715767 0.019509
0.690619 0.715713 0.018933
0.753468 0.715596 0.018206
0.813611 0.713813 0.018378
0.874556 0.713846 0.020047
0.932105 0.710996 0.020226
0.014776 0.778342 0.048820
0.017940 0.778680 0.033730
0.078630 0.779305 0.021440
0.155847 0.779583 0.020698
0.228504 0.779567 0.017275
0.298468 0.778540 0.017913
0.366614 0.778665 0.019704
0.432906 0.778540 0.019745
0.498122 0.778476 0.019792
0.562408 0.778408 0.019848
0.625360 0.778476 0.020417
0.689350 0.778408 0.020473
0.751190 0.778686 0.021076
0.813214 0.778605 0.021919
0.874137 0.777821 0.020446
0.931667 0.774831 0.020648
0.015447 0.839951 0.048908
0.018425 0.840205 0.033821
0.077838 0.839951 0.020238
0.155639 0.840205 0.023348
0.229446 0.840156 0.021379
0.298131 0.840137 0.022067
0.365535 0.840156 0.020118
0.431633 0.840137 0.020164
0.496640 0.840091 0.020221
0.560857 0.840030 0.020292
0.624897 0.840091 0.022770
0.686884 0.840030 0.016652
0.748942 0.839602 0.019060
0.811000 0.840135 0.020522
0.873764 0.841485 0.020930
0.931393 0.838304 0.021154
0.016247 0.900901 0.049042
0.019065 0.901195 0.033965
0.078205 0.900901 0.021611
0.155695 0.901195 0.022173
0.228498 0.901277 0.021952
0.298068 0.901184 0.022652
0.364595 0.901277 0.020681
0.430531 0.901184 0.020734
0.495459 0.901074 0.020799
0.559436 0.901005 0.020872
0.622761 0.901074 0.024695
0.685510 0.901005 0.024107
0.747816 0.901704 0.018383
0.808884 0.901096 0.018612
0.869960 0.900792 0.021493
0.931151 0.901096 0.021733
0.038253 0.958174 0.062696
0.049781 0.958174 0.059060
0.098765 0.958174 0.056472
0.165294 0.958174 0.055549
0.234443 0.958174 0.055489
0.300559 0.958174 0.055487
0.366321 0.958174 0.055489
0.430990 0.958174 0.055487
0.494909 0.958174 0.055485
0.558175 0.958174 0.055482
0.621301 0.958174 0.055485
0.683256 0.958174 0.055482
0.743763 0.958174 0.055480
0.804954 0.958174 0.055475
0.866009 0.958174 0.055480
0.926314 0.958174 0.055475
0.036407 0.039292 0.110132
0.050840 0.038457 0.109741
0.096238 0.035472 0.107963
0.159138 0.031725 0.105430
0.225122 0.026735 0.105299
0.293120 0.023340 0.104454
0.363371 0.020180 0.106373
0.433637 0.018294 0.107668
0.502665 0.016935 0.108617
0.569474 0.015960 0.109013
0.634562 0.015195 0.109694
0.696237 0.014816 0.107925
0.759389 0.014748 0.108461
0.817898 0.014214 0.107711
0.877693 0.014188 0.107376
0.934566 0.014214 0.106631
0.033877 0.053071 0.108725
0.048220 0.051918 0.108303
0.094810 0.049676 0.106566
0.159008 0.045261 0.105080
0.228155 0.038883 0.104335
0.297248 0.033322 0.101196
0.368243 0.029968 0.102210
0.438593 0.026920 0.102259
0.507323 0.024606 0.102181
0.573649 0.022844 0.101803
0.637230 0.021346 0.101121
0.700376 0.020292 0.100750
0.760610 0.019363 0.099473
0.819897 0.018507 0.098635
0.879821 0.018750 0.098427
0.936494 0.018507 0.097589
0.026129 0.095626 0.101633
0.039461 0.095604 0.101895
0.086738 0.093562 0.099522
0.154810 0.090466 0.097682
0.226808 0.085682 0.092875
0.302780 0.077566 0.086012
0.377888 0.070160 0.080816
0.450751 0.063479 0.075220
0.520345 0.057720 0.070348
0.586503 0.052858 0.066180
0.649995 0.048311 0.062065
0.712156 0.045346 0.059840
0.771388 0.042895 0.056852
0.828018 0.040484 0.054283
0.887676 0.038188 0.052529
0.943677 0.036627 0.050875
0.020085 0.156451 0.097328
0.030330 0.157201 0.095441
0.073748 0.158606 0.088086
0.144823 0.155047 0.084255
0.219703 0.155038 0.079727
0.295084 0.155167 0.075195
0.372103 0.155038 0.069212
0.446298 0.154089 0.063974
0.517210 0.152411 0.059152
0.584512 0.150155 0.054869
0.649718 0.147003 0.051349
0.710068 0.145825 0.047260
0.770678 0.143670 0.045456
0.828375 0.140814 0.042952
0.887920 0.139319 0.040659
0.943937 0.137551 0.039018
0.016725 0.222915 0.097023
0.024660 0.223799 0.093089
0.058534 0.226038 0.075961
0.138080 0.224854 0.069507
0.211655 0.221423 0.066492
0.286363 0.225649 0.063966
0.363494 0.230788 0.061037
0.438860 0.233956 0.057698
0.511171 0.235284 0.054406
0.579697 0.235000 0.051318
0.644773 0.234238 0.048471
0.707261 0.231895 0.046317
0.768451 0.229921 0.042993
0.826414 0.227955 0.042320
0.886554 0.226796 0.039829
0.942926 0.224855 0.038401
0.014935 0.293861 0.099285
0.021375 0.294741 0.093904
0.049831 0.297927 0.069470
0.132575 0.297799 0.059279
0.210381 0.296095 0.057239
0.281881 0.294350 0.055249
0.355252 0.299144 0.053767
0.431634 0.305487 0.051813
0.505028 0.309224 0.049721
0.574617 0.310560 0.047643
0.639722 0.310261 0.046407
0.705065 0.309525 0.043566
0.765877 0.308343 0.041209
0.825118 0.306213 0.041569
0.884941 0.304290 0.038864
0.941629 0.302151 0.037674
0.014008 0.367545 0.102403
0.019452 0.368255 0.095946
0.043543 0.371504 0.064803
0.129227 0.372246 0.051450
0.211345 0.370482 0.051326
0.283577 0.368770 0.049360
0.352182 0.367485 0.047978
0.425397 0.372778 0.046875
0.499522 0.378678 0.045612
0.569899 0.381456 0.044265
0.637153 0.381671 0.041596
0.702319 0.382408 0.041077
0.764121 0.381189 0.040150
0.822695 0.377847 0.039187
0.883187 0.377229 0.037828
0.940171 0.374876 0.036880
0.013575 0.441560 0.105270
0.018338 0.442267 0.098095
0.038980 0.443515 0.062705
0.127227 0.446191 0.045679
0.212228 0.443721 0.045495
0.286407 0.442570 0.044603
0.356996 0.442727 0.043875
0.424199 0.441574 0.042995
0.495012 0.445569 0.042254
0.565885 0.449664 0.041407
0.633701 0.450433 0.040673
0.698381 0.450659 0.039839
0.760435 0.451252 0.039909
0.822182 0.448828 0.036866
0.881470 0.447342 0.036827
0.938777 0.444916 0.036109
0.013457 0.514018 0.107354
0.017729 0.514645 0.099686
0.035760 0.515960 0.061741
0.126111 0.517555 0.041272
0.213247 0.516659 0.042359
0.289599 0.516874 0.041007
0.360003 0.515708 0.040776
0.428298 0.514952 0.040227
0.494581 0.514094 0.039621
0.562542 0.516112 0.039103
0.630464 0.517955 0.038073
0.696074 0.519983 0.039103
0.757986 0.517669 0.036699
0.818939 0.516974 0.036156
0.879882 0.515733 0.035941
0.937297 0.513126 0.035403
0.013562 0.583765 0.108545
0.017463 0.584225 0.100573
0.033666 0.585674 0.060936
0.124519 0.587103 0.039585
0.212274 0.585540 0.038467
0.289250 0.585984 0.039675
0.361058 0.585540 0.038467
0.429869 0.585034 0.038126
0.496819 0.584441 0.037737
0.562254 0.583801 0.037320
0.628823 0.584441 0.035463
0.693862 0.585710 0.035806
0.756448 0.584564 0.036699
0.817530 0.583704 0.034809
0.878424 0.582654 0.035190
0.935911 0.579908 0.034809
0.013828 0.650890 0.109115
0.017439 0.651300 0.100955
0.031826 0.652770 0.059621
0.123379 0.653179 0.038316
0.211003 0.652683 0.036005
0.288194 0.653140 0.037313
0.360873 0.652683 0.036760
0.429843 0.652194 0.036552
0.497078 0.651903 0.036306
0.562802 0.651368 0.036046
0.627194 0.650969 0.035552
0.691644 0.651368 0.035294
0.754252 0.650365 0.036096
0.815462 0.649387 0.035848
0.877118 0.648530 0.034595
0.934797 0.645601 0.034351
0.014241 0.715630 0.109223
0.017610 0.716000 0.100966
0.033098 0.717576 0.060605
0.123693 0.717857 0.037559
0.211008 0.718328 0.034037
0.287160 0.717130 0.036145
0.359829 0.717310 0.035529
0.428855 0.717130 0.035391
0.496095 0.716745 0.035247
0.561796 0.716542 0.035086
0.626230 0.715855 0.036000
0.689726 0.714707 0.035086
0.753921 0.716316 0.034921
0.814421 0.714325 0.034029
0.875939 0.713510 0.034175
0.933855 0.710559 0.034029
0.014780 0.778338 0.109038
0.017940 0.778674 0.100723
0.030176 0.780199 0.057793
0.121000 0.780540 0.035113
0.210374 0.779792 0.035408
0.286371 0.780589 0.036086
0.358257 0.779792 0.034659
0.427127 0.779626 0.034586
0.494152 0.779351 0.034504
0.559897 0.779200 0.034408
0.624364 0.779351 0.034504
0.687769 0.778236 0.033668
0.751139 0.778686 0.034656
0.813503 0.778382 0.034593
0.875011 0.777820 0.033913
0.932859 0.774706 0.033850
0.015451 0.839948 0.108775
0.018429 0.840200 0.100415
0.030306 0.840845 0.057579
0.120785 0.842083 0.034895
0.208759 0.842170 0.033370
0.285605 0.842053 0.034074
0.356669 0.841206 0.034108
0.425405 0.841089 0.034074
0.492226 0.840909 0.034033
0.557752 0.840826 0.033990
0.621489 0.840909 0.032561
0.685733 0.840826 0.031792
0.748362 0.840774 0.034549
0.809945 0.839270 0.036043
0.874191 0.841625 0.033806
0.932110 0.838305 0.033802
0.016250 0.900898 0.108599
0.019063 0.901190 0.100182
0.030580 0.901810 0.057435
0.119733 0.902102 0.034732
0.207487 0.902133 0.031646
0.283085 0.901997 0.032366
0.355530 0.902133 0.033842
0.423950 0.901997 0.033835
0.490646 0.901889 0.033817
0.555974 0.901779 0.033810
0.619948 0.900978 0.033817
0.683056 0.900867 0.033810
0.745894 0.901072 0.035326
0.808321 0.901328 0.031685
0.869969 0.901072 0.033836
0.931419 0.901328 0.033881
0.038253 0.958174 0.116807
0.049781 0.958174 0.114384
0.087448 0.958174 0.103769
0.156717 0.958174 0.098280
0.228156 0.958174 0.098850
0.297136 0.958174 0.098849
0.363273 0.958174 0.098850
0.428696 0.958174 0.098849
0.493134 0.958174 0.098855
0.556759 0.958174 0.098854
0.619548 0.958174 0.098855
0.681916 0.958174 0.098854
0.744560 0.958174 0.098857
0.805732 0.958174 0.098855
0.865770 0.958174 0.098857
0.926178 0.958174 0.098855
0.034092 0.037342 0.182056
0.049596 0.036232 0.181800
0.097176 0.033589 0.179936
0.160764 0.028932 0.176485
0.223403 0.025080 0.173994
0.292616 0.021873 0.176660
0.362698 0.019907 0.179293
0.433144 0.018137 0.181990
0.502384 0.016845 0.183911
0.569312 0.015903 0.184764
0.635237 0.015680 0.184977
0.697072 0.015903 0.184764
0.759324 0.015890 0.185066
0.817949 0.014218 0.183981
0.877615 0.014187 0.182934
0.934624 0.014218 0.181874
0.031749 0.052428 0.180559
0.046249 0.050361 0.180827
0.094893 0.047393 0.179486
0.159668 0.042975 0.176561
0.227320 0.037644 0.175901
0.294618 0.033778 0.176540
0.367429 0.029537 0.179093
0.438000 0.026657 0.180793
0.506932 0.024437 0.181804
0.573378 0.022735 0.181937
0.637803 0.021188 0.181804
0.700137 0.020816 0.180866
0.760513 0.019352 0.179353
0.820756 0.018501 0.178178
0.879776 0.018738 0.178301
0.936386 0.018501 0.177102
0.025238 0.097711 0.172914
0.038160 0.097183 0.175259
0.085418 0.092533 0.175038
0.155151 0.088952 0.173119
0.226993 0.082762 0.173161
0.301023 0.075942 0.173124
0.377110 0.069285 0.173161
0.450032 0.062862 0.172077
0.519764 0.057269 0.170280
0.586033 0.052556 0.167988
0.649414 0.048712 0.166000
0.711585 0.045058 0.163695
0.771240 0.042837 0.161099
0.829741 0.040443 0.158100
0.887513 0.038133 0.156803
0.943441 0.036586 0.154881
0.019705 0.156885 0.165022
0.029706 0.157370 0.165883
0.071271 0.156885 0.167148
0.143871 0.154138 0.164796
0.218405 0.151014 0.162345
0.296964 0.144666 0.156750
0.376862 0.138004 0.152663
0.454939 0.129403 0.145944
0.528633 0.120412 0.138608
0.597572 0.111565 0.131160
0.662843 0.104042 0.124386
0.723812 0.096636 0.117959
0.783129 0.089010 0.110120
0.840346 0.083139 0.105198
0.899284 0.078094 0.099436
0.951222 0.088143 0.107351
0.016579 0.222664 0.164943
0.024412 0.223451 0.164083
0.058316 0.224743 0.159588
0.128922 0.224497 0.153332
0.209961 0.222682 0.146693
0.287269 0.221400 0.141932
0.369807 0.222682 0.135816
0.448538 0.221400 0.128839
0.523208 0.218545 0.121439
0.593211 0.214604 0.113979
0.658435 0.210181 0.107187
0.721499 0.205166 0.099996
0.781774 0.200664 0.092897
0.839351 0.196088 0.088444
0.898827 0.193285 0.082809
0.951152 0.196088 0.093540
0.014878 0.293721 0.168958
0.021264 0.294547 0.166858
0.048908 0.296742 0.157162
0.110404 0.298607 0.139891
0.200871 0.297591 0.129236
0.279419 0.294029 0.125412
0.359151 0.297591 0.120442
0.439065 0.301128 0.115484
0.514834 0.302051 0.110154
0.585925 0.300819 0.104713
0.653079 0.298998 0.098413
0.717129 0.295764 0.094205
0.778031 0.291258 0.088767
0.836457 0.287240 0.084302
0.896010 0.285147 0.079811
0.951087 0.283167 0.082317
0.013986 0.367442 0.173894
0.019405 0.368138 0.170919
0.043510 0.371401 0.156760
0.095563 0.374102 0.128757
0.191660 0.374369 0.111462
0.276279 0.372435 0.109404
0.351456 0.368409 0.106054
0.429185 0.372435 0.102959
0.506137 0.376364 0.099463
0.578361 0.377302 0.095690
0.646481 0.376364 0.091169
0.711553 0.374330 0.088528
0.773765 0.371293 0.084356
0.833107 0.367982 0.080108
0.892766 0.365315 0.076514
0.949570 0.362025 0.073352
0.013568 0.441511 0.178247
0.018315 0.442199 0.174678
0.038968 0.444474 0.157924
0.083598 0.448045 0.120535
0.184513 0.447708 0.100065
0.273731 0.445585 0.096497
0.351734 0.444777 0.094836
0.423803 0.442643 0.092364
