assets/core/filters/luts/08_Wedding LUTs_Saturation.cube
LUT_3D_SIZE 6
0.037824 0.040483 0.043256
0.160024 0.032286 0.035675
0.363753 0.020352 0.025591
0.569619 0.015994 0.022574
0.758574 0.014750 0.021554
0.934583 0.014214 0.020794
0.020338 0.156808 0.027777
0.147614 0.154876 0.022644
0.357394 0.166403 0.018927
0.567819 0.173815 0.016397
0.758422 0.174733 0.014956
0.934573 0.171628 0.014980
0.014023 0.367576 0.024547
0.154658 0.367835 0.015967
0.352187 0.366309 0.015456
0.562782 0.383034 0.015123
0.756077 0.386062 0.013946
0.933460 0.382336 0.015202
0.013558 0.583775 0.025724
0.162063 0.583937 0.013849
0.368172 0.583581 0.015015
0.562219 0.583064 0.015134
0.753694 0.586080 0.014591
0.932226 0.581900 0.015946
0.014775 0.778342 0.026672
0.162899 0.778432 0.015927
0.368516 0.778335 0.016056
0.563057 0.778246 0.016288
0.751822 0.778669 0.015943
0.931440 0.774932 0.017378
0.038253 0.958174 0.045436
0.168864 0.958174 0.042595
0.367026 0.958174 0.042591
0.558471 0.958174 0.042588
0.743767 0.958174 0.042583
0.926364 0.958174 0.042580
0.034092 0.037342 0.182056
0.160764 0.028932 0.176485
0.362698 0.019907 0.179293
0.569312 0.015903 0.184764
0.759324 0.015890 0.185066
0.934624 0.014218 0.181874
0.019705 0.156885 0.165022
0.143871 0.154138 0.164796
0.376862 0.138004 0.152663
0.597572 0.111565 0.131160
0.783129 0.089010 0.110120
0.951222 0.088143 0.107351
0.013986 0.367442 0.173894
0.095563 0.374102 0.128757
0.351456 0.368409 0.106054
0.578361 0.377302 0.095690
0.773765 0.371293 0.084356
0.949570 0.362025 0.073352
0.013563 0.583701 0.182946
0.067810 0.589902 0.109343
0.348848 0.588163 0.078672
0.562097 0.584760 0.074939
0.761655 0.584511 0.070760
0.941502 0.576332 0.065431
0.014788 0.778329 0.183337
0.056820 0.782368 0.100819
0.340656 0.781868 0.064771
0.554595 0.780580 0.063525
0.751055 0.778658 0.063052
0.935104 0.774104 0.059631
0.038253 0.958174 0.186454
0.144824 0.958174 0.168036
0.358030 0.958174 0.162358
0.554459 0.958174 0.162356
0.742205 0.958174 0.162349
0.926037 0.958174 0.162347
0.024676 0.029574 0.415416
0.172583 0.023977 0.410763
0.366050 0.018428 0.395650
0.568073 0.015559 0.402390
0.757253 0.014187 0.402186
0.934458 0.014235 0.398299
0.018250 0.174277 0.398097
0.138952 0.151424 0.420592
0.379289 0.131263 0.413954
0.594666 0.107730 0.410606
0.782133 0.086901 0.398139
0.951149 0.084563 0.385839
0.013850 0.370479 0.385189
0.090922 0.375042 0.391877
0.344712 0.366605 0.388527
0.587958 0.351378 0.375630
0.795180 0.326214 0.351442
0.950862 0.337856 0.357725
0.013592 0.583620 0.398657
0.066865 0.588802 0.389042
0.286765 0.593843 0.342055
0.558432 0.586549 0.320665
0.776508 0.571606 0.300256
0.949802 0.561459 0.327599
0.014835 0.778275 0.399094
0.056000 0.782284 0.382070
0.229192 0.789157 0.293403
0.520065 0.786769 0.262684
0.749722 0.782564 0.251505
0.946049 0.767770 0.235807
0.038250 0.958174 0.396691
0.144823 0.958174 0.391258
0.348575 0.958174 0.381125
0.551573 0.958174 0.383594
0.740857 0.958174 0.383590
0.925813 0.958174 0.383589
0.018726 0.024710 0.629524
0.172637 0.019012 0.627297
0.378301 0.016913 0.619893
0.570470 0.015057 0.613311
0.757883 0.014197 0.610342
0.934139 0.014274 0.604689
0.016314 0.180051 0.621119
0.124767 0.140493 0.660569
0.383988 0.120819 0.653982
0.592045 0.101061 0.639307
0.779104 0.083845 0.622765
0.951165 0.076854 0.607638
0.013725 0.387397 0.610905
0.088375 0.386801 0.633162
0.338526 0.361837 0.644873
0.584356 0.345169 0.638189
0.793646 0.318827 0.621222
0.950646 0.334798 0.596456
0.013651 0.585435 0.606985
0.065916 0.588620 0.611257
0.281283 0.591008 0.618765
0.554635 0.583390 0.612518
0.777395 0.569782 0.598186
0.949748 0.568563 0.591719
0.014935 0.778212 0.605596
0.054371 0.781178 0.601595
0.226581 0.787698 0.583779
0.499576 0.788550 0.562537
0.748269 0.782349 0.551862
0.946695 0.768046 0.558555
0.038248 0.958174 0.600409
0.144832 0.958174 0.598290
0.348574 0.958174 0.593960
0.559829 0.958174 0.599772
0.748406 0.958174 0.606175
0.927152 0.958174 0.606175
0.015634 0.021901 0.818321
0.168221 0.016229 0.818550
0.373151 0.015516 0.814514
0.566383 0.014600 0.810461
0.753609 0.014247 0.808044
0.933682 0.014371 0.804678
0.014755 0.176663 0.814714
0.105629 0.124816 0.856825
0.370789 0.107015 0.852121
0.579287 0.092961 0.840191
0.769794 0.079064 0.828777
0.949965 0.069157 0.816201
0.013547 0.385202 0.808613
0.082485 0.380081 0.835133
0.329096 0.351544 0.854378
0.568830 0.335956 0.851547
0.782412 0.310130 0.845724
0.950519 0.329740 0.813158
0.013747 0.583637 0.805322
0.064085 0.584794 0.816508
0.272532 0.577750 0.839365
0.549009 0.575730 0.839747
0.769370 0.565025 0.834371
0.949524 0.565495 0.809953
0.015100 0.776234 0.803965
0.055398 0.778267 0.806936
0.222610 0.782458 0.814586
0.493468 0.782239 0.816783
0.746271 0.777890 0.809985
0.946446 0.771056 0.799374
0.038247 0.958174 0.798470
0.144830 0.958174 0.797479
0.348574 0.958174 0.796344
0.559829 0.958174 0.797951
0.752610 0.958174 0.799750
0.929402 0.958174 0.803503
0.038291 0.041826 0.996328
0.169497 0.040403 0.996328
0.367252 0.040400 0.996328
0.558540 0.040396 0.996328
0.743774 0.040394 0.996327
0.926351 0.040389 0.996327
0.038295 0.177878 0.996328
0.144872 0.155935 0.996328
0.359037 0.154030 0.996328
0.554932 0.154028 0.996328
0.743180 0.154047 0.996327
0.925990 0.154045 0.996327
0.038283 0.381791 0.996328
0.144866 0.375317 0.996328
0.348594 0.364677 0.996328
0.550907 0.365801 0.996327
0.741583 0.365795 0.996327
0.925825 0.365794 0.996327
0.038276 0.579169 0.996327
0.144858 0.576088 0.996327
0.348590 0.571866 0.996327
0.559834 0.579454 0.996327
0.746854 0.582799 0.996326
0.926949 0.582799 0.996326
0.038265 0.771049 0.996326
0.144856 0.769967 0.996326
0.348583 0.768208 0.996326
0.559832 0.771100 0.996326
0.752675 0.775940 0.996325
0.929097 0.777801 0.996325
0.038241 0.958174 0.996324
0.144822 0.958174 0.996324
0.348573 0.958174 0.996324
0.559829 0.958174 0.996324
0.753272 0.958174 0.996324
0.930856 0.958174 0.996323
