assets/core/filters/luts/5_Teal and Orange LUTs_Orange Tint.cube
LUT_3D_SIZE 16
0.073643 0.105090 0.107755
0.083504 0.104955 0.107632
0.119674 0.104033 0.106696
0.174085 0.096541 0.100224
0.236798 0.086505 0.088427
0.296596 0.075443 0.077172
0.359130 0.064217 0.066057
0.427216 0.054575 0.056231
0.503999 0.046056 0.047564
0.587252 0.038863 0.040252
0.670943 0.032114 0.033557
0.747224 0.028830 0.030166
0.810628 0.023833 0.024581
0.861995 0.023414 0.025087
0.903256 0.021238 0.021976
0.932349 0.024285 0.025087
0.073177 0.117960 0.107154
0.082986 0.117717 0.106860
0.120259 0.117960 0.105027
0.173562 0.111289 0.098409
0.234704 0.104024 0.086083
0.294794 0.096142 0.076116
0.358036 0.088316 0.064799
0.426423 0.082659 0.055225
0.503334 0.079100 0.046710
0.586779 0.077287 0.039485
0.670317 0.075028 0.033651
0.746728 0.076269 0.030328
0.810607 0.071269 0.022673
0.861995 0.070296 0.022491
0.903233 0.067254 0.021810
0.932349 0.065301 0.024231
0.067092 0.161228 0.098871
0.078384 0.160853 0.098020
0.115885 0.159142 0.095711
0.169935 0.158765 0.088639
0.229585 0.155590 0.078505
0.290540 0.152716 0.068783
0.354150 0.149303 0.060455
0.423223 0.148521 0.052053
0.500775 0.150130 0.044372
0.584890 0.153129 0.037785
0.669612 0.155363 0.032321
0.745839 0.155225 0.026908
0.809654 0.154613 0.027923
0.861995 0.148805 0.022288
0.903164 0.143066 0.021790
0.932349 0.137187 0.022288
0.053162 0.218539 0.079472
0.067125 0.218205 0.078708
0.109307 0.217542 0.077432
0.162519 0.214184 0.073629
0.222370 0.214986 0.067101
0.284293 0.214423 0.060177
0.348271 0.214986 0.053323
0.418224 0.217446 0.046613
0.496626 0.222503 0.040270
0.581663 0.228864 0.034748
0.667391 0.233460 0.027506
0.743442 0.234817 0.029313
0.810228 0.231975 0.020166
0.861995 0.224600 0.020883
0.902944 0.218020 0.021880
0.932349 0.209591 0.022606
0.040729 0.279252 0.061835
0.057301 0.279098 0.060937
0.102885 0.278276 0.059865
0.158442 0.277151 0.057989
0.216935 0.274563 0.053526
0.277641 0.274708 0.050341
0.342191 0.278437 0.044895
0.412801 0.283446 0.039923
0.491896 0.291466 0.035084
0.577873 0.300903 0.030813
0.664542 0.308805 0.029641
0.742407 0.310524 0.029015
0.808307 0.307818 0.024059
0.861995 0.298992 0.018830
0.902677 0.289534 0.022326
0.932349 0.278714 0.023113
0.030813 0.342521 0.047574
0.050564 0.342365 0.046392
0.099935 0.342521 0.045675
0.157437 0.341422 0.044493
0.215788 0.339746 0.044110
0.275606 0.339211 0.039584
0.337322 0.339746 0.036637
0.408121 0.346788 0.033137
0.487607 0.357494 0.029702
0.574265 0.369921 0.026718
0.660436 0.378124 0.024389
0.740595 0.382998 0.024957
0.808059 0.378111 0.020493
0.861177 0.369816 0.027337
0.902363 0.358446 0.023078
0.932349 0.345327 0.023822
0.023175 0.409637 0.036506
0.046907 0.409617 0.035151
0.099275 0.409637 0.034671
0.157642 0.408670 0.035151
0.218428 0.408388 0.034032
0.278271 0.407799 0.030820
0.339822 0.406538 0.029507
0.405110 0.408753 0.027242
0.484366 0.421384 0.025071
0.571425 0.436484 0.023345
0.659932 0.448894 0.020739
0.741305 0.452967 0.021617
0.807748 0.449807 0.019739
0.859501 0.438415 0.022985
0.902095 0.425051 0.024047
0.932349 0.409887 0.024728
0.017676 0.482778 0.028523
0.045726 0.482709 0.026961
0.099857 0.482778 0.027635
0.161554 0.481793 0.026076
0.224332 0.482873 0.025752
0.285605 0.481409 0.027484
0.349187 0.481062 0.024000
0.412973 0.480512 0.023092
0.482523 0.483936 0.022190
0.569558 0.501327 0.021800
0.659011 0.515472 0.017933
0.739495 0.522005 0.020085
0.806599 0.517530 0.022606
0.860319 0.504898 0.029380
0.901757 0.489600 0.025221
0.932349 0.472364 0.025826
0.014577 0.562878 0.024171
0.046391 0.562838 0.022333
0.104352 0.562878 0.019860
0.167462 0.562838 0.015576
0.233026 0.562990 0.021790
0.297054 0.562745 0.012727
0.362095 0.562090 0.021790
0.428528 0.561875 0.021902
0.496094 0.561620 0.022297
0.568681 0.564863 0.022931
0.657308 0.581125 0.023163
0.738642 0.587885 0.026430
0.806359 0.583483 0.016308
0.858681 0.569705 0.026236
0.901552 0.552476 0.026606
0.932349 0.533220 0.027121
0.014705 0.642769 0.024904
0.047703 0.642764 0.022546
0.106634 0.642769 0.021433
0.174054 0.642764 0.019972
0.239741 0.642576 0.021662
0.305807 0.642366 0.022033
0.373181 0.642576 0.023392
0.441485 0.642366 0.023765
0.511153 0.642305 0.024213
0.581829 0.642111 0.024750
0.657089 0.644924 0.033138
0.738549 0.652626 0.032784
0.806105 0.648740 0.026388
0.859519 0.633811 0.024171
0.901374 0.613711 0.028165
0.932307 0.592499 0.028586
0.016139 0.716066 0.027623
0.048600 0.716059 0.024717
0.109549 0.716066 0.024100
0.176048 0.716059 0.022973
0.243968 0.716692 0.029941
0.311166 0.716762 0.033009
0.379002 0.715850 0.025498
0.448449 0.715920 0.025845
0.519103 0.715847 0.026268
0.590980 0.715785 0.026757
0.662999 0.715847 0.010357
0.738777 0.715785 0.011579
0.806790 0.710937 0.022817
0.859256 0.693923 0.022270
0.901132 0.673673 0.029878
0.932135 0.650555 0.030208
0.017644 0.778068 0.030156
0.048764 0.778065 0.026977
0.109343 0.778068 0.026590
0.176218 0.778065 0.025214
0.243572 0.778044 0.016503
0.310734 0.778003 0.017646
0.378671 0.778044 0.027701
0.448028 0.778003 0.028029
0.518662 0.777925 0.028420
0.590434 0.777815 0.028874
0.664326 0.777925 0.019704
0.737475 0.777815 0.018440
0.805787 0.772889 0.037226
0.858359 0.754861 0.017974
0.901012 0.732735 0.031738
0.932126 0.707698 0.031972
0.019191 0.828232 0.032424
0.048417 0.828230 0.029313
0.108109 0.828232 0.028823
0.173782 0.828230 0.028419
0.240765 0.828232 0.032688
0.306869 0.828209 0.034814
0.373196 0.828232 0.029978
0.441590 0.828209 0.030275
0.511289 0.828242 0.030630
0.582069 0.828205 0.031053
0.653698 0.828242 0.023543
0.726750 0.828205 0.024827
0.798830 0.827326 0.038315
0.858200 0.814976 0.036609
0.900849 0.790918 0.033714
0.931957 0.763900 0.033857
0.020758 0.869865 0.034491
0.047879 0.869863 0.031658
0.105817 0.869865 0.031760
0.169066 0.869863 0.030757
0.233655 0.869813 0.011691
0.299143 0.869760 0.035274
0.364579 0.869813 0.032262
0.431468 0.869760 0.032536
0.499644 0.869782 0.032865
0.568925 0.869712 0.033260
0.638911 0.869782 0.028364
0.709672 0.869712 0.027858
0.780836 0.868952 0.016473
0.852273 0.869535 0.009297
0.900742 0.848779 0.035811
0.931876 0.819721 0.035858
0.022266 0.904612 0.036342
0.047273 0.904610 0.033900
0.102378 0.904612 0.033593
0.164284 0.904610 0.033900
0.226545 0.904625 0.037222
0.290150 0.904580 0.036543
0.354133 0.904625 0.034461
0.419196 0.904580 0.034705
0.485472 0.904614 0.035008
0.552853 0.904550 0.035366
0.620821 0.904614 0.032273
0.690560 0.904550 0.030819
0.759061 0.904489 0.040779
0.830172 0.905606 0.039802
0.898617 0.904489 0.037987
0.931760 0.875403 0.037941
0.023514 0.931881 0.037822
0.046397 0.931880 0.035762
0.097579 0.931881 0.035056
0.158119 0.931880 0.034845
0.218975 0.931853 0.037192
0.279997 0.931811 0.038343
0.341292 0.931853 0.036270
0.403972 0.931811 0.036492
0.467880 0.931766 0.036770
0.532877 0.931835 0.037091
0.598475 0.931766 0.034932
0.665976 0.930956 0.033421
0.733604 0.931704 0.043233
0.800364 0.931752 0.043874
0.866992 0.931704 0.039482
0.931597 0.931752 0.040120
0.073630 0.105111 0.121468
0.083455 0.104938 0.121334
0.119659 0.104055 0.121468
0.174026 0.096524 0.117028
0.235692 0.086389 0.108429
0.296496 0.074350 0.099129
0.358985 0.064104 0.091591
0.427113 0.054498 0.085596
0.503857 0.045991 0.081806
0.587260 0.038826 0.079843
0.670873 0.032965 0.078745
0.747237 0.027902 0.078823
0.810618 0.023831 0.074159
0.861995 0.024217 0.073362
0.903245 0.021237 0.069130
0.932349 0.024217 0.067329
0.073117 0.117903 0.120860
0.082912 0.117638 0.120592
0.119112 0.116836 0.120860
0.174520 0.112279 0.115210
0.236642 0.098378 0.101539
0.298840 0.083323 0.085192
0.362733 0.070612 0.072628
0.431197 0.059187 0.060973
0.508146 0.049497 0.051115
0.591216 0.041581 0.043067
0.675048 0.034489 0.036035
0.750188 0.031448 0.033792
0.812734 0.026354 0.027158
0.864563 0.024696 0.025408
0.904484 0.022853 0.023645
0.932349 0.055365 0.057132
0.066911 0.161103 0.115034
0.077754 0.160636 0.113690
0.114620 0.159033 0.108631
0.170347 0.156462 0.103060
0.231817 0.153644 0.090500
0.292995 0.147056 0.078971
0.358139 0.142073 0.067056
0.427446 0.139668 0.056984
0.505078 0.139931 0.048156
0.588986 0.141795 0.040811
0.673799 0.144154 0.034124
0.749768 0.143906 0.028908
0.812576 0.139087 0.024309
0.864563 0.135078 0.022313
0.904372 0.130584 0.023437
0.932349 0.132948 0.055616
0.053043 0.218415 0.099743
0.060859 0.218926 0.090432
0.105985 0.217397 0.086194
0.162217 0.213916 0.083210
0.223444 0.214158 0.074404
0.287716 0.212820 0.067364
0.351203 0.212145 0.058454
0.421472 0.213823 0.050679
0.500068 0.218211 0.043555
0.585123 0.223913 0.037460
0.671559 0.228182 0.029736
0.746856 0.228921 0.027483
0.812302 0.226816 0.026098
0.863747 0.218981 0.019170
0.904129 0.211806 0.023472
0.932349 0.206926 0.053019
0.040668 0.279194 0.086386
0.045040 0.280002 0.068125
0.097550 0.279194 0.066092
0.157670 0.277104 0.063149
0.216786 0.274480 0.059363
0.278969 0.275120 0.053654
0.343963 0.277406 0.048692
0.415043 0.281912 0.043137
0.494477 0.289536 0.037813
0.580557 0.298524 0.033187
0.667965 0.305885 0.026934
0.745087 0.308125 0.026015
0.811080 0.304127 0.019530
0.861995 0.295011 0.016808
0.903763 0.285838 0.023832
0.932349 0.276643 0.048389
0.030777 0.342486 0.077153
0.033390 0.343180 0.051443
0.092555 0.343417 0.050403
0.153986 0.342249 0.048561
0.215493 0.340369 0.047003
0.276000 0.338656 0.044071
0.338019 0.339386 0.039465
0.409407 0.346216 0.035685
0.489359 0.356628 0.032002
0.576266 0.368763 0.028804
0.662939 0.377253 0.027517
0.742560 0.382751 0.029701
0.809021 0.376550 0.021013
0.861995 0.367013 0.024975
0.903401 0.355974 0.024477
0.932349 0.343506 0.040395
0.023152 0.409668 0.071913
0.024921 0.410372 0.039195
0.089851 0.409668 0.037029
0.154541 0.409484 0.037339
0.216575 0.408473 0.037234
0.278796 0.407577 0.035698
0.339986 0.406664 0.031747
0.405574 0.408491 0.029344
0.485334 0.421085 0.027046
0.572782 0.435989 0.025212
0.660838 0.447675 0.024408
0.741783 0.452443 0.020875
0.808589 0.448145 0.023581
0.861995 0.436756 0.025059
0.902956 0.423374 0.025330
0.932349 0.408184 0.025939
0.017666 0.482755 0.070143
0.019024 0.483369 0.030665
0.091476 0.482755 0.031768
0.157837 0.483369 0.027093
0.221848 0.482206 0.029450
0.285742 0.481555 0.027570
0.348745 0.481287 0.025896
0.413141 0.480668 0.024922
0.482839 0.483789 0.023939
0.570402 0.501096 0.023462
0.659344 0.514438 0.023939
0.740374 0.519984 0.026090
0.807267 0.516372 0.024642
0.861177 0.503629 0.027831
0.902515 0.488473 0.026400
0.932349 0.471075 0.026946
0.014575 0.562872 0.071163
0.015735 0.563355 0.026068
0.094888 0.562872 0.019478
0.163104 0.562486 0.024313
0.229146 0.562452 0.020850
0.294717 0.562889 0.023487
0.361252 0.562452 0.023438
0.428158 0.562020 0.023487
0.496231 0.561731 0.023816
0.569065 0.564805 0.024353
0.659150 0.581239 0.024689
0.738991 0.586943 0.026110
0.806102 0.582666 0.027661
0.859501 0.568921 0.032653
0.902130 0.551636 0.027661
0.932349 0.532395 0.028154
0.014706 0.642767 0.073601
0.015687 0.643318 0.026550
0.097152 0.643697 0.017303
0.168228 0.643318 0.019612
0.236426 0.644453 0.026522
0.304131 0.642612 0.028625
0.371891 0.642730 0.024762
0.440836 0.642612 0.025087
0.510820 0.642363 0.025492
0.581962 0.642172 0.025963
0.658442 0.645016 0.027258
0.738644 0.651779 0.027733
0.807401 0.647285 0.033641
0.860319 0.631493 0.029523
0.901771 0.613134 0.029125
0.932349 0.591935 0.029523
0.016141 0.716063 0.075692
0.016954 0.716271 0.028994
0.097926 0.716063 0.025074
0.169812 0.716271 0.023700
0.240454 0.716039 0.024017
0.308228 0.715969 0.025203
0.377562 0.716039 0.026655
0.447444 0.715969 0.026967
0.518562 0.715861 0.027363
0.590811 0.715908 0.027810
0.664201 0.715861 0.024719
0.738652 0.715908 0.025160
0.805475 0.710475 0.029851
0.858681 0.693545 0.039315
0.901500 0.673289 0.030752
0.932349 0.650130 0.031063
0.017648 0.778067 0.076485
0.018338 0.778249 0.031327
0.098776 0.778067 0.026646
0.169456 0.778249 0.026855
0.240861 0.778140 0.033200
0.308574 0.778097 0.034431
0.377026 0.778140 0.028691
0.446877 0.778097 0.029004
0.517936 0.778047 0.029366
0.590033 0.778016 0.029802
0.662752 0.778047 0.033887
0.737872 0.778016 0.032509
0.806006 0.773528 0.027144
0.859450 0.754709 0.022980
0.901221 0.732465 0.032529
0.932307 0.707493 0.032756
0.019197 0.828232 0.076218
0.019800 0.828448 0.033429
0.096519 0.829063 0.030876
0.168144 0.828448 0.028916
0.236873 0.828352 0.034479
0.303588 0.828250 0.036601
0.371405 0.828352 0.030846
0.440284 0.828250 0.031127
0.510306 0.828220 0.031468
0.581480 0.828251 0.031873
0.653635 0.828220 0.020891
0.726188 0.828251 0.020421
0.798970 0.828013 0.024584
0.857484 0.813993 0.018698
0.901027 0.790777 0.034435
0.932129 0.763766 0.034577
0.020761 0.869864 0.075349
0.021302 0.869968 0.035365
0.095286 0.869864 0.025660
0.163749 0.869968 0.031719
0.229772 0.870005 0.015618
0.295807 0.869919 0.017517
0.362815 0.870005 0.033034
0.430134 0.869919 0.033295
0.498627 0.869930 0.033623
0.568180 0.869821 0.033995
0.638806 0.869930 0.027326
0.709831 0.869821 0.025037
0.780923 0.868969 0.042062
0.852390 0.869492 0.039299
0.900838 0.848733 0.036481
0.931998 0.819713 0.036519
0.022269 0.904611 0.074162
0.022750 0.904721 0.037112
0.092935 0.904611 0.038172
0.159257 0.904721 0.033441
0.223651 0.904640 0.036080
0.288695 0.904675 0.038169
0.352317 0.904640 0.035162
0.417809 0.904675 0.035403
0.484437 0.904630 0.035705
0.552053 0.904647 0.036042
0.619794 0.904630 0.030250
0.689845 0.904647 0.029681
0.759063 0.904581 0.024157
0.829396 0.905541 0.015626
0.898619 0.904581 0.038594
0.931783 0.875349 0.038557
0.023513 0.931881 0.072548
0.023966 0.931994 0.038531
0.089235 0.931881 0.036691
0.153402 0.931994 0.036680
0.216036 0.931978 0.037831
0.276643 0.931976 0.038994
0.339475 0.931978 0.036908
0.402626 0.931976 0.037142
0.466848 0.931889 0.037414
0.532007 0.931997 0.037729
0.597462 0.931889 0.033742
0.665074 0.931997 0.033140
0.732642 0.931853 0.044774
0.799531 0.931721 0.044451
0.866920 0.931853 0.040073
0.931638 0.931721 0.040689
0.073429 0.105066 0.168947
0.084012 0.104722 0.168797
0.119437 0.102949 0.167914
0.174586 0.098390 0.169832
0.235175 0.085902 0.165383
0.296135 0.072977 0.160477
0.358510 0.063634 0.156017
0.426775 0.054159 0.154210
0.503659 0.045750 0.155160
0.586985 0.038647 0.157718
0.671555 0.032734 0.161406
0.747007 0.031317 0.159796
0.810574 0.022955 0.155946
0.861995 0.022184 0.151346
0.903197 0.021232 0.146511
0.932349 0.023919 0.140811
0.072689 0.118785 0.168403
0.082589 0.117412 0.168230
0.118655 0.114486 0.165289
0.172116 0.109926 0.166156
0.235112 0.098823 0.162320
0.299417 0.083940 0.155731
0.362233 0.070037 0.148736
0.430813 0.058791 0.145236
0.507805 0.049223 0.144797
0.590937 0.041390 0.146206
0.673810 0.036059 0.147950
0.749975 0.028568 0.146206
0.812723 0.026346 0.143376
0.864563 0.023711 0.138892
0.904516 0.022846 0.133832
0.932349 0.055238 0.136769
0.066127 0.160565 0.164148
0.076986 0.160115 0.163730
0.113779 0.157436 0.162082
0.169555 0.153869 0.157488
0.232190 0.146402 0.150452
0.300742 0.129623 0.133433
0.371636 0.110116 0.113158
0.444891 0.090296 0.092994
0.524512 0.073643 0.076035
0.607951 0.060663 0.062821
0.688169 0.049961 0.051270
0.762239 0.044236 0.045364
0.821866 0.036897 0.038946
0.870486 0.032093 0.032343
0.910232 0.032320 0.033423
0.932349 0.118476 0.122001
0.052560 0.217977 0.156239
0.060219 0.218417 0.153043
0.102290 0.216957 0.146806
0.161525 0.214392 0.139358
0.226788 0.211122 0.127253
0.295075 0.205179 0.112628
0.362826 0.200035 0.095288
0.435837 0.197084 0.080188
0.516278 0.197374 0.067068
0.601461 0.199363 0.056512
0.684551 0.199386 0.047525
0.758478 0.199363 0.043076
0.820412 0.194444 0.035613
0.870486 0.188307 0.034617
0.909528 0.181163 0.032871
0.932349 0.199492 0.120383
0.040396 0.278945 0.148308
0.044707 0.279702 0.141377
0.074560 0.282809 0.110984
0.148931 0.278727 0.104003
0.218003 0.275989 0.095783
0.281948 0.273410 0.087511
0.351698 0.273077 0.076193
0.425226 0.275365 0.066176
0.506633 0.280906 0.057037
0.593444 0.287751 0.049457
0.678695 0.291556 0.043581
0.754895 0.292571 0.039060
0.817885 0.287394 0.033576
0.868738 0.278799 0.034900
0.908775 0.268956 0.032666
0.932349 0.271995 0.118558
0.030617 0.342306 0.143644
0.033206 0.343102 0.134357
0.051166 0.346995 0.078174
0.139043 0.344043 0.075370
0.209424 0.342268 0.070531
0.275667 0.339268 0.066142
0.341717 0.338483 0.059596
0.415550 0.343998 0.053363
0.497530 0.353215 0.047475
0.585717 0.363882 0.042487
0.673467 0.372004 0.038066
0.750886 0.374189 0.038749
0.815184 0.367980 0.034458
0.867926 0.357305 0.027163
0.907826 0.345437 0.032634
0.932349 0.340345 0.115792
0.023065 0.409578 0.142595
0.024820 0.410262 0.131852
0.037430 0.413293 0.058180
0.133321 0.412106 0.055135
0.208091 0.410018 0.052642
0.275616 0.409610 0.048914
0.340483 0.407249 0.046884
0.408132 0.407793 0.043213
0.490283 0.419989 0.039707
0.579197 0.433989 0.036811
0.667376 0.444779 0.036004
0.748005 0.447726 0.034057
0.813193 0.442130 0.032747
0.866237 0.430749 0.028246
0.906648 0.416423 0.032747
0.932349 0.405837 0.111738
0.017612 0.482695 0.144849
0.018974 0.483353 0.133119
0.027993 0.486322 0.044821
0.134612 0.485160 0.041926
0.209709 0.484276 0.041557
0.279470 0.483879 0.039967
0.346732 0.482467 0.037832
0.413640 0.481153 0.036258
0.485057 0.483544 0.034537
0.574351 0.500603 0.033350
0.663179 0.514198 0.030003
0.744125 0.518558 0.036096
0.813009 0.512514 0.032163
0.864563 0.499805 0.040524
0.905648 0.483662 0.033070
0.932349 0.469015 0.105821
0.014562 0.562809 0.149784
0.015718 0.563309 0.137234
0.022993 0.566377 0.037978
0.137908 0.565978 0.036227
0.216950 0.564662 0.032277
0.287499 0.563870 0.035564
0.357316 0.563762 0.033186
0.426823 0.563001 0.032822
0.496795 0.562293 0.032667
0.571043 0.564962 0.032630
0.660553 0.580031 0.029062
0.743447 0.586223 0.036289
0.810291 0.581143 0.030027
0.863747 0.565095 0.040212
0.904634 0.548302 0.033647
0.932349 0.530370 0.097034
0.014718 0.642753 0.154714
0.015697 0.643305 0.141663
0.022294 0.646266 0.036776
0.141061 0.644134 0.034560
0.221760 0.644146 0.028151
0.295360 0.644568 0.033613
0.366489 0.644146 0.032651
0.437954 0.643706 0.032703
0.509905 0.643094 0.032786
0.582376 0.642599 0.032929
0.660194 0.645747 0.031879
0.739852 0.652207 0.032929
0.809374 0.646781 0.041886
0.861995 0.630546 0.035179
0.903670 0.610890 0.034470
0.932349 0.590099 0.083090
0.016152 0.716053 0.157717
0.016964 0.716422 0.144383
0.021211 0.717794 0.036659
0.142673 0.718965 0.030537
0.224559 0.717311 0.033175
0.298130 0.716940 0.036061
0.371025 0.717311 0.033175
0.443339 0.716940 0.033314
0.516339 0.716639 0.033503
0.589881 0.716233 0.033732
0.664671 0.716639 0.039959
0.739476 0.715391 0.029212
0.807740 0.709817 0.032798
0.861177 0.691994 0.025232
0.902976 0.671701 0.035538
0.932349 0.648585 0.056938
0.017656 0.778062 0.157902
0.018352 0.778247 0.144557
0.020192 0.779841 0.035910
0.141253 0.779927 0.032496
0.223219 0.779120 0.036057
0.297589 0.778832 0.039015
0.369747 0.779120 0.034223
0.441908 0.778832 0.034404
0.514702 0.778668 0.034631
0.588271 0.778487 0.034906
0.662245 0.777893 0.030995
0.737870 0.778487 0.031268
0.807022 0.771679 0.034989
0.860319 0.754876 0.024402
0.902267 0.731518 0.036830
0.932349 0.705956 0.037001
0.019204 0.828228 0.155767
0.019807 0.828443 0.142574
0.016685 0.829930 0.029504
0.139896 0.829313 0.038113
0.219725 0.829896 0.033783
0.292026 0.829814 0.035810
0.363666 0.829065 0.035615
0.434783 0.828944 0.035810
0.506507 0.828754 0.036051
0.578948 0.828713 0.036343
0.650799 0.828754 0.042567
0.725472 0.827843 0.040986
0.800642 0.829331 0.042056
0.858681 0.814896 0.035666
0.901811 0.790239 0.038323
0.932349 0.762881 0.038436
0.020769 0.869861 0.152278
0.021308 0.869962 0.139390
0.026866 0.869861 0.043942
0.135397 0.870782 0.030786
0.213247 0.870476 0.029927
0.285803 0.870455 0.032836
0.354743 0.870476 0.037219
0.424264 0.870455 0.037419
0.494365 0.870283 0.037670
0.565179 0.870216 0.037964
0.636435 0.870283 0.036748
0.709406 0.870216 0.034285
0.780470 0.869576 0.019414
0.853659 0.869050 0.029949
0.901176 0.848547 0.039980
0.932349 0.819247 0.040024
0.022270 0.904609 0.148044
0.022760 0.904717 0.135526
0.024881 0.905460 0.040159
0.130804 0.905547 0.032925
0.208084 0.905193 0.043580
0.277516 0.905032 0.045676
0.344257 0.905193 0.038901
0.411748 0.905032 0.039095
0.479894 0.905104 0.039339
0.548707 0.904948 0.039619
0.618031 0.905104 0.043088
0.689130 0.904147 0.041492
0.758414 0.904596 0.040853
0.829711 0.904579 0.030716
0.898802 0.904596 0.041792
0.932107 0.875240 0.041760
0.023522 0.931879 0.142912
0.023975 0.931991 0.130851
0.029710 0.931879 0.048787
0.125877 0.931991 0.028965
0.198508 0.932349 0.026692
0.266399 0.932333 0.028652
0.331479 0.932349 0.040347
0.396582 0.932333 0.040541
0.462159 0.932359 0.040771
0.528489 0.932241 0.041045
0.594713 0.932359 0.027981
0.662566 0.932241 0.027353
0.730673 0.931918 0.039328
0.798804 0.931821 0.039880
0.866715 0.931918 0.043073
0.931759 0.931821 0.043634
0.072713 0.104527 0.235118
0.084012 0.103859 0.234965
0.121912 0.100302 0.235118
0.174590 0.095448 0.233958
0.234192 0.083901 0.230235
0.294459 0.073283 0.227753
0.357564 0.062695 0.226250
0.426099 0.053482 0.226742
0.503076 0.045252 0.230454
0.586573 0.038295 0.235802
0.670127 0.033168 0.239385
0.748190 0.030076 0.241738
0.810566 0.021226 0.236458
0.861995 0.021572 0.231053
0.903188 0.021226 0.222523
0.932349 0.023303 0.214068
0.071557 0.119091 0.234707
0.081641 0.116640 0.234508
0.120672 0.112655 0.233696
0.175291 0.105967 0.232528
0.234138 0.094505 0.231045
0.298529 0.081070 0.228483
0.361251 0.068900 0.224074
0.429953 0.058010 0.223500
0.507144 0.048668 0.226387
0.590438 0.041005 0.230989
0.673124 0.034616 0.233349
0.749422 0.029097 0.233954
0.812737 0.023707 0.231230
0.864563 0.021762 0.223959
0.904486 0.022840 0.216279
0.932349 0.054993 0.211952
0.063740 0.163243 0.231978
0.074651 0.162006 0.231883
0.113352 0.156996 0.230984
0.170281 0.153660 0.227905
0.231254 0.143378 0.224972
0.299672 0.129241 0.220727
0.370778 0.108124 0.212957
0.443898 0.088903 0.207705
0.523600 0.072709 0.206054
0.607217 0.060043 0.206558
0.688167 0.050986 0.207057
0.760586 0.043645 0.204557
0.821850 0.035021 0.198556
0.870486 0.032919 0.192449
0.910225 0.032284 0.185338
0.932349 0.118374 0.204586
0.051614 0.217185 0.221529
0.058945 0.217515 0.221883
0.099145 0.216186 0.220529
0.161226 0.213518 0.217873
0.225180 0.208840 0.213076
0.294728 0.199244 0.203411
0.367873 0.186543 0.190852
0.451070 0.166492 0.170756
0.541727 0.142835 0.147061
0.631619 0.120286 0.124363
0.713498 0.101229 0.104406
0.782623 0.086488 0.089370
0.838533 0.074633 0.077672
0.884707 0.065019 0.067653
0.921654 0.060644 0.062611
0.932349 0.189171 0.193876
0.039860 0.278436 0.216183
0.044047 0.279116 0.214198
0.072970 0.281355 0.205132
0.143992 0.279116 0.198059
0.214960 0.275620 0.191689
0.286544 0.270980 0.179311
0.361072 0.265875 0.162925
0.441491 0.262198 0.143947
0.529470 0.261122 0.124327
0.619581 0.261106 0.106619
0.704240 0.260135 0.091421
0.776905 0.254250 0.081574
0.834947 0.246513 0.070011
0.882219 0.237892 0.063092
0.919741 0.227700 0.060070
0.932349 0.265418 0.192284
0.030299 0.342031 0.213657
0.032854 0.342718 0.209999
0.051788 0.344870 0.192452
0.111871 0.347463 0.160947
0.199147 0.343358 0.152656
0.275766 0.340416 0.143232
0.348189 0.336737 0.129387
0.427621 0.339473 0.115450
0.514736 0.345791 0.101696
0.606053 0.352848 0.089688
0.694377 0.357091 0.078869
0.768012 0.352848 0.071290
0.829188 0.344579 0.065560
0.878828 0.333996 0.059806
0.917403 0.321828 0.057662
0.932349 0.335878 0.190922
0.022876 0.409374 0.214665
0.024624 0.409972 0.209980
0.038154 0.413101 0.186333
0.080256 0.417388 0.121783
0.186477 0.414720 0.113569
0.269493 0.410943 0.106899
0.341124 0.408212 0.099769
0.414317 0.407288 0.091137
0.501145 0.417915 0.082591
0.593383 0.429960 0.075191
0.683015 0.438184 0.068395
0.760916 0.437293 0.063163
0.824233 0.429060 0.060141
0.875457 0.415616 0.056852
0.915028 0.401382 0.055249
0.932349 0.402659 0.188882
0.017508 0.482657 0.219309
0.018872 0.483178 0.213936
0.026998 0.486275 0.185977
0.059505 0.490413 0.093054
0.182476 0.489440 0.086876
0.266769 0.487657 0.082612
0.342164 0.484900 0.077649
0.414492 0.482235 0.073448
