assets/core/filters/luts/5_Teal and Orange LUTs_Orange Tint.cube
LUT_3D_SIZE 6
0.073643 0.105090 0.107755
0.174085 0.096541 0.100224
0.359130 0.064217 0.066057
0.587252 0.038863 0.040252
0.810628 0.023833 0.024581
0.932349 0.024285 0.025087
0.053162 0.218539 0.079472
0.162519 0.214184 0.073629
0.348271 0.214986 0.053323
0.581663 0.228864 0.034748
0.810228 0.231975 0.020166
0.932349 0.209591 0.022606
0.023175 0.409637 0.036506
0.157642 0.408670 0.035151
0.339822 0.406538 0.029507
0.571425 0.436484 0.023345
0.807748 0.449807 0.019739
0.932349 0.409887 0.024728
0.014705 0.642769 0.024904
0.174054 0.642764 0.019972
0.373181 0.642576 0.023392
0.581829 0.642111 0.024750
0.806105 0.648740 0.026388
0.932307 0.592499 0.028586
0.019191 0.828232 0.032424
0.173782 0.828230 0.028419
0.373196 0.828232 0.029978
0.582069 0.828205 0.031053
0.798830 0.827326 0.038315
0.931957 0.763900 0.033857
0.023514 0.931881 0.037822
0.158119 0.931880 0.034845
0.341292 0.931853 0.036270
0.532877 0.931835 0.037091
0.733604 0.931704 0.043233
0.931597 0.931752 0.040120
0.072713 0.104527 0.235118
0.174590 0.095448 0.233958
0.357564 0.062695 0.226250
0.586573 0.038295 0.235802
0.810566 0.021226 0.236458
0.932349 0.023303 0.214068
0.051614 0.217185 0.221529
0.161226 0.213518 0.217873
0.367873 0.186543 0.190852
0.631619 0.120286 0.124363
0.838533 0.074633 0.077672
0.932349 0.189171 0.193876
0.022876 0.409374 0.214665
0.080256 0.417388 0.121783
0.341124 0.408212 0.099769
0.593383 0.429960 0.075191
0.824233 0.429060 0.060141
0.932349 0.402659 0.188882
0.014743 0.642737 0.233886
0.038656 0.648556 0.063238
0.354372 0.647085 0.056709
0.583218 0.643504 0.053792
0.814635 0.643024 0.047201
0.932349 0.588684 0.176190
0.019223 0.828221 0.234444
0.034879 0.830133 0.057493
0.346748 0.830584 0.049276
0.573716 0.829721 0.049067
0.800374 0.828971 0.053003
0.932349 0.761844 0.124572
0.023531 0.931875 0.214996
0.035643 0.931984 0.056511
0.314264 0.932349 0.049803
0.521140 0.932349 0.050107
0.728378 0.932193 0.052148
0.931889 0.932055 0.051512
0.061195 0.091914 0.465479
0.183192 0.076914 0.455758
0.360623 0.056985 0.434071
0.584024 0.036000 0.451399
0.811272 0.022943 0.457142
0.932349 0.021766 0.416036
0.044504 0.229067 0.441884
0.153660 0.210834 0.457913
0.373216 0.174840 0.448234
0.626159 0.112604 0.459463
0.835962 0.072601 0.440234
0.932349 0.188752 0.409925
0.021692 0.409271 0.415180
0.075703 0.415237 0.421148
0.332867 0.406195 0.412596
0.618547 0.383172 0.391010
0.860038 0.344420 0.352736
0.932349 0.400405 0.406810
0.014896 0.642694 0.451852
0.037880 0.648309 0.434126
0.257813 0.658513 0.346402
0.582529 0.646149 0.302041
0.839864 0.621420 0.266668
0.932349 0.587394 0.403072
0.019351 0.828263 0.451965
0.035923 0.830152 0.424564
0.165477 0.840658 0.237545
0.531056 0.836512 0.210546
0.802874 0.830850 0.196865
0.932349 0.760921 0.390220
0.023632 0.931916 0.415787
0.032996 0.931938 0.388051
0.298699 0.932349 0.377568
0.510371 0.932349 0.364822
0.722003 0.932349 0.338606
0.932349 0.932349 0.147035
0.045152 0.072672 0.698616
0.190350 0.061668 0.692114
0.391638 0.047064 0.674154
0.594151 0.032122 0.659122
0.809373 0.018881 0.655768
0.932349 0.022208 0.598390
0.035749 0.245580 0.680561
0.135417 0.198250 0.721317
0.400722 0.148689 0.714807
0.627397 0.099695 0.689118
0.833551 0.068845 0.660392
0.932349 0.187934 0.595907
0.019027 0.451048 0.656039
0.065358 0.451983 0.685016
0.325896 0.414126 0.698359
0.619895 0.375347 0.687523
0.858274 0.336244 0.649237
0.932349 0.400059 0.594443
0.015207 0.643731 0.649332
0.037270 0.648363 0.654019
0.249544 0.655292 0.661063
0.567831 0.641996 0.648879
0.840345 0.622003 0.628729
0.932349 0.639864 0.644455
0.019602 0.828248 0.648595
0.037108 0.830858 0.641898
0.161772 0.839208 0.608160
0.490751 0.838214 0.572259
0.801888 0.830856 0.553859
0.932349 0.782072 0.640626
0.023823 0.931862 0.597870
0.035935 0.931992 0.588301
0.296041 0.932349 0.582416
0.544452 0.932349 0.606334
0.743377 0.932349 0.616105
0.932349 0.932349 0.540984
0.033075 0.053040 0.852003
0.180157 0.044575 0.850988
0.380640 0.037656 0.843021
0.587283 0.027563 0.836328
0.802208 0.018736 0.832958
0.932349 0.022898 0.767736
0.027795 0.235889 0.845588
0.104399 0.155471 0.885351
0.375463 0.118497 0.876153
0.601708 0.085087 0.860951
0.821975 0.062605 0.848126
0.932349 0.186574 0.766804
0.016725 0.447599 0.834745
0.056592 0.434768 0.859130
0.314524 0.393845 0.878936
0.589139 0.362301 0.875021
0.851406 0.322204 0.869476
0.932349 0.399521 0.766187
0.015687 0.642934 0.831228
0.037734 0.641916 0.840232
0.238734 0.631605 0.865270
0.560414 0.623264 0.860738
0.831575 0.614508 0.855184
0.932349 0.639370 0.786088
0.019991 0.827441 0.830346
0.028423 0.829355 0.832181
0.156244 0.836392 0.838912
0.482450 0.835022 0.837740
0.805788 0.828057 0.830035
0.932349 0.827103 0.828807
0.024127 0.931784 0.766784
0.036250 0.931915 0.764082
0.291169 0.932349 0.761326
0.540612 0.932349 0.769786
0.794351 0.932349 0.816392
0.932349 0.932349 0.794495
0.065102 0.098031 0.932508
0.168049 0.093248 0.932504
0.344717 0.083338 0.932349
0.534777 0.065592 0.932349
0.734341 0.037165 0.932349
0.932349 0.023842 0.932349
0.060444 0.222511 0.932349
0.151475 0.209971 0.932349
0.336961 0.200598 0.932349
0.531453 0.195682 0.932349
0.732661 0.190803 0.932349
0.932349 0.184366 0.932349
0.039253 0.411638 0.932349
0.143364 0.407433 0.932349
0.330453 0.403667 0.932349
0.529036 0.402275 0.932349
0.732433 0.401454 0.932349
0.932349 0.398652 0.932349
0.015938 0.592861 0.932349
0.137432 0.590579 0.932349
0.327806 0.589100 0.932349
0.567121 0.620694 0.932349
0.757667 0.640363 0.932349
0.932349 0.638833 0.932349
0.019933 0.764022 0.932191
0.118313 0.763030 0.932349
0.320907 0.762259 0.932349
0.562559 0.774132 0.932349
0.804333 0.822883 0.932349
0.932349 0.826639 0.932349
0.024552 0.931800 0.931821
0.034851 0.931933 0.931951
0.282069 0.932349 0.932349
0.533232 0.932349 0.932349
0.788692 0.932349 0.932349
0.931638 0.931677 0.931616
